; HEADER_BLOCK_START
; generated by OrcaSlicer 2.3.2-rc2 on 2026-03-06 at 17:12:25
; total layer number: 75
; filament_density: 1.04
; filament_diameter: 1.75
; max_z_height: 15.00
; filament: 1
; HEADER_BLOCK_END

; THUMBNAIL_BLOCK_START

;
; THUMBNAIL_BLOCK_END

; THUMBNAIL_BLOCK_START

;
; THUMBNAIL_BLOCK_END

; external perimeters extrusion width = 0.40mm
; perimeters extrusion width = 0.40mm
; infill extrusion width = 0.40mm
; solid infill extrusion width = 0.40mm
; top infill extrusion width = 0.40mm
; first layer extrusion width = 0.40mm

; EXECUTABLE_BLOCK_START


; Pre-Processed for Cancel-Object support by preprocess_cancellation v0.2.0
; 1 known objects
EXCLUDE_OBJECT_DEFINE NAME=4040_extrusion_1_stl_id_3184374996939058229_copy_0 CENTER=60.018,59.881 POLYGON=[[39.2,39.2],[39.2,80.8],[80.8,80.8],[80.8,39.2]]
M73 P0 R13
;TYPE:Custom
PRINT_START EXTRUDER_TEMP=255 BED_TEMP=105
G90
G21
M83 ; use relative distances for extrusion
; Filament gcode
SET_PRESSURE_ADVANCE ADVANCE=0.04; Override pressure advance value
M106 S0
;LAYER_CHANGE
;Z:0.2
;HEIGHT:0.2
;BEFORE_LAYER_CHANGE
;0.2
G92 E0

G1 E-.8 F1800
;AFTER_LAYER_CHANGE
;0.2
;_SET_FAN_SPEED_CHANGING_LAYER
SET_VELOCITY_LIMIT ACCEL=10000 ACCEL_TO_DECEL=10000
SET_VELOCITY_LIMIT SQUARE_CORNER_VELOCITY=9
; printing object 4040-extrusion(1).stl id:3184374996939058229 copy 0
EXCLUDE_OBJECT_START NAME=4040_extrusion_1_stl_id_3184374996939058229_copy_0
G1 Z.6 F36000
G1 X78.923 Y78.923
G1 Z.6
G1 Z.2
G1 E.8 F1800
;TYPE:Inner wall
;WIDTH:0.4
G1 F6000
G3 X76.972 Y79.725 I-1.938 J-1.938 E.05849
G1 X43.028 Y79.725 E.91715
G3 X40.275 Y76.972 I-.013 J-2.74 E.11699
G1 X40.275 Y43.028 E.91715
G3 X43.028 Y40.275 I2.74 J-.013 E.11699
G1 X77.022 Y40.279 E.91849
G3 X79.725 Y43.028 I-.033 J2.736 E.11559
G1 X79.725 Y76.972 E.91715
G3 X78.951 Y78.894 I-2.74 J.013 E.05741
G1 X79.177 Y79.177 F36000
;TYPE:Outer wall
G1 F6000
G3 X76.986 Y80.082 I-2.185 J-2.185 E.06574
G1 X43.014 Y80.082 E.91791
G3 X39.918 Y76.986 I-.006 J-3.09 E.13147
G1 X39.918 Y43.014 E.91791
G3 X43.014 Y39.918 I3.09 J-.006 E.13147
G1 X77.05 Y39.923 E.91963
G3 X80.082 Y43.014 I-.053 J3.084 E.12968
G1 X80.082 Y76.986 E.91791
G3 X79.205 Y79.149 I-3.09 J.006 E.06466
G1 E-.56 F1800
;WIPE_START
G1 F6000
G1 X78.811 Y79.493 E-.12556
G1 X78.404 Y79.742 E-.11444
;WIPE_END
G1 Z.6 F36000
G1 X77.885 Y40.544 Z.6
G1 Z.2
G1 E.8 F1800
;TYPE:Bottom surface
;WIDTH:0.403212
G1 F12600
G1 X43.017 Y40.544 E.95057
G2 X41.737 Y40.905 I-.012 J2.414 E.03675
G1 X78.263 Y40.905 E.9958
G3 X78.736 Y41.265 I-1.946 J3.042 E.01621
G1 X41.264 Y41.265 E1.02156
G1 X40.973 Y41.625 E.01263
G1 X79.027 Y41.625 E1.03744
G3 X79.228 Y41.985 I-1.037 J.815 E.01129
G1 X40.772 Y41.985 E1.0484
G2 X40.641 Y42.346 I1.072 J.594 E.0105
M73 P0 R12
G1 X79.359 Y42.346 E1.05555
G3 X79.431 Y42.706 I-1.102 J.407 E.01006
G1 X40.569 Y42.706 E1.05947
G2 X40.543 Y43.066 I2.276 J.346 E.00986
G1 X79.457 Y43.066 E1.0609
G1 X79.457 Y43.427 E.00982
G1 X40.543 Y43.427 E1.0609
G1 X40.543 Y43.787 E.00982
G1 X79.457 Y43.787 E1.0609
G1 X79.457 Y44.147 E.00982
G1 X40.543 Y44.147 E1.0609
G1 X40.543 Y44.507 E.00982
G1 X79.457 Y44.507 E1.0609
G1 X79.457 Y44.868 E.00982
G1 X40.543 Y44.868 E1.0609
G1 X40.543 Y45.228 E.00982
G1 X79.457 Y45.228 E1.0609
G1 X79.457 Y45.588 E.00982
G1 X40.543 Y45.588 E1.0609
G1 X40.543 Y45.949 E.00982
G1 X79.457 Y45.949 E1.0609
G1 X79.457 Y46.309 E.00982
G1 X40.543 Y46.309 E1.0609
G1 X40.543 Y46.669 E.00982
G1 X79.457 Y46.669 E1.0609
G1 X79.457 Y47.03 E.00982
G1 X40.543 Y47.03 E1.0609
G1 X40.543 Y47.39 E.00982
M73 P1 R12
G1 X79.457 Y47.39 E1.0609
G1 X79.457 Y47.75 E.00982
G1 X40.543 Y47.75 E1.0609
G1 X40.543 Y48.11 E.00982
G1 X79.457 Y48.11 E1.0609
G1 X79.457 Y48.471 E.00982
G1 X40.543 Y48.471 E1.0609
G1 X40.543 Y48.831 E.00982
G1 X79.457 Y48.831 E1.0609
G1 X79.457 Y49.191 E.00982
G1 X40.543 Y49.191 E1.0609
G1 X40.543 Y49.552 E.00982
G1 X79.457 Y49.552 E1.0609
G1 X79.457 Y49.912 E.00982
G1 X40.543 Y49.912 E1.0609
G1 X40.543 Y50.272 E.00982
G1 X79.457 Y50.272 E1.0609
G1 X79.457 Y50.632 E.00982
G1 X40.543 Y50.632 E1.0609
G1 X40.543 Y50.993 E.00982
G1 X79.457 Y50.993 E1.0609
G1 X79.457 Y51.353 E.00982
G1 X40.543 Y51.353 E1.0609
G1 X40.543 Y51.713 E.00982
G1 X79.457 Y51.713 E1.0609
G1 X79.457 Y52.074 E.00982
G1 X40.543 Y52.074 E1.0609
G1 X40.543 Y52.434 E.00982
G1 X79.457 Y52.434 E1.0609
G1 X79.457 Y52.794 E.00982
G1 X40.543 Y52.794 E1.0609
G1 X40.543 Y53.154 E.00982
G1 X79.457 Y53.154 E1.0609
G1 X79.457 Y53.515 E.00982
G1 X40.543 Y53.515 E1.0609
G1 X40.543 Y53.875 E.00982
G1 X79.457 Y53.875 E1.0609
G1 X79.457 Y54.235 E.00982
G1 X40.543 Y54.235 E1.0609
G1 X40.543 Y54.596 E.00982
G1 X79.457 Y54.596 E1.0609
G1 X79.457 Y54.956 E.00982
G1 X40.543 Y54.956 E1.0609
G1 X40.543 Y55.316 E.00982
G1 X79.457 Y55.316 E1.0609
G1 X79.457 Y55.677 E.00982
G1 X40.543 Y55.677 E1.0609
G1 X40.543 Y56.037 E.00982
G1 X79.457 Y56.037 E1.0609
G1 X79.457 Y56.397 E.00982
G1 X40.543 Y56.397 E1.0609
G1 X40.543 Y56.757 E.00982
G1 X79.457 Y56.757 E1.0609
G1 X79.457 Y57.118 E.00982
G1 X40.543 Y57.118 E1.0609
G1 X40.543 Y57.478 E.00982
G1 X79.457 Y57.478 E1.0609
G1 X79.457 Y57.838 E.00982
G1 X40.543 Y57.838 E1.0609
G1 X40.543 Y58.199 E.00982
G1 X79.457 Y58.199 E1.0609
G1 X79.457 Y58.559 E.00982
G1 X40.543 Y58.559 E1.0609
G1 X40.543 Y58.919 E.00982
G1 X79.457 Y58.919 E1.0609
G1 X79.457 Y59.279 E.00982
G1 X40.543 Y59.279 E1.0609
G1 X40.543 Y59.64 E.00982
G1 X79.457 Y59.64 E1.0609
G1 X79.457 Y60 E.00982
G1 X40.543 Y60 E1.0609
G1 X40.543 Y60.36 E.00982
M73 P2 R12
G1 X79.457 Y60.36 E1.0609
G1 X79.457 Y60.721 E.00982
G1 X40.543 Y60.721 E1.0609
G1 X40.543 Y61.081 E.00982
G1 X79.457 Y61.081 E1.0609
G1 X79.457 Y61.441 E.00982
G1 X40.543 Y61.441 E1.0609
G1 X40.543 Y61.801 E.00982
G1 X79.457 Y61.801 E1.0609
G1 X79.457 Y62.162 E.00982
G1 X40.543 Y62.162 E1.0609
G1 X40.543 Y62.522 E.00982
G1 X79.457 Y62.522 E1.0609
G1 X79.457 Y62.882 E.00982
G1 X40.543 Y62.882 E1.0609
G1 X40.543 Y63.243 E.00982
G1 X79.457 Y63.243 E1.0609
G1 X79.457 Y63.603 E.00982
G1 X40.543 Y63.603 E1.0609
G1 X40.543 Y63.963 E.00982
G1 X79.457 Y63.963 E1.0609
G1 X79.457 Y64.324 E.00982
G1 X40.543 Y64.324 E1.0609
G1 X40.543 Y64.684 E.00982
G1 X79.457 Y64.684 E1.0609
G1 X79.457 Y65.044 E.00982
G1 X40.543 Y65.044 E1.0609
G1 X40.543 Y65.404 E.00982
G1 X79.457 Y65.404 E1.0609
G1 X79.457 Y65.765 E.00982
G1 X40.543 Y65.765 E1.0609
G1 X40.543 Y66.125 E.00982
G1 X79.457 Y66.125 E1.0609
G1 X79.457 Y66.485 E.00982
G1 X40.543 Y66.485 E1.0609
G1 X40.543 Y66.846 E.00982
G1 X79.457 Y66.846 E1.0609
G1 X79.457 Y67.206 E.00982
G1 X40.543 Y67.206 E1.0609
G1 X40.543 Y67.566 E.00982
G1 X79.457 Y67.566 E1.0609
G1 X79.457 Y67.926 E.00982
G1 X40.543 Y67.926 E1.0609
G1 X40.543 Y68.287 E.00982
G1 X79.457 Y68.287 E1.0609
G1 X79.457 Y68.647 E.00982
G1 X40.543 Y68.647 E1.0609
G1 X40.543 Y69.007 E.00982
G1 X79.457 Y69.007 E1.0609
G1 X79.457 Y69.368 E.00982
G1 X40.543 Y69.368 E1.0609
G1 X40.543 Y69.728 E.00982
G1 X79.457 Y69.728 E1.0609
G1 X79.457 Y70.088 E.00982
G1 X40.543 Y70.088 E1.0609
G1 X40.543 Y70.449 E.00982
G1 X79.457 Y70.449 E1.0609
G1 X79.457 Y70.809 E.00982
G1 X40.543 Y70.809 E1.0609
G1 X40.543 Y71.169 E.00982
G1 X79.457 Y71.169 E1.0609
G1 X79.457 Y71.529 E.00982
G1 X40.543 Y71.529 E1.0609
G1 X40.543 Y71.89 E.00982
G1 X79.457 Y71.89 E1.0609
G1 X79.457 Y72.25 E.00982
G1 X40.543 Y72.25 E1.0609
G1 X40.543 Y72.61 E.00982
G1 X79.457 Y72.61 E1.0609
G1 X79.457 Y72.971 E.00982
G1 X40.543 Y72.971 E1.0609
G1 X40.543 Y73.331 E.00982
G1 X79.457 Y73.331 E1.0609
G1 X79.457 Y73.691 E.00982
M73 P3 R12
G1 X40.543 Y73.691 E1.0609
G1 X40.543 Y74.051 E.00982
G1 X79.457 Y74.051 E1.0609
G1 X79.457 Y74.412 E.00982
G1 X40.543 Y74.412 E1.0609
G1 X40.543 Y74.772 E.00982
G1 X79.457 Y74.772 E1.0609
G1 X79.457 Y75.132 E.00982
G1 X40.543 Y75.132 E1.0609
G1 X40.543 Y75.493 E.00982
G1 X79.457 Y75.493 E1.0609
G1 X79.457 Y75.853 E.00982
G1 X40.543 Y75.853 E1.0609
G1 X40.543 Y76.213 E.00982
G1 X79.457 Y76.213 E1.0609
G1 X79.457 Y76.573 E.00982
G1 X40.543 Y76.573 E1.0609
G1 X40.543 Y76.934 E.00982
G1 X79.457 Y76.934 E1.0609
G3 X79.431 Y77.294 I-2.302 J.014 E.00986
G1 X40.569 Y77.294 E1.05947
G2 X40.641 Y77.654 I1.173 J-.047 E.01006
G1 X79.359 Y77.654 E1.05555
G3 X79.228 Y78.015 I-1.203 J-.234 E.0105
G1 X40.772 Y78.015 E1.0484
G2 X40.973 Y78.375 I1.238 J-.454 E.01129
G1 X79.027 Y78.375 E1.03744
G1 X78.736 Y78.735 E.01263
G1 X41.265 Y78.736 E1.02155
G2 X41.737 Y79.096 I1.372 J-1.31 E.01625
G1 X78.263 Y79.096 E.9958
G3 X76.982 Y79.456 I-1.269 J-2.056 E.03677
G1 X42.115 Y79.456 E.95054
; stop printing object 4040-extrusion(1).stl id:3184374996939058229 copy 0
EXCLUDE_OBJECT_END NAME=4040_extrusion_1_stl_id_3184374996939058229_copy_0
;LAYER_CHANGE
;Z:0.4
;HEIGHT:0.2
;BEFORE_LAYER_CHANGE
;0.4
G92 E0

G1 E-.65714 F1800
;WIPE_START
G1 F12600
G1 X43.115 Y79.456 E-.14286
;WIPE_END
;AFTER_LAYER_CHANGE
;0.4
;_SET_FAN_SPEED_CHANGING_LAYER
SET_VELOCITY_LIMIT ACCEL=20000 ACCEL_TO_DECEL=20000
M104 S250 ; set nozzle temperature
M140 S102 ; set bed temperature
; printing object 4040-extrusion(1).stl id:3184374996939058229 copy 0
EXCLUDE_OBJECT_START NAME=4040_extrusion_1_stl_id_3184374996939058229_copy_0
SET_VELOCITY_LIMIT SQUARE_CORNER_VELOCITY=12
G1 Z.8 F36000
G1 X79.228 Y79.228 Z.8
G1 Z.4
G1 E.8 F1800
SET_VELOCITY_LIMIT ACCEL=15000 ACCEL_TO_DECEL=15000 SQUARE_CORNER_VELOCITY=9
;TYPE:Inner wall
;WIDTH:0.4
G1 F23081.008
G3 X76.978 Y80.156 I-2.24 J-2.24 E.0675
G1 X43.022 Y80.156 E.91747
G3 X39.844 Y76.978 I-.01 J-3.168 E.13499
G1 X39.844 Y43.022 E.91747
G3 X43.022 Y39.844 I3.168 J-.01 E.13499
G1 X76.978 Y39.844 E.91747
G1 X77.493 Y39.884 E.01397
G3 X80.156 Y43.022 I-.526 J3.145 E.12085
G1 X80.156 Y76.978 E.91747
G3 X79.256 Y79.2 I-3.168 J.01 E.06642
SET_VELOCITY_LIMIT ACCEL=10000 ACCEL_TO_DECEL=10000
G1 X79.483 Y79.483 F36000
;TYPE:Outer wall
G1 F23081.008
G3 X76.992 Y80.513 I-2.488 J-2.488 E.07473
G1 X43.008 Y80.513 E.91822
G3 X39.487 Y76.992 I-.004 J-3.517 E.14948
G1 X39.487 Y43.008 E.91822
G3 X43.008 Y39.487 I3.541 J.02 E.14921
G1 X76.992 Y39.487 E.91822
G1 X77.53 Y39.529 E.01457
G1 X77.549 Y39.531 E.00054
G3 X80.513 Y43.008 I-.558 J3.477 E.13432
G1 X80.513 Y76.992 E.91822
G3 X79.511 Y79.454 I-3.519 J.002 E.07366
SET_VELOCITY_LIMIT ACCEL=20000 ACCEL_TO_DECEL=20000 SQUARE_CORNER_VELOCITY=12
G1 E-.72201 F1800
;WIPE_START
G1 F23081.008
G1 X79.065 Y79.842 E-.04608
G1 X78.716 Y80.056 E-.03191
;WIPE_END
G1 Z.8 F36000
G1 X79.852 Y42.042 Z.8
G1 Z.4
G1 E.8 F1800
SET_VELOCITY_LIMIT SQUARE_CORNER_VELOCITY=9
;TYPE:Internal solid infill
;WIDTH:0.400618
G1 F23041.107
G1 X79.852 Y76.971 E.94538
G3 X79.495 Y78.367 I-2.845 J.015 E.03944
G1 X79.495 Y41.633 E.99423
G2 X79.137 Y41.127 I-1.776 J.876 E.01684
G1 X79.137 Y78.873 E1.02162
G3 X78.779 Y79.217 I-1.265 J-.957 E.01349
G1 X78.779 Y40.783 E1.04024
G2 X78.421 Y40.539 I-.95 J1.007 E.01177
G1 X78.421 Y79.461 E1.05346
G3 X78.064 Y79.635 I-.727 J-1.042 E.0108
G1 X78.064 Y40.365 E1.06286
G2 X77.706 Y40.248 I-.551 J1.07 E.01023
G1 X77.706 Y79.752 E1.06923
G3 X77.348 Y79.823 I-.4 J-1.094 E.00991
G1 X77.348 Y40.177 E1.07303
G1 X76.991 Y40.149 E.00971
G1 X76.991 Y79.851 E1.07455
G3 X76.633 Y79.853 I-.191 J-2.271 E.00969
G1 X76.633 Y40.147 E1.07465
G1 X76.275 Y40.147 E.00968
G1 X76.275 Y79.853 E1.07465
G1 X75.918 Y79.853 E.00968
G1 X75.918 Y40.147 E1.07465
G1 X75.56 Y40.147 E.00968
G1 X75.56 Y79.853 E1.07465
G1 X75.202 Y79.853 E.00968
G1 X75.202 Y40.147 E1.07465
G1 X74.844 Y40.147 E.00968
G1 X74.844 Y79.853 E1.07465
G1 X74.487 Y79.853 E.00968
G1 X74.487 Y40.147 E1.07465
G1 X74.129 Y40.147 E.00968
M73 P4 R12
G1 X74.129 Y79.853 E1.07465
G1 X73.771 Y79.853 E.00968
G1 X73.771 Y40.147 E1.07465
G1 X73.414 Y40.147 E.00968
G1 X73.414 Y79.853 E1.07465
G1 X73.056 Y79.853 E.00968
G1 X73.056 Y40.147 E1.07465
G1 X72.698 Y40.147 E.00968
G1 X72.698 Y79.853 E1.07465
G1 X72.341 Y79.853 E.00968
G1 X72.341 Y40.147 E1.07465
G1 X71.983 Y40.147 E.00968
G1 X71.983 Y79.853 E1.07465
G1 X71.625 Y79.853 E.00968
G1 X71.625 Y40.147 E1.07465
G1 X71.267 Y40.147 E.00968
G1 X71.267 Y79.853 E1.07465
G1 X70.91 Y79.853 E.00968
G1 X70.91 Y40.147 E1.07465
G1 X70.552 Y40.147 E.00968
G1 X70.552 Y79.853 E1.07465
G1 X70.194 Y79.853 E.00968
G1 X70.194 Y40.147 E1.07465
G1 X69.837 Y40.147 E.00968
G1 X69.837 Y79.853 E1.07465
G1 X69.479 Y79.853 E.00968
G1 X69.479 Y40.147 E1.07465
G1 X69.121 Y40.147 E.00968
G1 X69.121 Y79.853 E1.07465
G1 X68.764 Y79.853 E.00968
G1 X68.764 Y40.147 E1.07465
G1 X68.406 Y40.147 E.00968
G1 X68.406 Y79.853 E1.07465
G1 X68.048 Y79.853 E.00968
G1 X68.048 Y40.147 E1.07465
G1 X67.69 Y40.147 E.00968
G1 X67.69 Y79.853 E1.07465
G1 X67.333 Y79.853 E.00968
G1 X67.333 Y40.147 E1.07465
G1 X66.975 Y40.147 E.00968
G1 X66.975 Y79.853 E1.07465
G1 X66.617 Y79.853 E.00968
G1 X66.617 Y40.147 E1.07465
G1 X66.26 Y40.147 E.00968
G1 X66.26 Y79.853 E1.07465
G1 X65.902 Y79.853 E.00968
G1 X65.902 Y40.147 E1.07465
G1 X65.544 Y40.147 E.00968
G1 X65.544 Y79.853 E1.07465
G1 X65.187 Y79.853 E.00968
G1 X65.187 Y40.147 E1.07465
G1 X64.829 Y40.147 E.00968
G1 X64.829 Y79.853 E1.07465
G1 X64.471 Y79.853 E.00968
G1 X64.471 Y40.147 E1.07465
G1 X64.114 Y40.147 E.00968
G1 X64.114 Y79.853 E1.07465
G1 X63.756 Y79.853 E.00968
G1 X63.756 Y40.147 E1.07465
G1 X63.398 Y40.147 E.00968
G1 X63.398 Y79.853 E1.07465
G1 X63.04 Y79.853 E.00968
G1 X63.04 Y40.147 E1.07465
G1 X62.683 Y40.147 E.00968
G1 X62.683 Y79.853 E1.07465
G1 X62.325 Y79.853 E.00968
G1 X62.325 Y40.147 E1.07465
G1 X61.967 Y40.147 E.00968
G1 X61.967 Y79.853 E1.07465
G1 X61.61 Y79.853 E.00968
G1 X61.61 Y40.147 E1.07465
G1 X61.252 Y40.147 E.00968
G1 X61.252 Y79.853 E1.07465
G1 X60.894 Y79.853 E.00968
G1 X60.894 Y40.147 E1.07465
G1 X60.537 Y40.147 E.00968
G1 X60.537 Y79.853 E1.07465
G1 X60.179 Y79.853 E.00968
G1 X60.179 Y40.147 E1.07465
G1 X59.821 Y40.147 E.00968
G1 X59.821 Y79.853 E1.07465
G1 X59.463 Y79.853 E.00968
G1 X59.463 Y40.147 E1.07465
G1 X59.106 Y40.147 E.00968
G1 X59.106 Y79.853 E1.07465
G1 X58.748 Y79.853 E.00968
G1 X58.748 Y40.147 E1.07465
G1 X58.39 Y40.147 E.00968
G1 X58.39 Y79.853 E1.07465
G1 X58.033 Y79.853 E.00968
G1 X58.033 Y40.147 E1.07465
G1 X57.675 Y40.147 E.00968
G1 X57.675 Y79.853 E1.07465
G1 X57.317 Y79.853 E.00968
G1 X57.317 Y40.147 E1.07465
G1 X56.96 Y40.147 E.00968
G1 X56.96 Y79.853 E1.07465
G1 X56.602 Y79.853 E.00968
G1 X56.602 Y40.147 E1.07465
G1 X56.244 Y40.147 E.00968
G1 X56.244 Y79.853 E1.07465
G1 X55.886 Y79.853 E.00968
G1 X55.886 Y40.147 E1.07465
G1 X55.529 Y40.147 E.00968
G1 X55.529 Y79.853 E1.07465
G1 X55.171 Y79.853 E.00968
G1 X55.171 Y40.147 E1.07465
G1 X54.813 Y40.147 E.00968
G1 X54.813 Y79.853 E1.07465
G1 X54.456 Y79.853 E.00968
G1 X54.456 Y40.147 E1.07465
G1 X54.098 Y40.147 E.00968
G1 X54.098 Y79.853 E1.07465
G1 X53.74 Y79.853 E.00968
G1 X53.74 Y40.147 E1.07465
G1 X53.383 Y40.147 E.00968
G1 X53.383 Y79.853 E1.07465
G1 X53.025 Y79.853 E.00968
G1 X53.025 Y40.147 E1.07465
G1 X52.667 Y40.147 E.00968
G1 X52.667 Y79.853 E1.07465
G1 X52.309 Y79.853 E.00968
M73 P5 R12
G1 X52.309 Y40.147 E1.07465
G1 X51.952 Y40.147 E.00968
G1 X51.952 Y79.853 E1.07465
G1 X51.594 Y79.853 E.00968
G1 X51.594 Y40.147 E1.07465
G1 X51.236 Y40.147 E.00968
G1 X51.236 Y79.853 E1.07465
G1 X50.879 Y79.853 E.00968
G1 X50.879 Y40.147 E1.07465
G1 X50.521 Y40.147 E.00968
G1 X50.521 Y79.853 E1.07465
G1 X50.163 Y79.853 E.00968
G1 X50.163 Y40.147 E1.07465
G1 X49.806 Y40.147 E.00968
G1 X49.806 Y79.853 E1.07465
G1 X49.448 Y79.853 E.00968
G1 X49.448 Y40.147 E1.07465
G1 X49.09 Y40.147 E.00968
G1 X49.09 Y79.853 E1.07465
G1 X48.732 Y79.853 E.00968
G1 X48.733 Y40.147 E1.07465
G1 X48.375 Y40.147 E.00968
G1 X48.375 Y79.853 E1.07465
G1 X48.017 Y79.853 E.00968
G1 X48.017 Y40.147 E1.07465
G1 X47.659 Y40.147 E.00968
G1 X47.659 Y79.853 E1.07465
G1 X47.302 Y79.853 E.00968
G1 X47.302 Y40.147 E1.07465
G1 X46.944 Y40.147 E.00968
G1 X46.944 Y79.853 E1.07465
G1 X46.586 Y79.853 E.00968
G1 X46.586 Y40.147 E1.07465
G1 X46.229 Y40.147 E.00968
G1 X46.229 Y79.853 E1.07465
G1 X45.871 Y79.853 E.00968
G1 X45.871 Y40.147 E1.07465
G1 X45.513 Y40.147 E.00968
G1 X45.513 Y79.853 E1.07465
G1 X45.156 Y79.853 E.00968
G1 X45.156 Y40.147 E1.07465
G1 X44.798 Y40.147 E.00968
G1 X44.798 Y79.853 E1.07465
