; HEADER_BLOCK_START
; generated by OrcaSlicer 2.3.2-rc on 2026-03-06 at 17:07:49
; total layer number: 75
; filament_density: 1.04
; filament_diameter: 1.75
; max_z_height: 15.00
; filament: 1
; HEADER_BLOCK_END

; THUMBNAIL_BLOCK_START

;
; THUMBNAIL_BLOCK_END

; THUMBNAIL_BLOCK_START

;
; THUMBNAIL_BLOCK_END

; external perimeters extrusion width = 0.40mm
; perimeters extrusion width = 0.40mm
; infill extrusion width = 0.40mm
; solid infill extrusion width = 0.40mm
; top infill extrusion width = 0.40mm
; first layer extrusion width = 0.40mm

; EXECUTABLE_BLOCK_START


; Pre-Processed for Cancel-Object support by preprocess_cancellation v0.2.0
; 1 known objects
EXCLUDE_OBJECT_DEFINE NAME=4040_extrusion_stl_id_0_copy_0 CENTER=60.009,60.008 POLYGON=[[39.2,39.2],[39.2,80.8],[80.8,80.8],[80.8,39.2]]
M73 P0 R16
;TYPE:Custom
PRINT_START EXTRUDER_TEMP=255 BED_TEMP=105
G90
G21
M83 ; use relative distances for extrusion
; Filament gcode
SET_PRESSURE_ADVANCE ADVANCE=0.04; Override pressure advance value
M106 S0
;LAYER_CHANGE
;Z:0.2
;HEIGHT:0.2
;BEFORE_LAYER_CHANGE
;0.2
G92 E0

G1 E-.8 F1800
;AFTER_LAYER_CHANGE
;0.2
;_SET_FAN_SPEED_CHANGING_LAYER
SET_VELOCITY_LIMIT ACCEL=10000 ACCEL_TO_DECEL=10000
SET_VELOCITY_LIMIT SQUARE_CORNER_VELOCITY=9
; printing object 4040-extrusion.stl id:0 copy 0
EXCLUDE_OBJECT_START NAME=4040_extrusion_stl_id_0_copy_0
G1 Z.6 F36000
G1 X78.668 Y78.668
G1 Z.6
G1 Z.2
G1 E.8 F1800
;TYPE:Inner wall
;WIDTH:0.4
G1 F6000
G3 X76.958 Y79.368 I-1.691 J-1.691 E.05125
G1 X43.042 Y79.368 E.91639
G3 X40.632 Y76.958 I-.019 J-2.391 E.1025
G1 X40.632 Y43.042 E.91639
G3 X43.042 Y40.632 I2.391 J-.019 E.1025
G1 X76.994 Y40.635 E.91736
G3 X79.368 Y43.042 I-.014 J2.388 E.10149
G1 X79.368 Y76.958 E.91639
G3 X78.696 Y78.639 I-2.391 J.019 E.05017
G1 X78.923 Y78.923 F36000
G1 F6000
G3 X76.972 Y79.725 I-1.938 J-1.938 E.05849
G1 X43.028 Y79.725 E.91715
G3 X40.275 Y76.972 I-.013 J-2.74 E.11699
G1 X40.275 Y43.028 E.91715
G3 X43.028 Y40.275 I2.74 J-.013 E.11699
G1 X77.022 Y40.279 E.91849
G3 X79.725 Y43.028 I-.033 J2.736 E.11559
G1 X79.725 Y76.972 E.91715
G3 X78.951 Y78.894 I-2.74 J.013 E.05741
G1 X79.177 Y79.177 F36000
;TYPE:Outer wall
G1 F6000
G3 X76.986 Y80.082 I-2.185 J-2.185 E.06574
G1 X43.014 Y80.082 E.91791
G3 X39.918 Y76.986 I-.006 J-3.09 E.13147
G1 X39.918 Y43.014 E.91791
G3 X43.014 Y39.918 I3.09 J-.006 E.13147
G1 X77.05 Y39.923 E.91963
G3 X80.082 Y43.014 I-.053 J3.084 E.12968
G1 X80.082 Y76.986 E.91791
G3 X79.205 Y79.149 I-3.09 J.006 E.06466
G1 E-.56 F1800
;WIPE_START
G1 F6000
G1 X78.811 Y79.493 E-.12556
G1 X78.404 Y79.742 E-.11444
;WIPE_END
G1 Z.6 F36000
G1 X77.814 Y40.901 Z.6
G1 Z.2
G1 E.8 F1800
;TYPE:Bottom surface
;WIDTH:0.403272
G1 F12600
G1 X43.031 Y40.901 E.94842
G2 X41.837 Y41.262 I-.014 J2.11 E.03452
G1 X78.163 Y41.262 E.99048
G3 X78.571 Y41.622 I-1.25 J1.828 E.01489
G1 X41.429 Y41.622 E1.01276
G2 X41.173 Y41.982 I1.01 J.988 E.0121
G1 X78.827 Y41.982 E1.02672
G3 X78.99 Y42.343 I-1.056 J.693 E.01082
G1 X41.006 Y42.352 E1.03568
G2 X40.927 Y42.703 I1.068 J.426 E.00985
G1 X79.073 Y42.703 E1.04011
G3 X79.1 Y43.063 I-2.275 J.355 E.00986
G1 X40.9 Y43.063 E1.0416
G1 X40.9 Y43.424 E.00983
G1 X79.1 Y43.424 E1.0416
G1 X79.1 Y43.784 E.00983
G1 X40.9 Y43.784 E1.0416
G1 X40.9 Y44.145 E.00983
G1 X79.1 Y44.145 E1.0416
G1 X79.1 Y44.505 E.00983
G1 X40.9 Y44.505 E1.0416
G1 X40.9 Y44.865 E.00983
G1 X79.1 Y44.865 E1.0416
G1 X79.1 Y45.226 E.00983
G1 X40.9 Y45.226 E1.0416
G1 X40.9 Y45.586 E.00983
G1 X79.1 Y45.586 E1.0416
G1 X79.1 Y45.946 E.00983
G1 X40.9 Y45.946 E1.0416
G1 X40.9 Y46.307 E.00983
G1 X79.1 Y46.307 E1.0416
G1 X79.1 Y46.667 E.00983
G1 X40.9 Y46.667 E1.0416
G1 X40.9 Y47.027 E.00983
G1 X79.1 Y47.027 E1.0416
G1 X79.1 Y47.388 E.00983
G1 X40.9 Y47.388 E1.0416
G1 X40.9 Y47.748 E.00983
G1 X79.1 Y47.748 E1.0416
G1 X79.1 Y48.108 E.00983
G1 X40.9 Y48.108 E1.0416
G1 X40.9 Y48.469 E.00983
M73 P1 R16
G1 X79.1 Y48.469 E1.0416
G1 X79.1 Y48.829 E.00983
G1 X40.9 Y48.829 E1.0416
G1 X40.9 Y49.189 E.00983
G1 X79.1 Y49.189 E1.0416
G1 X79.1 Y49.55 E.00983
G1 X40.9 Y49.55 E1.0416
G1 X40.9 Y49.91 E.00983
G1 X79.1 Y49.91 E1.0416
G1 X79.1 Y50.271 E.00983
G1 X40.9 Y50.271 E1.0416
G1 X40.9 Y50.631 E.00983
G1 X79.1 Y50.631 E1.0416
G1 X79.1 Y50.991 E.00983
G1 X40.9 Y50.991 E1.0416
G1 X40.9 Y51.352 E.00983
G1 X79.1 Y51.352 E1.0416
G1 X79.1 Y51.712 E.00983
G1 X40.9 Y51.712 E1.0416
G1 X40.9 Y52.072 E.00983
G1 X79.1 Y52.072 E1.0416
G1 X79.1 Y52.433 E.00983
G1 X40.9 Y52.433 E1.0416
G1 X40.9 Y52.793 E.00983
G1 X79.1 Y52.793 E1.0416
G1 X79.1 Y53.153 E.00983
G1 X40.9 Y53.153 E1.0416
G1 X40.9 Y53.514 E.00983
G1 X79.1 Y53.514 E1.0416
G1 X79.1 Y53.874 E.00983
G1 X40.9 Y53.874 E1.0416
G1 X40.9 Y54.234 E.00983
G1 X79.1 Y54.234 E1.0416
G1 X79.1 Y54.595 E.00983
G1 X40.9 Y54.595 E1.0416
G1 X40.9 Y54.955 E.00983
G1 X79.1 Y54.955 E1.0416
G1 X79.1 Y55.315 E.00983
G1 X40.9 Y55.315 E1.0416
G1 X40.9 Y55.676 E.00983
G1 X79.1 Y55.676 E1.0416
G1 X79.1 Y56.036 E.00983
G1 X40.9 Y56.036 E1.0416
G1 X40.9 Y56.397 E.00983
G1 X79.1 Y56.397 E1.0416
G1 X79.1 Y56.757 E.00983
G1 X40.9 Y56.757 E1.0416
G1 X40.9 Y57.117 E.00983
G1 X79.1 Y57.117 E1.0416
G1 X79.1 Y57.478 E.00983
G1 X40.9 Y57.478 E1.0416
G1 X40.9 Y57.838 E.00983
G1 X79.1 Y57.838 E1.0416
G1 X79.1 Y58.198 E.00983
G1 X40.9 Y58.198 E1.0416
G1 X40.9 Y58.559 E.00983
G1 X79.1 Y58.559 E1.0416
G1 X79.1 Y58.919 E.00983
G1 X40.9 Y58.919 E1.0416
G1 X40.9 Y59.279 E.00983
G1 X79.1 Y59.279 E1.0416
G1 X79.1 Y59.64 E.00983
G1 X40.9 Y59.64 E1.0416
G1 X40.9 Y60 E.00983
G1 X79.1 Y60 E1.0416
G1 X79.1 Y60.36 E.00983
G1 X40.9 Y60.36 E1.0416
G1 X40.9 Y60.721 E.00983
G1 X79.1 Y60.721 E1.0416
G1 X79.1 Y61.081 E.00983
G1 X40.9 Y61.081 E1.0416
G1 X40.9 Y61.441 E.00983
G1 X79.1 Y61.441 E1.0416
G1 X79.1 Y61.802 E.00983
G1 X40.9 Y61.802 E1.0416
G1 X40.9 Y62.162 E.00983
G1 X79.1 Y62.162 E1.0416
G1 X79.1 Y62.523 E.00983
G1 X40.9 Y62.522 E1.0416
G1 X40.9 Y62.883 E.00983
G1 X79.1 Y62.883 E1.0416
G1 X79.1 Y63.243 E.00983
G1 X40.9 Y63.243 E1.0416
G1 X40.9 Y63.604 E.00983
G1 X79.1 Y63.604 E1.0416
G1 X79.1 Y63.964 E.00983
G1 X40.9 Y63.964 E1.0416
G1 X40.9 Y64.324 E.00983
G1 X79.1 Y64.324 E1.0416
G1 X79.1 Y64.685 E.00983
G1 X40.9 Y64.685 E1.0416
G1 X40.9 Y65.045 E.00983
G1 X79.1 Y65.045 E1.0416
G1 X79.1 Y65.405 E.00983
M73 P2 R16
G1 X40.9 Y65.405 E1.0416
G1 X40.9 Y65.766 E.00983
G1 X79.1 Y65.766 E1.0416
G1 X79.1 Y66.126 E.00983
G1 X40.9 Y66.126 E1.0416
G1 X40.9 Y66.486 E.00983
G1 X79.1 Y66.486 E1.0416
G1 X79.1 Y66.847 E.00983
G1 X40.9 Y66.847 E1.0416
G1 X40.9 Y67.207 E.00983
G1 X79.1 Y67.207 E1.0416
G1 X79.1 Y67.567 E.00983
G1 X40.9 Y67.567 E1.0416
G1 X40.9 Y67.928 E.00983
G1 X79.1 Y67.928 E1.0416
G1 X79.1 Y68.288 E.00983
G1 X40.9 Y68.288 E1.0416
G1 X40.9 Y68.648 E.00983
G1 X79.1 Y68.648 E1.0416
G1 X79.1 Y69.009 E.00983
G1 X40.9 Y69.009 E1.0416
G1 X40.9 Y69.369 E.00983
G1 X79.1 Y69.369 E1.0416
G1 X79.1 Y69.73 E.00983
G1 X40.9 Y69.73 E1.0416
G1 X40.9 Y70.09 E.00983
G1 X79.1 Y70.09 E1.0416
G1 X79.1 Y70.45 E.00983
G1 X40.9 Y70.45 E1.0416
G1 X40.9 Y70.811 E.00983
G1 X79.1 Y70.811 E1.0416
G1 X79.1 Y71.171 E.00983
G1 X40.9 Y71.171 E1.0416
G1 X40.9 Y71.531 E.00983
G1 X79.1 Y71.531 E1.0416
G1 X79.1 Y71.892 E.00983
G1 X40.9 Y71.892 E1.0416
G1 X40.9 Y72.252 E.00983
G1 X79.1 Y72.252 E1.0416
G1 X79.1 Y72.612 E.00983
G1 X40.9 Y72.612 E1.0416
G1 X40.9 Y72.973 E.00983
G1 X79.1 Y72.973 E1.0416
G1 X79.1 Y73.333 E.00983
G1 X40.9 Y73.333 E1.0416
G1 X40.9 Y73.693 E.00983
G1 X79.1 Y73.693 E1.0416
G1 X79.1 Y74.054 E.00983
G1 X40.9 Y74.054 E1.0416
G1 X40.9 Y74.414 E.00983
G1 X79.1 Y74.414 E1.0416
G1 X79.1 Y74.774 E.00983
G1 X40.9 Y74.774 E1.0416
G1 X40.9 Y75.135 E.00983
G1 X79.1 Y75.135 E1.0416
G1 X79.1 Y75.495 E.00983
G1 X40.9 Y75.495 E1.0416
G1 X40.9 Y75.856 E.00983
G1 X79.1 Y75.856 E1.0416
G1 X79.1 Y76.216 E.00983
G1 X40.9 Y76.216 E1.0416
G1 X40.9 Y76.576 E.00983
G1 X79.1 Y76.576 E1.0416
G1 X79.1 Y76.937 E.00983
G1 X40.9 Y76.937 E1.0416
G2 X40.927 Y77.297 I2.303 J.006 E.00986
G1 X79.073 Y77.297 E1.04011
G3 X78.99 Y77.657 I-5.317 J-1.037 E.01009
G1 X41.01 Y77.657 E1.03557
G2 X41.173 Y78.018 I1.219 J-.332 E.01082
G1 X78.827 Y78.018 E1.02672
G3 X78.571 Y78.378 I-1.266 J-.628 E.0121
G1 X41.429 Y78.378 E1.01275
G2 X41.837 Y78.738 I1.658 J-1.468 E.01489
G1 X78.163 Y78.738 E.99048
G3 X76.968 Y79.099 I-1.18 J-1.751 E.03454
G1 X42.186 Y79.099 E.94839
; stop printing object 4040-extrusion.stl id:0 copy 0
EXCLUDE_OBJECT_END NAME=4040_extrusion_stl_id_0_copy_0
;LAYER_CHANGE
;Z:0.4
;HEIGHT:0.2
;BEFORE_LAYER_CHANGE
;0.4
G92 E0

G1 E-.65714 F1800
;WIPE_START
G1 F12600
G1 X43.186 Y79.099 E-.14286
;WIPE_END
;AFTER_LAYER_CHANGE
;0.4
;_SET_FAN_SPEED_CHANGING_LAYER
SET_VELOCITY_LIMIT ACCEL=20000 ACCEL_TO_DECEL=20000
M104 S250 ; set nozzle temperature
M140 S102 ; set bed temperature
; printing object 4040-extrusion.stl id:0 copy 0
EXCLUDE_OBJECT_START NAME=4040_extrusion_stl_id_0_copy_0
SET_VELOCITY_LIMIT SQUARE_CORNER_VELOCITY=12
G1 Z.8 F36000
G1 X78.973 Y78.973 Z.8
G1 Z.4
G1 E.8 F1800
SET_VELOCITY_LIMIT ACCEL=15000 ACCEL_TO_DECEL=15000 SQUARE_CORNER_VELOCITY=9
;TYPE:Inner wall
;WIDTH:0.4
G1 F23081.008
G3 X76.964 Y79.799 I-1.993 J-1.993 E.06025
G1 X43.036 Y79.799 E.91671
G3 X40.201 Y76.964 I-.016 J-2.819 E.12051
G1 X40.201 Y43.036 E.91671
G3 X43.036 Y40.201 I2.819 J-.016 E.12051
G1 X76.964 Y40.201 E.91671
G1 X77.437 Y40.238 E.01283
G3 X79.799 Y43.036 I-.468 J2.791 E.10758
G1 X79.799 Y76.964 E.91671
G3 X79.002 Y78.945 I-2.819 J.016 E.05918
SET_VELOCITY_LIMIT ACCEL=20000 ACCEL_TO_DECEL=20000 SQUARE_CORNER_VELOCITY=12
G1 X79.228 Y79.228 F36000
SET_VELOCITY_LIMIT ACCEL=15000 ACCEL_TO_DECEL=15000 SQUARE_CORNER_VELOCITY=9
G1 F23081.008
G3 X76.978 Y80.156 I-2.24 J-2.24 E.0675
G1 X43.022 Y80.156 E.91747
G3 X39.844 Y76.978 I-.01 J-3.168 E.13499
G1 X39.844 Y43.022 E.91747
G3 X43.022 Y39.844 I3.168 J-.01 E.13499
G1 X76.978 Y39.844 E.91747
G1 X77.493 Y39.884 E.01397
G3 X80.156 Y43.022 I-.526 J3.145 E.12085
G1 X80.156 Y76.978 E.91747
G3 X79.256 Y79.2 I-3.168 J.01 E.06642
M73 P3 R16
SET_VELOCITY_LIMIT ACCEL=10000 ACCEL_TO_DECEL=10000
G1 X79.483 Y79.483 F36000
;TYPE:Outer wall
G1 F23081.008
G3 X76.992 Y80.513 I-2.488 J-2.488 E.07473
G1 X43.008 Y80.513 E.91822
G3 X39.487 Y76.992 I-.004 J-3.517 E.14948
G1 X39.487 Y43.008 E.91822
G3 X43.008 Y39.487 I3.541 J.02 E.14921
G1 X76.992 Y39.487 E.91822
G1 X77.53 Y39.529 E.01457
G1 X77.549 Y39.531 E.00054
G3 X80.513 Y43.008 I-.558 J3.477 E.13432
G1 X80.513 Y76.992 E.91822
G3 X79.511 Y79.454 I-3.519 J.002 E.07366
SET_VELOCITY_LIMIT ACCEL=20000 ACCEL_TO_DECEL=20000 SQUARE_CORNER_VELOCITY=12
G1 E-.72201 F1800
;WIPE_START
G1 F23081.008
G1 X79.065 Y79.842 E-.04608
G1 X78.716 Y80.056 E-.03191
;WIPE_END
G1 Z.8 F36000
G1 X79.495 Y42.113 Z.8
G1 Z.4
G1 E.8 F1800
SET_VELOCITY_LIMIT SQUARE_CORNER_VELOCITY=9
;TYPE:Internal solid infill
;WIDTH:0.400629
G1 F23040.399
G1 X79.495 Y76.957 E.94311
G3 X79.137 Y78.266 I-2.498 J.021 E.03721
G1 X79.137 Y41.734 E.98881
G2 X78.78 Y41.259 I-1.678 J.892 E.01616
G1 X78.78 Y78.741 E1.01452
G1 X78.422 Y79.042 E.01265
G1 X78.422 Y40.958 E1.03081
G2 X78.064 Y40.752 I-.829 J1.026 E.01122
G1 X78.064 Y79.248 E1.04195
G3 X77.707 Y79.385 I-.612 J-1.061 E.01041
G1 X77.707 Y40.615 E1.04938
G2 X77.349 Y40.536 I-.429 J1.09 E.00996
G1 X77.349 Y79.464 E1.05367
G1 X76.991 Y79.492 E.00971
G1 X76.991 Y40.508 E1.05519
G2 X76.633 Y40.505 I-.198 J2.271 E.00969
M73 P3 R15
G1 X76.633 Y79.496 E1.05536
G1 X76.276 Y79.496 E.00968
G1 X76.276 Y40.505 E1.05536
G1 X75.918 Y40.505 E.00968
G1 X75.918 Y79.496 E1.05536
G1 X75.56 Y79.496 E.00968
G1 X75.56 Y40.505 E1.05536
G1 X75.203 Y40.505 E.00968
G1 X75.203 Y79.496 E1.05536
G1 X74.845 Y79.496 E.00968
G1 X74.845 Y40.505 E1.05536
G1 X74.487 Y40.505 E.00968
G1 X74.487 Y79.496 E1.05536
G1 X74.13 Y79.496 E.00968
G1 X74.13 Y40.505 E1.05536
G1 X73.772 Y40.505 E.00968
G1 X73.772 Y79.496 E1.05536
G1 X73.414 Y79.496 E.00968
G1 X73.414 Y40.505 E1.05536
G1 X73.056 Y40.505 E.00968
G1 X73.056 Y79.496 E1.05536
G1 X72.699 Y79.496 E.00968
G1 X72.699 Y40.505 E1.05536
G1 X72.341 Y40.505 E.00968
G1 X72.341 Y79.496 E1.05536
G1 X71.983 Y79.496 E.00968
G1 X71.983 Y40.505 E1.05536
G1 X71.626 Y40.505 E.00968
G1 X71.626 Y79.496 E1.05536
G1 X71.268 Y79.496 E.00968
G1 X71.268 Y40.505 E1.05536
G1 X70.91 Y40.505 E.00968
G1 X70.91 Y79.496 E1.05536
G1 X70.552 Y79.496 E.00968
G1 X70.552 Y40.505 E1.05536
G1 X70.195 Y40.505 E.00968
G1 X70.195 Y79.496 E1.05536
G1 X69.837 Y79.496 E.00968
G1 X69.837 Y40.505 E1.05536
G1 X69.479 Y40.505 E.00968
G1 X69.479 Y79.496 E1.05536
G1 X69.122 Y79.496 E.00968
G1 X69.122 Y40.505 E1.05536
G1 X68.764 Y40.505 E.00968
G1 X68.764 Y79.496 E1.05536
G1 X68.406 Y79.496 E.00968
G1 X68.406 Y40.505 E1.05536
G1 X68.048 Y40.505 E.00968
G1 X68.048 Y79.496 E1.05536
G1 X67.691 Y79.496 E.00968
G1 X67.691 Y40.505 E1.05536
G1 X67.333 Y40.505 E.00968
G1 X67.333 Y79.496 E1.05536
G1 X66.975 Y79.496 E.00968
G1 X66.975 Y40.505 E1.05536
G1 X66.618 Y40.505 E.00968
G1 X66.618 Y79.496 E1.05536
G1 X66.26 Y79.496 E.00968
G1 X66.26 Y40.505 E1.05536
G1 X65.902 Y40.505 E.00968
G1 X65.902 Y79.496 E1.05536
G1 X65.544 Y79.496 E.00968
G1 X65.544 Y40.505 E1.05536
G1 X65.187 Y40.505 E.00968
G1 X65.187 Y79.496 E1.05536
G1 X64.829 Y79.496 E.00968
G1 X64.829 Y40.505 E1.05536
G1 X64.471 Y40.505 E.00968
G1 X64.471 Y79.496 E1.05536
G1 X64.114 Y79.496 E.00968
G1 X64.114 Y40.505 E1.05536
G1 X63.756 Y40.505 E.00968
G1 X63.756 Y79.496 E1.05536
G1 X63.398 Y79.496 E.00968
G1 X63.398 Y40.505 E1.05536
G1 X63.041 Y40.505 E.00968
G1 X63.041 Y79.496 E1.05536
G1 X62.683 Y79.496 E.00968
G1 X62.683 Y40.505 E1.05536
G1 X62.325 Y40.505 E.00968
G1 X62.325 Y79.496 E1.05536
G1 X61.967 Y79.496 E.00968
G1 X61.967 Y40.505 E1.05536
G1 X61.61 Y40.505 E.00968
G1 X61.61 Y79.496 E1.05536
G1 X61.252 Y79.496 E.00968
G1 X61.252 Y40.505 E1.05536
G1 X60.894 Y40.505 E.00968
G1 X60.894 Y79.496 E1.05536
G1 X60.537 Y79.496 E.00968
G1 X60.537 Y40.505 E1.05536
G1 X60.179 Y40.505 E.00968
G1 X60.179 Y79.496 E1.05536
G1 X59.821 Y79.496 E.00968
G1 X59.821 Y40.505 E1.05536
G1 X59.463 Y40.505 E.00968
G1 X59.463 Y79.496 E1.05536
G1 X59.106 Y79.496 E.00968
G1 X59.106 Y40.505 E1.05536
G1 X58.748 Y40.505 E.00968
G1 X58.748 Y79.496 E1.05536
G1 X58.39 Y79.496 E.00968
G1 X58.39 Y40.505 E1.05536
G1 X58.033 Y40.505 E.00968
G1 X58.033 Y79.496 E1.05536
G1 X57.675 Y79.496 E.00968
G1 X57.675 Y40.505 E1.05536
G1 X57.317 Y40.505 E.00968
G1 X57.317 Y79.496 E1.05536
G1 X56.959 Y79.496 E.00968
G1 X56.959 Y40.505 E1.05536
G1 X56.602 Y40.505 E.00968
G1 X56.602 Y79.496 E1.05536
G1 X56.244 Y79.496 E.00968
G1 X56.244 Y40.505 E1.05536
G1 X55.886 Y40.505 E.00968
G1 X55.886 Y79.496 E1.05536
G1 X55.529 Y79.496 E.00968
G1 X55.529 Y40.505 E1.05536
G1 X55.171 Y40.505 E.00968
G1 X55.171 Y79.496 E1.05536
G1 X54.813 Y79.496 E.00968
G1 X54.813 Y40.505 E1.05536
G1 X54.456 Y40.505 E.00968
M73 P4 R15
G1 X54.456 Y79.496 E1.05536
G1 X54.098 Y79.496 E.00968
G1 X54.098 Y40.504 E1.05536
G1 X53.74 Y40.504 E.00968
G1 X53.74 Y79.496 E1.05536
G1 X53.382 Y79.496 E.00968
G1 X53.382 Y40.504 E1.05536
G1 X53.025 Y40.504 E.00968
G1 X53.025 Y79.496 E1.05536
G1 X52.667 Y79.496 E.00968
G1 X52.667 Y40.504 E1.05536
G1 X52.309 Y40.504 E.00968
G1 X52.309 Y79.496 E1.05536
G1 X51.952 Y79.496 E.00968
G1 X51.952 Y40.504 E1.05536
G1 X51.594 Y40.504 E.00968
G1 X51.594 Y79.496 E1.05536
G1 X51.236 Y79.496 E.00968
G1 X51.236 Y40.505 E1.05536
G1 X50.878 Y40.505 E.00968
G1 X50.878 Y79.496 E1.05536
G1 X50.521 Y79.496 E.00968
G1 X50.521 Y40.505 E1.05536
G1 X50.163 Y40.505 E.00968
G1 X50.163 Y79.496 E1.05536
G1 X49.805 Y79.496 E.00968
G1 X49.805 Y40.505 E1.05536
G1 X49.448 Y40.505 E.00968
G1 X49.448 Y79.496 E1.05536
G1 X49.09 Y79.496 E.00968
G1 X49.09 Y40.505 E1.05536
G1 X48.732 Y40.505 E.00968
G1 X48.732 Y79.496 E1.05536
G1 X48.374 Y79.496 E.00968
G1 X48.374 Y40.505 E1.05536
G1 X48.017 Y40.505 E.00968
G1 X48.017 Y79.496 E1.05536
G1 X47.659 Y79.496 E.00968
G1 X47.659 Y40.505 E1.05536
G1 X47.301 Y40.505 E.00968
G1 X47.301 Y79.496 E1.05536
G1 X46.944 Y79.496 E.00968
G1 X46.944 Y40.505 E1.05536
G1 X46.586 Y40.505 E.00968
G1 X46.586 Y79.496 E1.05536
G1 X46.228 Y79.496 E.00968
G1 X46.228 Y40.505 E1.05536
G1 X45.87 Y40.505 E.00968
G1 X45.87 Y79.496 E1.05536
