; HEADER_BLOCK_START
; generated by OrcaSlicer 2.3.2-beta2 on 2026-02-27 at 14:53:25
; total layer number: 101
; filament_density: 1.04
; filament_diameter: 1.75
; max_z_height: 20.60
; filament: 1
; HEADER_BLOCK_END

; THUMBNAIL_BLOCK_START

;
; THUMBNAIL_BLOCK_END

; THUMBNAIL_BLOCK_START

;
; THUMBNAIL_BLOCK_END

; external perimeters extrusion width = 0.40mm
; perimeters extrusion width = 0.40mm
; infill extrusion width = 0.40mm
; solid infill extrusion width = 0.40mm
; top infill extrusion width = 0.40mm
; support material extrusion width = 0.40mm
; first layer extrusion width = 0.40mm

; EXECUTABLE_BLOCK_START


; Pre-Processed for Cancel-Object support by preprocess_cancellation v0.2.0
; 1 known objects
EXCLUDE_OBJECT_DEFINE NAME=4080_cable_management_100mm_shallow_step_id_0_copy_0 CENTER=59.990,59.595 POLYGON=[[28.756,9.632],[28.756,110.436],[91.344,110.436],[91.344,9.632]]
M73 P0 R25
;TYPE:Custom
PRINT_START EXTRUDER_TEMP=255 BED_TEMP=105
G90
G21
M83 ; use relative distances for extrusion
; Filament gcode
SET_PRESSURE_ADVANCE ADVANCE=0.04; Override pressure advance value
M106 S0
;LAYER_CHANGE
;Z:0.2
;HEIGHT:0.2
;BEFORE_LAYER_CHANGE
;0.2
G92 E0

G1 E-.8 F1800
;AFTER_LAYER_CHANGE
;0.2
;_SET_FAN_SPEED_CHANGING_LAYER
SET_VELOCITY_LIMIT ACCEL=10000 ACCEL_TO_DECEL=10000
SET_VELOCITY_LIMIT SQUARE_CORNER_VELOCITY=9
; printing object 4080-cable-management-100mm-shallow.step id:0 copy 0
EXCLUDE_OBJECT_START NAME=4080_cable_management_100mm_shallow_step_id_0_copy_0
G1 Z.6 F36000
G1 X29.45 Y15.017
G1 Z.6
G1 Z.2
G1 E.8 F1800
;TYPE:Support
;WIDTH:0.4
G1 F6000
G1 X29.45 Y19.141 E.11141
G2 X29.847 Y19.9 I2.221 J-.677 E.02328
G1 X29.847 Y14.69 E.14077
G3 X30.243 Y14.135 I1.939 J.967 E.01851
G1 X30.243 Y20.451 E.17066
G1 X30.64 Y20.882 E.01582
G1 X30.64 Y13.708 E.19385
G3 X31.037 Y13.37 I1.428 J1.276 E.01412
G1 X31.037 Y21.22 E.21211
G1 X31.434 Y21.533 E.01365
G1 X31.434 Y13.057 E.22902
G3 X31.83 Y12.788 I10.125 J14.533 E.01294
G1 X31.83 Y21.802 E.24353
G2 X32.227 Y22.015 I.902 J-1.2 E.01222
G1 X32.227 Y12.575 E.25507
G1 X32.624 Y12.431 E.0114
G1 X32.624 Y22.159 E.26285
G2 X33.021 Y22.237 I.416 J-1.065 E.01098
G1 X33.021 Y12.353 E.26707
G1 X33.417 Y12.285 E.01088
G1 X33.417 Y22.305 E.27075
G2 X33.814 Y22.331 I.268 J-1.081 E.0108
G1 X33.814 Y12.26 E.27211
G2 X34.211 Y12.264 I.437 J-25.598 E.01072
G1 X34.211 Y22.327 E.27191
G2 X34.608 Y22.304 I.134 J-1.105 E.0108
G1 X34.608 Y12.286 E.27066
G1 X35.004 Y12.362 E.01091
G1 X35.004 Y22.228 E.26657
G1 X35.401 Y22.152 E.01091
G1 X35.401 Y12.438 E.26247
G3 X35.798 Y12.589 I-.218 J1.167 E.01154
G1 X35.798 Y22.001 E.25429
G1 X36.195 Y21.848 E.01149
G1 X36.195 Y12.743 E.246
G3 X36.591 Y12.967 I-.415 J1.197 E.01238
G1 X36.591 Y21.623 E.23389
G1 X36.988 Y21.38 E.01257
G1 X36.988 Y13.21 E.22076
G3 X37.385 Y13.549 I-1.695 J2.384 E.01413
G1 X37.385 Y21.258 E.20828
G1 X33.968 Y11.941 F36000
G1 F6000
G3 X37.867 Y13.579 I.148 J5.106 E.11781
G1 X37.867 Y21.01 E.20076
G3 X31.662 Y22.076 I-3.804 J-3.549 E.1827
G3 X28.756 Y17.747 I2.911 J-5.094 E.14597
G3 X31.277 Y12.772 I5.564 J-.307 E.15782
G3 X33.914 Y11.94 I2.494 J3.312 E.07618
G1 E-.56 F1800
;WIPE_START
G1 F6000
G1 X34.53 Y11.944 E-.14776
G1 X34.907 Y12.016 E-.09224
;WIPE_END
G1 Z.6 F36000
G1 X82.615 Y14.031 Z.6
G1 Z.2
G1 E.8 F1800
G1 F6000
G1 X82.615 Y20.532 E.17565
G1 X83.012 Y20.986 E.01629
G1 X83.012 Y13.821 E.19359
G3 X83.409 Y13.484 I1.127 J.925 E.01414
G1 X83.409 Y21.323 E.21182
G2 X83.805 Y21.633 I1.052 J-.938 E.01367
G1 X83.805 Y13.174 E.22856
G1 X84.202 Y12.961 E.01217
G1 X84.202 Y21.847 E.24009
G2 X84.599 Y22.055 I.774 J-.989 E.01218
G1 X84.599 Y12.752 E.25138
G1 X84.996 Y12.623 E.01127
G1 X84.996 Y22.184 E.25835
G1 X85.392 Y22.313 E.01127
G1 X85.392 Y12.494 E.26531
G3 X85.789 Y12.431 I.371 J1.062 E.01091
G1 X85.789 Y22.376 E.26869
G1 X86.186 Y22.43 E.01082
G1 X86.186 Y12.378 E.2716
G3 X86.583 Y12.368 I.224 J1.089 E.01078
G1 X86.583 Y22.439 E.27209
G1 X86.979 Y22.421 E.01073
G1 X86.979 Y12.386 E.27113
G3 X87.376 Y12.429 I.081 J1.114 E.01084
G1 X87.376 Y22.378 E.26883
G1 X87.773 Y22.288 E.011
G1 X87.773 Y12.519 E.26393
G3 X88.17 Y12.619 I-.076 J1.143 E.01111
G1 X88.17 Y22.188 E.25854
G1 X88.566 Y22.018 E.01166
G1 X88.566 Y12.789 E.24938
G3 X88.963 Y12.96 I-.273 J1.179 E.01174
G1 X88.963 Y21.847 E.24013
G1 X89.36 Y21.585 E.01284
G1 X89.36 Y13.222 E.22598
G3 X89.757 Y13.497 I-.56 J1.231 E.01311
G1 X89.757 Y21.31 E.21111
G1 X90.153 Y20.931 E.01483
G1 X90.153 Y13.876 E.19061
G3 X90.55 Y14.333 I-1.059 J1.321 E.01643
G1 X90.55 Y20.474 E.16595
G2 X90.947 Y19.895 I-1.399 J-1.383 E.01908
G1 X90.947 Y14.912 E.13462
G3 X91.344 Y15.816 I-2.292 J1.545 E.02682
G1 X91.344 Y19.441 E.09794
G1 X86.716 Y12.053 F36000
G1 F6000
G3 X82.133 Y20.426 I-.154 J5.356 E.59149
G1 X82.133 Y14.381 E.16333
G3 X86.662 Y12.05 I4.445 J3.071 E.1433
G1 E-.56 F1800
;WIPE_START
G1 F6000
G1 X87.284 Y12.078 E-.1494
G1 X87.652 Y12.162 E-.0906
;WIPE_END
G1 Z.6 F36000
G1 X86.55 Y96.949 Z.6
G1 Z.2
G1 E.8 F1800
G1 F6000
G2 X82.133 Y98.637 I-.566 J5.142 E.13269
G1 X82.133 Y105.925 E.19692
G2 X86.947 Y107.585 I3.941 J-3.617 E.1434
G2 X89.178 Y106.472 I-.47 J-3.735 E.06866
G2 X89.409 Y98.264 I-3.232 J-4.198 E.25384
G2 X86.604 Y96.953 I-3.143 J3.067 E.08549
G1 X82.615 Y98.377 F36000
G1 F6000
G1 X82.615 Y105.978 E.20535
G2 X83.012 Y106.285 I1.033 J-.922 E.01364
G1 X83.012 Y98.277 E.21638
G3 X83.409 Y97.985 I.992 J.934 E.01338
G1 X83.409 Y106.577 E.23214
G1 X83.805 Y106.778 E.01202
G1 X83.805 Y97.784 E.24302
G3 X84.202 Y97.585 I.741 J.984 E.01205
G1 X84.202 Y106.977 E.25375
G1 X84.599 Y107.095 E.01118
G1 X84.599 Y97.468 E.26012
G1 X84.996 Y97.35 E.01118
G1 X84.996 Y107.212 E.26648
G2 X85.392 Y107.27 I.355 J-1.056 E.01089
G1 X85.392 Y97.293 E.26957
G1 X85.789 Y97.25 E.01078
G1 X85.789 Y107.313 E.27189
G2 X86.186 Y107.319 I.215 J-1.082 E.01078
G1 X86.186 Y97.244 E.27222
G1 X86.583 Y97.274 E.01075
G1 X86.583 Y107.29 E.27063
G2 X86.979 Y107.245 I.076 J-1.107 E.01085
G1 X86.979 Y97.317 E.26824
G1 X87.376 Y97.42 E.01107
G1 X87.376 Y107.142 E.26268
G1 X87.773 Y107.039 E.01107
G1 X87.773 Y97.523 E.25712
G1 X88.17 Y97.706 E.01181
G1 X88.17 Y106.856 E.24722
G2 X88.566 Y106.583 I-.574 J-1.259 E.01308
G1 X88.566 Y97.98 E.23245
G3 X88.963 Y98.329 I-.732 J1.23 E.01437
G1 X88.963 Y106.233 E.21355
G2 X89.36 Y105.887 I-1.685 J-2.333 E.01424
G1 X89.36 Y98.675 E.19485
G1 X89.757 Y99.084 E.0154
G1 X89.757 Y105.478 E.17275
G2 X90.153 Y104.921 I-1.562 J-1.533 E.01855
G1 X90.153 Y99.639 E.14271
G3 X90.55 Y100.4 I-2.304 J1.685 E.02328
G1 X90.55 Y104.535 E.11172
G1 E-.56 F1800
;WIPE_START
G1 F6000
;WIPE_END
G1 E-.24 F1800
G1 Z.6 F36000
G1 X37.385 Y106.24 Z.6
G1 Z.2
G1 E.8 F1800
G1 F6000
G1 X37.385 Y98.583 E.20689
G2 X36.988 Y98.241 I-1.127 J.906 E.01423
G1 X36.988 Y106.365 E.21951
G1 X36.591 Y106.61 E.01261
G1 X36.591 Y97.995 E.23277
G2 X36.195 Y97.765 I-.828 J.968 E.01247
G1 X36.195 Y106.841 E.24524
G1 X35.798 Y106.996 E.01151
G1 X35.798 Y97.609 E.25362
G1 X35.401 Y97.454 E.01151
G1 X35.401 Y107.151 E.26201
G3 X35.004 Y107.23 I-.413 J-1.049 E.01099
G1 X35.004 Y97.376 E.26624
G1 X34.608 Y97.299 E.01092
G1 X34.608 Y107.307 E.27042
G3 X34.211 Y107.333 I-.271 J-1.077 E.0108
G1 X34.211 Y97.273 E.27183
G3 X33.814 Y97.268 I.101 J-24.508 E.01072
G1 X33.814 Y107.338 E.2721
G3 X33.417 Y107.315 I-.136 J-1.101 E.0108
G1 X33.417 Y97.29 E.27088
G1 X33.021 Y97.357 E.01087
G1 X33.021 Y107.248 E.26725
G3 X32.624 Y107.172 I.012 J-1.135 E.01097
G1 X32.624 Y97.433 E.26315
G1 X32.227 Y97.576 E.0114
G1 X32.227 Y107.029 E.25541
G3 X31.83 Y106.832 I.446 J-1.397 E.01201
G1 X31.83 Y97.786 E.24443
G2 X31.434 Y98.044 I.84 J1.726 E.01282
G1 X31.434 Y106.562 E.23016
G1 X31.037 Y106.241 E.01378
G1 X31.037 Y98.364 E.21284
G2 X30.64 Y98.707 I.95 J1.499 E.01423
G1 X30.64 Y105.898 E.19429
G1 X30.243 Y105.466 E.01585
G1 X30.243 Y99.139 E.17094
G2 X29.847 Y99.692 I1.309 J1.359 E.01847
G1 X29.847 Y104.914 E.14111
G3 X29.45 Y104.154 I1.831 J-1.439 E.02331
G1 X29.45 Y100.02 E.11168
G1 X33.904 Y96.948 F36000
G1 F6000
G1 X33.55 Y96.942 E.00956
G2 X31.309 Y97.732 I.272 J4.348 E.06504
G2 X28.941 Y103.741 I2.929 J4.625 E.18665
G2 X31.61 Y107.078 I5.991 J-2.055 E.11777
G2 X37.867 Y106.016 I2.423 J-4.688 E.18397
G1 X37.867 Y98.59 E.20065
G2 X33.957 Y96.949 I-3.79 J3.552 E.11799
G1 E-.56 F1800
;WIPE_START
G1 F6000
G1 X33.55 Y96.942 E-.09778
G1 X32.966 Y97.041 E-.14222
;WIPE_END
G1 Z.6 F36000
G1 X80.312 Y108.579 Z.6
G1 Z.2
G1 E.8 F1800
;TYPE:Inner wall
G1 F6000
G1 X39.688 Y108.579 E1.09763
G1 X39.688 Y11.421 E2.62511
G1 X80.312 Y11.421 E1.09763
G1 X80.312 Y108.539 E2.62403
G1 X80.669 Y108.936 F36000
M73 P1 R25
G1 F6000
G1 X39.331 Y108.936 E1.11693
G1 X39.331 Y11.064 E2.6444
G1 X80.669 Y11.064 E1.11693
G1 X80.669 Y108.896 E2.64332
G1 X81.026 Y109.293 F36000
G1 F6000
G1 X38.974 Y109.293 E1.13623
G1 X38.974 Y10.707 E2.6637
G1 X81.026 Y10.707 E1.13623
G1 X81.026 Y109.253 E2.66262
G1 X81.383 Y109.65 F36000
;TYPE:Outer wall
G1 F6000
G1 X38.617 Y109.65 E1.15552
G1 X38.617 Y10.35 E2.68299
G1 X81.383 Y10.35 E1.15552
G1 X81.383 Y109.61 E2.68191
G1 E-.56 F1800
;WIPE_START
G1 F6000
G1 X80.383 Y109.611 E-.24
;WIPE_END
G1 Z.6 F36000
G1 X80.205 Y11.689 Z.6
G1 Z.2
G1 E.8 F1800
;TYPE:Bottom surface
;WIDTH:0.400776
G1 F12600
G1 X39.956 Y11.689 E1.08987
G1 X39.956 Y12.047 E.00969
G1 X80.044 Y12.047 E1.08552
G1 X80.044 Y12.405 E.00969
G1 X39.956 Y12.405 E1.08552
G1 X39.956 Y12.763 E.00969
G1 X80.044 Y12.763 E1.08552
G1 X80.044 Y13.121 E.00969
G1 X39.956 Y13.121 E1.08552
G1 X39.956 Y13.479 E.00969
G1 X80.044 Y13.479 E1.08552
G1 X80.044 Y13.837 E.00969
G1 X39.956 Y13.837 E1.08552
G1 X39.956 Y14.194 E.00969
G1 X80.044 Y14.194 E1.08552
G1 X80.044 Y14.552 E.00969
G1 X39.956 Y14.552 E1.08552
G1 X39.956 Y14.91 E.00969
G1 X80.044 Y14.91 E1.08552
G1 X80.044 Y15.268 E.00969
G1 X39.956 Y15.268 E1.08552
G1 X39.956 Y15.626 E.00969
G1 X80.044 Y15.626 E1.08552
G1 X80.044 Y15.984 E.00969
G1 X39.956 Y15.984 E1.08552
G1 X39.956 Y16.342 E.00969
G1 X80.044 Y16.342 E1.08552
G1 X80.044 Y16.699 E.00969
G1 X39.956 Y16.699 E1.08552
G1 X39.956 Y17.057 E.00969
G1 X80.044 Y17.057 E1.08552
G1 X80.044 Y17.415 E.00969
G1 X39.956 Y17.415 E1.08552
G1 X39.956 Y17.773 E.00969
G1 X80.044 Y17.773 E1.08552
G1 X80.044 Y18.131 E.00969
G1 X39.956 Y18.131 E1.08552
G1 X39.956 Y18.489 E.00969
G1 X80.044 Y18.489 E1.08552
G1 X80.044 Y18.847 E.00969
G1 X39.956 Y18.847 E1.08552
G1 X39.956 Y19.204 E.00969
G1 X80.044 Y19.204 E1.08552
G1 X80.044 Y19.562 E.00969
G1 X39.956 Y19.562 E1.08552
G1 X39.956 Y19.92 E.00969
G1 X80.044 Y19.92 E1.08552
G1 X80.044 Y20.278 E.00969
G1 X39.956 Y20.278 E1.08552
M73 P2 R25
G1 X39.956 Y20.636 E.00969
G1 X80.044 Y20.636 E1.08552
G1 X80.044 Y20.994 E.00969
G1 X39.956 Y20.994 E1.08552
G1 X39.956 Y21.352 E.00969
G1 X80.044 Y21.352 E1.08552
G1 X80.044 Y21.709 E.00969
G1 X39.956 Y21.709 E1.08552
G1 X39.956 Y22.067 E.00969
G1 X80.044 Y22.067 E1.08552
G1 X80.044 Y22.425 E.00969
G1 X39.956 Y22.425 E1.08552
G1 X39.956 Y22.783 E.00969
G1 X80.044 Y22.783 E1.08552
G1 X80.044 Y23.141 E.00969
G1 X39.956 Y23.141 E1.08552
G1 X39.956 Y23.499 E.00969
G1 X80.044 Y23.499 E1.08552
G1 X80.044 Y23.857 E.00969
G1 X39.956 Y23.857 E1.08552
G1 X39.956 Y24.214 E.00969
G1 X80.044 Y24.214 E1.08552
G1 X80.044 Y24.572 E.00969
G1 X39.956 Y24.572 E1.08552
G1 X39.956 Y24.93 E.00969
G1 X80.044 Y24.93 E1.08552
G1 X80.044 Y25.288 E.00969
G1 X39.956 Y25.288 E1.08552
G1 X39.956 Y25.646 E.00969
G1 X80.044 Y25.646 E1.08552
G1 X80.044 Y26.004 E.00969
G1 X39.956 Y26.004 E1.08552
G1 X39.956 Y26.362 E.00969
G1 X80.044 Y26.362 E1.08552
G1 X80.044 Y26.719 E.00969
G1 X39.956 Y26.719 E1.08552
G1 X39.956 Y27.077 E.00969
G1 X80.044 Y27.077 E1.08552
G1 X80.044 Y27.435 E.00969
G1 X39.956 Y27.435 E1.08552
G1 X39.956 Y27.793 E.00969
G1 X80.044 Y27.793 E1.08552
G1 X80.044 Y28.151 E.00969
G1 X39.956 Y28.151 E1.08552
G1 X39.956 Y28.509 E.00969
G1 X80.044 Y28.509 E1.08552
G1 X80.044 Y28.867 E.00969
G1 X39.956 Y28.867 E1.08552
G1 X39.956 Y29.224 E.00969
G1 X80.044 Y29.224 E1.08552
G1 X80.044 Y29.582 E.00969
G1 X39.956 Y29.582 E1.08552
G1 X39.956 Y29.94 E.00969
G1 X80.044 Y29.94 E1.08552
G1 X80.044 Y30.298 E.00969
G1 X39.956 Y30.298 E1.08552
G1 X39.956 Y30.656 E.00969
G1 X80.044 Y30.656 E1.08552
G1 X80.044 Y31.014 E.00969
G1 X39.956 Y31.014 E1.08552
G1 X39.956 Y31.372 E.00969
G1 X80.044 Y31.372 E1.08552
G1 X80.044 Y31.729 E.00969
G1 X39.956 Y31.729 E1.08552
G1 X39.956 Y32.087 E.00969
G1 X80.044 Y32.087 E1.08552
G1 X80.044 Y32.445 E.00969
G1 X39.956 Y32.445 E1.08552
G1 X39.956 Y32.803 E.00969
G1 X80.044 Y32.803 E1.08552
G1 X80.044 Y33.161 E.00969
G1 X39.956 Y33.161 E1.08552
G1 X39.956 Y33.519 E.00969
G1 X80.044 Y33.519 E1.08552
G1 X80.044 Y33.877 E.00969
G1 X39.956 Y33.877 E1.08552
G1 X39.956 Y34.234 E.00969
G1 X80.044 Y34.234 E1.08552
G1 X80.044 Y34.592 E.00969
G1 X39.956 Y34.592 E1.08552
G1 X39.956 Y34.95 E.00969
G1 X80.044 Y34.95 E1.08552
G1 X80.044 Y35.308 E.00969
G1 X39.956 Y35.308 E1.08552
G1 X39.956 Y35.666 E.00969
G1 X80.044 Y35.666 E1.08552
G1 X80.044 Y36.024 E.00969
G1 X39.956 Y36.024 E1.08552
G1 X39.956 Y36.382 E.00969
G1 X80.044 Y36.382 E1.08552
G1 X80.044 Y36.739 E.00969
G1 X39.956 Y36.739 E1.08552
G1 X39.956 Y37.097 E.00969
G1 X80.044 Y37.097 E1.08552
G1 X80.044 Y37.455 E.00969
G1 X39.956 Y37.455 E1.08552
G1 X39.956 Y37.813 E.00969
G1 X80.044 Y37.813 E1.08552
G1 X80.044 Y38.171 E.00969
G1 X39.956 Y38.171 E1.08552
G1 X39.956 Y38.529 E.00969
G1 X80.044 Y38.529 E1.08552
G1 X80.044 Y38.887 E.00969
G1 X39.956 Y38.887 E1.08552
G1 X39.956 Y39.244 E.00969
G1 X80.044 Y39.244 E1.08552
G1 X80.044 Y39.602 E.00969
G1 X39.956 Y39.602 E1.08552
G1 X39.956 Y39.96 E.00969
G1 X80.044 Y39.96 E1.08552
G1 X80.044 Y40.318 E.00969
G1 X39.956 Y40.318 E1.08552
G1 X39.956 Y40.676 E.00969
G1 X80.044 Y40.676 E1.08552
G1 X80.044 Y41.034 E.00969
G1 X39.956 Y41.034 E1.08552
G1 X39.956 Y41.392 E.00969
G1 X80.044 Y41.392 E1.08552
G1 X80.044 Y41.749 E.00969
M73 P2 R24
G1 X39.956 Y41.749 E1.08552
G1 X39.956 Y42.107 E.00969
G1 X80.044 Y42.107 E1.08552
G1 X80.044 Y42.465 E.00969
G1 X39.956 Y42.465 E1.08552
G1 X39.956 Y42.823 E.00969
G1 X80.044 Y42.823 E1.08552
G1 X80.044 Y43.181 E.00969
G1 X39.956 Y43.181 E1.08552
G1 X39.956 Y43.539 E.00969
G1 X80.044 Y43.539 E1.08552
G1 X80.044 Y43.897 E.00969
G1 X39.956 Y43.897 E1.08552
G1 X39.956 Y44.254 E.00969
G1 X80.044 Y44.254 E1.08552
G1 X80.044 Y44.612 E.00969
M73 P3 R24
G1 X39.956 Y44.612 E1.08552
G1 X39.956 Y44.97 E.00969
G1 X80.044 Y44.97 E1.08552
G1 X80.044 Y45.328 E.00969
G1 X39.956 Y45.328 E1.08552
G1 X39.956 Y45.686 E.00969
G1 X80.044 Y45.686 E1.08552
G1 X80.044 Y46.044 E.00969
G1 X39.956 Y46.044 E1.08552
G1 X39.956 Y46.402 E.00969
G1 X80.044 Y46.402 E1.08552
G1 X80.044 Y46.759 E.00969
G1 X39.956 Y46.759 E1.08552
G1 X39.956 Y47.117 E.00969
G1 X80.044 Y47.117 E1.08552
G1 X80.044 Y47.475 E.00969
G1 X39.956 Y47.475 E1.08552
G1 X39.956 Y47.833 E.00969
G1 X80.044 Y47.833 E1.08552
G1 X80.044 Y48.191 E.00969
G1 X39.956 Y48.191 E1.08552
G1 X39.956 Y48.549 E.00969
G1 X80.044 Y48.549 E1.08552
G1 X80.044 Y48.907 E.00969
G1 X39.956 Y48.907 E1.08552
G1 X39.956 Y49.264 E.00969
G1 X80.044 Y49.264 E1.08552
G1 X80.044 Y49.622 E.00969
G1 X39.956 Y49.622 E1.08552
G1 X39.956 Y49.98 E.00969
G1 X80.044 Y49.98 E1.08552
G1 X80.044 Y50.338 E.00969
G1 X39.956 Y50.338 E1.08552
G1 X39.956 Y50.696 E.00969
G1 X80.044 Y50.696 E1.08552
G1 X80.044 Y51.054 E.00969
G1 X39.956 Y51.054 E1.08552
G1 X39.956 Y51.412 E.00969
G1 X80.044 Y51.412 E1.08552
G1 X80.044 Y51.769 E.00969
G1 X39.956 Y51.769 E1.08552
G1 X39.956 Y52.127 E.00969
G1 X80.044 Y52.127 E1.08552
G1 X80.044 Y52.485 E.00969
G1 X39.956 Y52.485 E1.08552
G1 X39.956 Y52.843 E.00969
G1 X80.044 Y52.843 E1.08552
G1 X80.044 Y53.201 E.00969
G1 X39.956 Y53.201 E1.08552
G1 X39.956 Y53.559 E.00969
G1 X80.044 Y53.559 E1.08552
G1 X80.044 Y53.916 E.00969
G1 X39.956 Y53.916 E1.08552
G1 X39.956 Y54.274 E.00969
G1 X80.044 Y54.274 E1.08552
G1 X80.044 Y54.632 E.00969
G1 X39.956 Y54.632 E1.08552
G1 X39.956 Y54.99 E.00969
G1 X80.044 Y54.99 E1.08552
G1 X80.044 Y55.348 E.00969
G1 X39.956 Y55.348 E1.08552
G1 X39.956 Y55.706 E.00969
G1 X80.044 Y55.706 E1.08552
G1 X80.044 Y56.064 E.00969
