; HEADER_BLOCK_START
; generated by OrcaSlicer 2.3.2-rc2 on 2026-03-06 at 18:13:22
; total layer number: 85
; filament_density: 1.04
; filament_diameter: 1.75
; max_z_height: 17.00
; filament: 1
; HEADER_BLOCK_END

; THUMBNAIL_BLOCK_START

;
; THUMBNAIL_BLOCK_END

; THUMBNAIL_BLOCK_START

;
; THUMBNAIL_BLOCK_END

; external perimeters extrusion width = 0.40mm
; perimeters extrusion width = 0.40mm
; infill extrusion width = 0.40mm
; solid infill extrusion width = 0.40mm
; top infill extrusion width = 0.40mm
; first layer extrusion width = 0.40mm

; external perimeters extrusion width = 0.40mm
; perimeters extrusion width = 0.40mm
; infill extrusion width = 0.40mm
; solid infill extrusion width = 0.40mm
; top infill extrusion width = 0.40mm
; first layer extrusion width = 0.40mm

; EXECUTABLE_BLOCK_START


; Pre-Processed for Cancel-Object support by preprocess_cancellation v0.2.0
; 2 known objects
EXCLUDE_OBJECT_DEFINE NAME=40x40_Endcap_for_5mm_hole_stl_id_0_copy_0 CENTER=60.262,82.301 POLYGON=[[40.2,62.702],[40.2,102.3],[79.8,102.3],[79.8,62.702]]
EXCLUDE_OBJECT_DEFINE NAME=profil40x40_cover_3x3_stl_id_0_copy_0 CENTER=60.127,37.337 POLYGON=[[40.2,17.7],[40.2,57.3],[79.8,57.3],[79.8,17.7]]
M73 P0 R10
;TYPE:Custom
PRINT_START EXTRUDER_TEMP=255 BED_TEMP=105
G90
G21
M83 ; use relative distances for extrusion
; Filament gcode
SET_PRESSURE_ADVANCE ADVANCE=0.04; Override pressure advance value
M106 S0
;LAYER_CHANGE
;Z:0.2
;HEIGHT:0.2
;BEFORE_LAYER_CHANGE
;0.2
G92 E0

G1 E-.8 F1800
;AFTER_LAYER_CHANGE
;0.2
;_SET_FAN_SPEED_CHANGING_LAYER
SET_VELOCITY_LIMIT ACCEL=10000 ACCEL_TO_DECEL=10000
SET_VELOCITY_LIMIT SQUARE_CORNER_VELOCITY=9
; printing object 40x40_Endcap  for 5mm hole.stl id:0 copy 0
EXCLUDE_OBJECT_START NAME=40x40_Endcap_for_5mm_hole_stl_id_0_copy_0
G1 Z.6 F36000
G1 X77.414 Y64.846
G1 Z.6
G1 Z.2
G1 E.8 F1800
;TYPE:Inner wall
;WIDTH:0.4
G1 F6000
G3 X77.972 Y65.949 I-.916 J1.157 E.03447
G1 X77.972 Y99.046 E.89426
G3 X76.484 Y100.474 I-1.478 J-.051 E.06165
G1 X43.454 Y100.472 E.89245
G3 X42.026 Y98.984 I.051 J-1.478 E.06165
G1 X42.028 Y65.954 E.89245
G3 X43.449 Y64.528 I1.471 J.045 E.0599
G1 X76.66 Y64.536 E.89733
G3 X77.382 Y64.821 I-.162 J1.467 E.02124
G1 X77.631 Y64.562 F36000
G1 F6000
G3 X78.329 Y65.936 I-1.134 J1.441 E.04297
G1 X78.329 Y99.06 E.89498
G3 X76.49 Y100.831 I-1.836 J-.067 E.07627
G1 X43.44 Y100.829 E.89298
G3 X41.669 Y98.99 I.067 J-1.836 E.07627
G1 X41.671 Y65.94 E.89298
G3 X43.436 Y64.171 I1.829 J.06 E.07433
G1 X76.695 Y64.18 E.89863
G3 X77.599 Y64.538 I-.198 J1.823 E.0266
G1 X77.854 Y64.283 F36000
;TYPE:Outer wall
G1 F6000
G1 X78.127 Y64.539 E.01011
G3 X78.686 Y65.924 I-1.631 J1.464 E.04117
G1 X78.686 Y99.075 E.89571
G3 X76.495 Y101.188 I-2.194 J-.082 E.09089
G1 X43.425 Y101.186 E.8935
G3 X41.312 Y98.995 I.082 J-2.194 E.09089
G1 X41.314 Y65.925 E.8935
G3 X43.424 Y63.814 I2.187 J.075 E.08876
G1 X76.731 Y63.825 E.89992
G3 X77.822 Y64.259 I-.234 J2.179 E.03214
G1 X77.145 Y64.796 F36000
;TYPE:Bottom surface
;WIDTH:0.400593
G1 F12600
G1 X43.465 Y64.796 E.91151
G2 X42.65 Y65.154 I.036 J1.188 E.02467
G1 X77.352 Y65.154 E.93915
G3 X77.599 Y65.511 I-1.104 J1.027 E.01181
G1 X42.402 Y65.511 E.95256
G2 X42.308 Y65.869 I1.12 J.485 E.01005
G1 X77.693 Y65.869 E.95765
G3 X77.704 Y66.227 I-1.511 J.227 E.00971
G1 X42.296 Y66.227 E.9583
G1 X42.296 Y66.584 E.00968
G1 X77.704 Y66.584 E.9583
G1 X77.704 Y66.942 E.00968
G1 X42.296 Y66.942 E.9583
G1 X42.296 Y67.3 E.00968
G1 X77.704 Y67.3 E.9583
G1 X77.704 Y67.657 E.00968
M73 P1 R10
G1 X42.296 Y67.657 E.9583
G1 X42.296 Y68.015 E.00968
G1 X77.704 Y68.015 E.9583
G1 X77.704 Y68.373 E.00968
G1 X42.296 Y68.373 E.9583
G1 X42.296 Y68.73 E.00968
G1 X77.704 Y68.73 E.9583
G1 X77.704 Y69.088 E.00968
G1 X42.295 Y69.088 E.95831
G1 X42.295 Y69.446 E.00968
G1 X77.704 Y69.446 E.95831
G1 X77.704 Y69.803 E.00968
G1 X42.295 Y69.803 E.95831
G1 X42.295 Y70.161 E.00968
G1 X77.704 Y70.161 E.95831
G1 X77.704 Y70.519 E.00968
G1 X42.295 Y70.519 E.95831
G1 X42.295 Y70.876 E.00968
G1 X77.704 Y70.876 E.95831
G1 X77.704 Y71.234 E.00968
G1 X42.295 Y71.234 E.95831
G1 X42.295 Y71.592 E.00968
G1 X77.704 Y71.592 E.95831
G1 X77.704 Y71.949 E.00968
G1 X42.295 Y71.949 E.95831
G1 X42.295 Y72.307 E.00968
G1 X77.704 Y72.307 E.95831
G1 X77.704 Y72.665 E.00968
G1 X42.295 Y72.665 E.95831
G1 X42.295 Y73.022 E.00968
G1 X77.704 Y73.022 E.95831
G1 X77.704 Y73.38 E.00968
G1 X42.295 Y73.38 E.95831
G1 X42.295 Y73.738 E.00968
G1 X77.704 Y73.738 E.95831
G1 X77.704 Y74.095 E.00968
G1 X42.295 Y74.095 E.95831
G1 X42.295 Y74.453 E.00968
G1 X77.704 Y74.453 E.95831
G1 X77.704 Y74.811 E.00968
G1 X42.295 Y74.811 E.95831
G1 X42.295 Y75.168 E.00968
G1 X77.704 Y75.169 E.95831
G1 X77.704 Y75.526 E.00968
G1 X42.295 Y75.526 E.95831
G1 X42.295 Y75.884 E.00968
G1 X77.704 Y75.884 E.95831
G1 X77.704 Y76.242 E.00968
G1 X42.295 Y76.242 E.95831
G1 X42.295 Y76.599 E.00968
G1 X77.704 Y76.599 E.95831
G1 X77.704 Y76.957 E.00968
G1 X42.295 Y76.957 E.95832
G1 X42.295 Y77.315 E.00968
G1 X77.704 Y77.315 E.95832
G1 X77.704 Y77.672 E.00968
G1 X42.295 Y77.672 E.95832
G1 X42.295 Y78.03 E.00968
G1 X77.704 Y78.03 E.95832
G1 X77.704 Y78.388 E.00968
G1 X42.295 Y78.388 E.95832
G1 X42.295 Y78.745 E.00968
G1 X77.704 Y78.745 E.95832
G1 X77.704 Y79.103 E.00968
G1 X42.295 Y79.103 E.95832
G1 X42.295 Y79.461 E.00968
M73 P2 R10
G1 X77.704 Y79.461 E.95832
G1 X77.704 Y79.818 E.00968
G1 X42.295 Y79.818 E.95832
G1 X42.295 Y80.176 E.00968
G1 X77.704 Y80.176 E.95832
G1 X77.704 Y80.534 E.00968
G1 X42.295 Y80.534 E.95832
G1 X42.295 Y80.891 E.00968
G1 X77.704 Y80.891 E.95832
G1 X77.704 Y81.249 E.00968
G1 X42.295 Y81.249 E.95832
G1 X42.295 Y81.607 E.00968
G1 X77.704 Y81.607 E.95832
G1 X77.704 Y81.964 E.00968
G1 X42.295 Y81.964 E.95832
G1 X42.295 Y82.322 E.00968
G1 X77.704 Y82.322 E.95832
G1 X77.704 Y82.68 E.00968
G1 X42.295 Y82.68 E.95832
G1 X42.295 Y83.037 E.00968
G1 X77.704 Y83.037 E.95832
G1 X77.704 Y83.395 E.00968
G1 X42.295 Y83.395 E.95832
G1 X42.295 Y83.753 E.00968
G1 X77.704 Y83.753 E.95832
G1 X77.704 Y84.11 E.00968
G1 X42.295 Y84.11 E.95832
G1 X42.295 Y84.468 E.00968
G1 X77.704 Y84.468 E.95832
G1 X77.704 Y84.826 E.00968
G1 X42.295 Y84.826 E.95833
G1 X42.295 Y85.183 E.00968
G1 X77.704 Y85.183 E.95833
G1 X77.704 Y85.541 E.00968
G1 X42.295 Y85.541 E.95833
G1 X42.295 Y85.899 E.00968
G1 X77.704 Y85.899 E.95833
G1 X77.704 Y86.256 E.00968
G1 X42.295 Y86.256 E.95833
G1 X42.295 Y86.614 E.00968
G1 X77.704 Y86.614 E.95833
G1 X77.704 Y86.972 E.00968
G1 X42.295 Y86.972 E.95833
G1 X42.295 Y87.329 E.00968
G1 X77.704 Y87.329 E.95833
G1 X77.704 Y87.687 E.00968
G1 X42.295 Y87.687 E.95833
G1 X42.295 Y88.045 E.00968
G1 X77.704 Y88.045 E.95833
G1 X77.704 Y88.402 E.00968
G1 X42.295 Y88.402 E.95833
G1 X42.295 Y88.76 E.00968
G1 X77.704 Y88.76 E.95833
G1 X77.704 Y89.118 E.00968
G1 X42.295 Y89.118 E.95833
G1 X42.295 Y89.475 E.00968
G1 X77.704 Y89.475 E.95833
G1 X77.704 Y89.833 E.00968
G1 X42.295 Y89.833 E.95833
G1 X42.294 Y90.191 E.00968
G1 X77.704 Y90.191 E.95833
G1 X77.704 Y90.548 E.00968
G1 X42.294 Y90.548 E.95833
G1 X42.294 Y90.906 E.00968
G1 X77.704 Y90.906 E.95833
G1 X77.704 Y91.264 E.00968
M73 P3 R10
G1 X42.294 Y91.264 E.95833
G1 X42.294 Y91.621 E.00968
G1 X77.704 Y91.621 E.95833
G1 X77.704 Y91.979 E.00968
G1 X42.294 Y91.979 E.95833
G1 X42.294 Y92.337 E.00968
G1 X77.704 Y92.337 E.95833
G1 X77.704 Y92.694 E.00968
G1 X42.294 Y92.694 E.95834
G1 X42.294 Y93.052 E.00968
G1 X77.704 Y93.052 E.95834
G1 X77.704 Y93.41 E.00968
G1 X42.294 Y93.41 E.95834
G1 X42.294 Y93.767 E.00968
G1 X77.704 Y93.767 E.95834
G1 X77.704 Y94.125 E.00968
G1 X42.294 Y94.125 E.95834
G1 X42.294 Y94.483 E.00968
G1 X77.704 Y94.483 E.95834
G1 X77.704 Y94.841 E.00968
G1 X42.294 Y94.841 E.95834
G1 X42.294 Y95.198 E.00968
G1 X77.704 Y95.198 E.95834
G1 X77.704 Y95.556 E.00968
G1 X42.294 Y95.556 E.95834
G1 X42.294 Y95.914 E.00968
G1 X77.704 Y95.914 E.95834
G1 X77.704 Y96.271 E.00968
G1 X42.294 Y96.271 E.95834
G1 X42.294 Y96.629 E.00968
G1 X77.704 Y96.629 E.95834
G1 X77.704 Y96.987 E.00968
G1 X42.294 Y96.987 E.95834
G1 X42.294 Y97.344 E.00968
G1 X77.704 Y97.344 E.95834
G1 X77.704 Y97.702 E.00968
G1 X42.294 Y97.702 E.95834
G1 X42.294 Y98.06 E.00968
G1 X77.704 Y98.06 E.95834
G1 X77.704 Y98.417 E.00968
G1 X42.294 Y98.417 E.95834
G1 X42.294 Y98.775 E.00968
G1 X77.704 Y98.775 E.95834
G3 X77.692 Y99.133 I-1.445 J.127 E.00971
G1 X42.31 Y99.133 E.95756
G2 X42.4 Y99.49 I1.822 J-.269 E.01
G1 X77.597 Y99.49 E.95257
G3 X77.348 Y99.848 I-1.164 J-.546 E.01186
G1 X42.652 Y99.848 E.939
G2 X43.471 Y100.204 I.861 J-.858 E.02474
G1 X77.129 Y100.206 E.91092
; stop printing object 40x40_Endcap  for 5mm hole.stl id:0 copy 0
EXCLUDE_OBJECT_END NAME=40x40_Endcap_for_5mm_hole_stl_id_0_copy_0
; printing object profil40x40_cover_3x3.stl id:0 copy 0
EXCLUDE_OBJECT_START NAME=profil40x40_cover_3x3_stl_id_0_copy_0
G1 E-.65714 F1800
;WIPE_START
G1 F12600
G1 X76.129 Y100.206 E-.14286
;WIPE_END
G1 Z.6 F36000
G1 X76.863 Y18.698 Z.6
G1 Z.2
G1 E.8 F1800
;TYPE:Inner wall
;WIDTH:0.4
G1 F6000
G1 X76.989 Y18.737 E.00357
G3 X78.936 Y21.513 I-.991 J2.766 E.09767
G1 X78.936 Y53.487 E.8639
G3 X75.987 Y56.436 I-2.945 J.004 E.1252
G1 X44.013 Y56.436 E.8639
G3 X41.064 Y53.487 I-.004 J-2.945 E.1252
G1 X41.064 Y21.513 E.86391
G3 X44.013 Y18.564 I2.945 J-.004 E.1252
M73 P4 R10
G1 X76.138 Y18.568 E.868
G3 X76.713 Y18.653 I-.141 J2.935 E.01572
G1 X76.824 Y18.686 E.00314
G1 X76.966 Y18.356 F36000
G1 F6000
G1 X77.109 Y18.4 E.00404
G3 X79.293 Y21.509 I-1.112 J3.102 E.10939
G1 X79.293 Y53.491 E.86414
G3 X75.991 Y56.793 I-3.303 J-.001 E.14011
G1 X44.009 Y56.793 E.86414
G3 X40.707 Y53.491 I.001 J-3.303 E.14011
G1 X40.707 Y21.509 E.86414
G3 X44.009 Y18.207 I3.303 J.001 E.14011
G1 X76.156 Y18.211 E.86858
G3 X76.8 Y18.307 I-.158 J3.292 E.01763
G1 X76.928 Y18.345 E.00361
G1 X77.066 Y18.009 F36000
;TYPE:Outer wall
G1 F6000
G1 X77.396 Y18.129 E.0095
G3 X79.65 Y21.504 I-1.399 J3.374 E.11627
G1 X79.65 Y53.496 E.86438
G3 X75.996 Y57.15 I-3.661 J-.007 E.15502
G1 X44.004 Y57.15 E.86438
G3 X40.35 Y53.496 I.007 J-3.661 E.15502
G1 X40.35 Y21.504 E.86438
G3 X44.004 Y17.85 I3.661 J.007 E.15502
G1 X76.173 Y17.854 E.86916
G3 X77.027 Y17.998 I-.176 J3.648 E.02346
G1 X76.942 Y18.837 F36000
;TYPE:Bottom surface
;WIDTH:0.401866
G1 F12600
G1 X43.861 Y18.837 E.89849
G2 X42.66 Y19.196 I.165 J2.742 E.03435
G1 X77.338 Y19.196 E.94187
G3 X77.821 Y19.555 I-1.366 J2.343 E.01638
G1 X42.178 Y19.555 E.96807
G2 X41.856 Y19.914 I2.66 J2.709 E.0131
G1 X78.144 Y19.914 E.9856
G3 X78.365 Y20.272 I-1.711 J1.299 E.01145
G1 X41.635 Y20.272 E.99758
G2 X41.479 Y20.631 I2.851 J1.451 E.01063
G1 X78.521 Y20.631 E1.00605
G3 X78.615 Y20.99 I-1.775 J.659 E.0101
G1 X41.385 Y20.99 E1.01118
G2 X41.345 Y21.349 I1.418 J.342 E.00984
G1 X78.662 Y21.349 E1.01356
G3 X78.664 Y21.708 I-1.824 J.19 E.00976
G1 X41.332 Y21.708 E1.01396
G1 X41.332 Y22.067 E.00975
G1 X78.664 Y22.067 E1.01396
G1 X78.664 Y22.426 E.00975
G1 X41.332 Y22.426 E1.01396
G1 X41.332 Y22.785 E.00975
G1 X78.664 Y22.785 E1.01396
G1 X78.664 Y23.144 E.00975
G1 X41.332 Y23.144 E1.01396
G1 X41.332 Y23.503 E.00975
G1 X78.664 Y23.503 E1.01396
G1 X78.664 Y23.862 E.00975
M73 P5 R10
G1 X41.332 Y23.862 E1.01396
G1 X41.332 Y24.221 E.00975
G1 X78.665 Y24.221 E1.01396
G1 X78.665 Y24.58 E.00975
G1 X41.332 Y24.58 E1.01396
G1 X41.332 Y24.939 E.00975
G1 X78.665 Y24.939 E1.01397
G1 X78.665 Y25.298 E.00975
G1 X41.332 Y25.298 E1.01397
G1 X41.332 Y25.657 E.00975
G1 X78.665 Y25.657 E1.01397
G1 X78.665 Y26.016 E.00975
G1 X41.332 Y26.016 E1.01397
G1 X41.332 Y26.375 E.00975
G1 X78.665 Y26.375 E1.01397
G1 X78.665 Y26.733 E.00975
G1 X41.332 Y26.733 E1.01397
G1 X41.332 Y27.092 E.00975
G1 X78.665 Y27.092 E1.01397
G1 X78.665 Y27.451 E.00975
G1 X41.332 Y27.451 E1.01397
G1 X41.332 Y27.81 E.00975
G1 X78.665 Y27.81 E1.01397
G1 X78.665 Y28.169 E.00975
G1 X41.332 Y28.169 E1.01398
G1 X41.332 Y28.528 E.00975
G1 X78.665 Y28.528 E1.01398
G1 X78.665 Y28.887 E.00975
G1 X41.332 Y28.887 E1.01398
G1 X41.332 Y29.246 E.00975
G1 X78.665 Y29.246 E1.01398
G1 X78.665 Y29.605 E.00975
G1 X41.332 Y29.605 E1.01398
G1 X41.332 Y29.964 E.00975
G1 X78.665 Y29.964 E1.01398
G1 X78.665 Y30.323 E.00975
G1 X41.332 Y30.323 E1.01398
G1 X41.332 Y30.682 E.00975
G1 X78.665 Y30.682 E1.01398
G1 X78.665 Y31.041 E.00975
G1 X41.332 Y31.041 E1.01399
G1 X41.332 Y31.4 E.00975
G1 X78.665 Y31.4 E1.01399
G1 X78.665 Y31.759 E.00975
G1 X41.332 Y31.759 E1.01399
G1 X41.332 Y32.118 E.00975
G1 X78.665 Y32.118 E1.01399
G1 X78.666 Y32.477 E.00975
G1 X41.332 Y32.477 E1.01399
G1 X41.332 Y32.836 E.00975
G1 X78.666 Y32.836 E1.01399
G1 X78.666 Y33.195 E.00975
G1 X41.332 Y33.195 E1.01399
G1 X41.332 Y33.553 E.00975
G1 X78.666 Y33.553 E1.01399
G1 X78.666 Y33.912 E.00975
G1 X41.332 Y33.912 E1.01399
G1 X41.332 Y34.271 E.00975
G1 X78.666 Y34.271 E1.014
G1 X78.666 Y34.63 E.00975
G1 X41.332 Y34.63 E1.014
G1 X41.332 Y34.989 E.00975
M73 P6 R10
G1 X78.666 Y34.989 E1.014
G1 X78.666 Y35.348 E.00975
G1 X41.332 Y35.348 E1.014
G1 X41.332 Y35.707 E.00975
G1 X78.666 Y35.707 E1.014
G1 X78.666 Y36.066 E.00975
G1 X41.332 Y36.066 E1.014
G1 X41.332 Y36.425 E.00975
G1 X78.666 Y36.425 E1.014
G1 X78.666 Y36.784 E.00975
G1 X41.332 Y36.784 E1.014
G1 X41.332 Y37.143 E.00975
G1 X78.666 Y37.143 E1.01401
G1 X78.666 Y37.502 E.00975
G1 X41.332 Y37.502 E1.01401
G1 X41.332 Y37.861 E.00975
G1 X78.666 Y37.861 E1.01401
G1 X78.666 Y38.22 E.00975
G1 X41.332 Y38.22 E1.01401
G1 X41.332 Y38.579 E.00975
G1 X78.666 Y38.579 E1.01401
G1 X78.666 Y38.938 E.00975
G1 X41.332 Y38.938 E1.01401
G1 X41.332 Y39.297 E.00975
G1 X78.666 Y39.297 E1.01401
G1 X78.666 Y39.656 E.00975
G1 X41.332 Y39.656 E1.01401
G1 X41.332 Y40.014 E.00975
G1 X78.666 Y40.014 E1.01401
G1 X78.666 Y40.373 E.00975
G1 X41.332 Y40.373 E1.01402
G1 X41.332 Y40.732 E.00975
G1 X78.667 Y40.732 E1.01402
G1 X78.667 Y41.091 E.00975
G1 X41.332 Y41.091 E1.01402
G1 X41.332 Y41.45 E.00975
G1 X78.667 Y41.45 E1.01402
G1 X78.667 Y41.809 E.00975
G1 X41.332 Y41.809 E1.01402
G1 X41.332 Y42.168 E.00975
G1 X78.667 Y42.168 E1.01402
G1 X78.667 Y42.527 E.00975
G1 X41.332 Y42.527 E1.01402
G1 X41.332 Y42.886 E.00975
G1 X78.667 Y42.886 E1.01402
G1 X78.667 Y43.245 E.00975
G1 X41.332 Y43.245 E1.01403
G1 X41.332 Y43.604 E.00975
G1 X78.667 Y43.604 E1.01403
G1 X78.667 Y43.963 E.00975
G1 X41.332 Y43.963 E1.01403
G1 X41.332 Y44.322 E.00975
G1 X78.667 Y44.322 E1.01403
G1 X78.667 Y44.681 E.00975
G1 X41.332 Y44.681 E1.01403
G1 X41.332 Y45.04 E.00975
G1 X78.667 Y45.04 E1.01403
G1 X78.667 Y45.399 E.00975
G1 X41.332 Y45.399 E1.01403
G1 X41.332 Y45.758 E.00975
G1 X78.667 Y45.758 E1.01403
G1 X78.667 Y46.117 E.00975
G1 X41.332 Y46.117 E1.01403
G1 X41.332 Y46.476 E.00975
M73 P7 R10
G1 X78.667 Y46.476 E1.01404
G1 X78.667 Y46.834 E.00975
G1 X41.332 Y46.834 E1.01404
G1 X41.332 Y47.193 E.00975
G1 X78.667 Y47.193 E1.01404
G1 X78.667 Y47.552 E.00975
G1 X41.332 Y47.552 E1.01404
G1 X41.332 Y47.911 E.00975
G1 X78.667 Y47.911 E1.01404
G1 X78.667 Y48.27 E.00975
G1 X41.332 Y48.27 E1.01404
G1 X41.332 Y48.629 E.00975
G1 X78.667 Y48.629 E1.01404
G1 X78.667 Y48.988 E.00975
G1 X41.332 Y48.988 E1.01404
G1 X41.332 Y49.347 E.00975
G1 X78.668 Y49.347 E1.01405
G1 X78.668 Y49.706 E.00975
G1 X41.332 Y49.706 E1.01405
G1 X41.332 Y50.065 E.00975
G1 X78.668 Y50.065 E1.01405
G1 X78.668 Y50.424 E.00975
G1 X41.332 Y50.424 E1.01405
G1 X41.332 Y50.783 E.00975
G1 X78.668 Y50.783 E1.01405
G1 X78.668 Y51.142 E.00975
G1 X41.332 Y51.142 E1.01405
G1 X41.332 Y51.501 E.00975
G1 X78.668 Y51.501 E1.01405
G1 X78.668 Y51.86 E.00975
G1 X41.332 Y51.86 E1.01405
G1 X41.332 Y52.219 E.00975
G1 X78.668 Y52.219 E1.01405
G1 X78.668 Y52.578 E.00975
G1 X41.332 Y52.578 E1.01406
G1 X41.332 Y52.937 E.00975
G1 X78.668 Y52.937 E1.01406
G1 X78.668 Y53.295 E.00975
G1 X41.332 Y53.295 E1.01406
G2 X41.34 Y53.654 I3.74 J.093 E.00976
G1 X78.655 Y53.654 E1.01348
G3 X78.614 Y54.013 I-1.458 J.015 E.00984
G1 X41.383 Y54.013 E1.01122
G2 X41.483 Y54.372 I3.747 J-.848 E.01012
G1 X78.519 Y54.372 E1.00593
G3 X78.363 Y54.731 I-3.053 J-1.119 E.01064
G1 X41.635 Y54.731 E.99753
G2 X41.867 Y55.09 I2.301 J-1.233 E.01162
G1 X78.141 Y55.09 E.98522
G3 X77.819 Y55.449 I-1.984 J-1.46 E.01313
G1 X42.181 Y55.449 E.96791
G2 X42.667 Y55.808 I1.374 J-1.349 E.01646
