; HEADER_BLOCK_START
; generated by OrcaSlicer 2.3.1 on 2025-12-19 at 16:58:02
; total layer number: 96
; filament_density: 1.04
; filament_diameter: 1.75
; max_z_height: 19.20
; HEADER_BLOCK_END

; THUMBNAIL_BLOCK_START

;
; THUMBNAIL_BLOCK_END

; THUMBNAIL_BLOCK_START

;
; THUMBNAIL_BLOCK_END

; external perimeters extrusion width = 0.40mm
; perimeters extrusion width = 0.40mm
; infill extrusion width = 0.40mm
; solid infill extrusion width = 0.40mm
; top infill extrusion width = 0.40mm
; first layer extrusion width = 0.40mm

; EXECUTABLE_BLOCK_START


; Pre-Processed for Cancel-Object support by preprocess_cancellation v0.2.0
; 1 known objects
EXCLUDE_OBJECT_DEFINE NAME=6_degree_spacer_1_stl_id_15_copy_0 CENTER=62.608,59.630 POLYGON=[[19.556,38.2],[19.556,81.8],[100.438,81.8],[100.438,38.2]]
M73 P0 R27
;TYPE:Custom
PRINT_START EXTRUDER_TEMP=250 BED_TEMP=110
G90
G21
M83 ; use relative distances for extrusion
; Filament gcode
SET_PRESSURE_ADVANCE ADVANCE=0.04; Override pressure advance value
M106 S0
;LAYER_CHANGE
;Z:0.2
;HEIGHT:0.2
;BEFORE_LAYER_CHANGE
;0.2
G92 E0

G1 E-.8 F1800
;AFTER_LAYER_CHANGE
;0.2
;_SET_FAN_SPEED_CHANGING_LAYER
SET_VELOCITY_LIMIT ACCEL=10000 ACCEL_TO_DECEL=10000
SET_VELOCITY_LIMIT SQUARE_CORNER_VELOCITY=9
; printing object 6-degree-spacer(1).stl id:15 copy 0
EXCLUDE_OBJECT_START NAME=6_degree_spacer_1_stl_id_15_copy_0
G1 Z.6 F36000
G1 X69.37 Y54.833
G1 Z.6
G1 Z.2
G1 E.8 F1800
;TYPE:Inner wall
;WIDTH:0.4
G1 F6000
G1 X69.693 Y54.759 E.00894
G3 X70.247 Y54.691 I.932 J5.283 E.0151
G3 X75.786 Y58.65 I.375 J5.33 E.19943
G1 X75.941 Y58.66 E.00418
G3 X75.942 Y61.344 I3.363 J1.341 E.54038
G1 X75.785 Y61.353 E.00423
G3 X66.153 Y57.079 I-5.161 J-1.361 E.49913
G3 X69.149 Y54.885 I4.472 J2.964 E.10244
G1 X69.332 Y54.842 E.00507
G1 X69.428 Y55.181 F36000
G1 F6000
G1 X69.499 Y55.16 E.00199
G3 X70.272 Y55.048 I1.099 J4.838 E.02114
G3 X68.181 Y64.33 I.354 J4.957 E.50048
G3 X69.246 Y55.224 I2.416 J-4.333 E.31592
G1 X69.389 Y55.19 E.00398
G1 X69.517 Y55.527 F36000
G1 F6000
G1 X69.578 Y55.508 E.00174
G3 X70.297 Y55.404 I1.019 J4.489 E.01963
G3 X68.356 Y64.019 I.33 J4.6 E.46455
G3 X69.344 Y55.568 I2.241 J-4.021 E.29323
G1 X69.478 Y55.536 E.00373
G1 X69.601 Y55.877 F36000
;TYPE:Outer wall
G1 F6000
G1 X69.658 Y55.856 E.00166
G3 X70.322 Y55.76 I.938 J4.141 E.01813
G3 X68.531 Y63.708 I.306 J4.244 E.42867
G3 X69.021 Y56.055 I2.065 J-3.71 E.25852
G1 X69.562 Y55.889 E.01531
G1 E-.56 F1800
;WIPE_START
G1 F6000
G1 X69.658 Y55.856 E-.02431
G1 X70.322 Y55.76 E-.16084
G1 X70.55 Y55.756 E-.05485
;WIPE_END
G1 Z.6 F36000
G1 X82.119 Y58.352 Z.6
G1 Z.2
G1 E.8 F1800
;TYPE:Inner wall
G1 F6000
G1 X82.26 Y58.621 E.00819
G3 X78.678 Y56.794 I-2.959 J1.377 E.43699
G1 X79.017 Y56.747 E.00924
G3 X82.099 Y58.318 I.284 J3.251 E.09851
G1 X81.804 Y58.52 F36000
G1 F6000
G1 X81.936 Y58.772 E.00768
G3 X78.747 Y57.145 I-2.635 J1.226 E.38914
G1 X79.048 Y57.103 E.00822
G3 X81.783 Y58.486 I.253 J2.895 E.08721
G1 X81.488 Y58.688 F36000
;TYPE:Outer wall
G1 F6000
G1 X81.612 Y58.923 E.00718
G3 X78.815 Y57.496 I-2.311 J1.076 E.34129
G1 X79.079 Y57.459 E.00721
G3 X81.467 Y58.654 I.222 J2.539 E.07593
G1 E-.56 F1800
;WIPE_START
G1 F6000
G1 X81.612 Y58.923 E-.07323
G1 X81.713 Y59.17 E-.06405
G1 X81.787 Y59.426 E-.06407
G1 X81.815 Y59.585 E-.03865
;WIPE_END
G1 Z.6 F36000
G1 X38.159 Y64.801 Z.6
G1 Z.2
G1 E.8 F1800
;TYPE:Inner wall
G1 F6000
G1 X37.839 Y64.643 E.00964
G3 X36.066 Y56.964 I2.62 J-4.65 E.23955
G3 X40.082 Y54.691 I4.424 J3.133 E.12881
G3 X45.683 Y58.909 I.374 J5.331 E.20664
G1 X45.849 Y58.913 E.00448
G3 X45.992 Y61.474 I3.453 J1.092 E.54391
G1 X45.842 Y61.083 E.0113
G1 X45.681 Y61.097 E.00435
G3 X38.278 Y64.864 I-5.222 J-1.103 E.25721
G1 X38.195 Y64.82 E.00255
G1 E-.56 F1800
;WIPE_START
G1 F6000
G1 X37.839 Y64.643 E-.09519
G1 X37.356 Y64.336 E-.13759
G1 X37.332 Y64.317 E-.00722
;WIPE_END
G1 Z.6 F36000
G1 X52.135 Y61.62 Z.6
G1 Z.2
G1 E.8 F1800
G1 F6000
G1 X51.973 Y61.871 E.00806
G3 X48.678 Y56.794 I-2.672 J-1.873 E.34467
G1 X49.017 Y56.747 E.00924
G3 X52.155 Y61.581 I.284 J3.251 E.19087
G1 X52.153 Y61.584 E.00009
G1 X51.832 Y61.431 F36000
G1 F6000
G1 X51.681 Y61.666 E.00755
G3 X48.747 Y57.145 I-2.38 J-1.668 E.30693
G1 X49.048 Y57.103 E.00822
G3 X51.849 Y61.395 I.253 J2.895 E.16956
G1 X51.529 Y61.242 F36000
;TYPE:Outer wall
G1 F6000
G1 X51.388 Y61.461 E.00705
G3 X48.815 Y57.496 I-2.087 J-1.463 E.26919
G1 X49.079 Y57.459 E.00721
G3 X51.546 Y61.206 I.222 J2.539 E.14817
G1 E-.56 F1800
;WIPE_START
G1 F6000
G1 X51.388 Y61.461 E-.07204
G1 X51.226 Y61.673 E-.06404
G1 X51.041 Y61.865 E-.06408
G1 X50.914 Y61.972 E-.03985
;WIPE_END
G1 Z.6 F36000
G1 X38.337 Y64.483 Z.6
G1 Z.2
G1 E.8 F1800
;TYPE:Inner wall
G1 F6000
G1 X38.016 Y64.33 E.00962
G3 X40.107 Y55.048 I2.416 J-4.332 E.3441
G3 X38.611 Y64.616 I.355 J4.957 E.48265
G1 X38.373 Y64.5 E.00715
G1 X38.49 Y64.161 F36000
G1 F6000
G1 X38.191 Y64.019 E.00895
G3 X40.132 Y55.404 I2.241 J-4.021 E.31941
G3 X38.742 Y64.284 I.33 J4.6 E.44805
G1 X38.526 Y64.178 E.00649
G1 X38.643 Y63.839 F36000
;TYPE:Outer wall
G1 F6000
G1 X38.366 Y63.708 E.00828
G3 X40.156 Y55.76 I2.066 J-3.71 E.29471
G3 X38.872 Y63.952 I.306 J4.244 E.41348
G1 X38.679 Y63.857 E.00582
G1 E-.56 F1800
;WIPE_START
G1 F6000
G1 X38.366 Y63.708 E-.08318
G1 X38.161 Y63.586 E-.05717
G1 X37.822 Y63.346 E-.09965
;WIPE_END
G1 Z.6 F36000
G1 X98.064 Y79.279 Z.6
G1 Z.2
G1 E.8 F1800
;TYPE:Inner wall
G1 F6000
G1 X23.065 Y79.279 E2.02641
G1 X23.065 Y40.721 E1.04179
G1 X98.064 Y40.721 E2.02641
G1 X98.064 Y79.239 E1.04071
G1 X98.421 Y79.636 F36000
G1 F6000
G1 X22.708 Y79.636 E2.04571
G1 X22.708 Y40.364 E1.06108
G1 X98.421 Y40.364 E2.04571
G1 X98.421 Y79.596 E1.06
G1 X98.778 Y79.993 F36000
G1 F6000
G1 X22.351 Y79.993 E2.065
G1 X22.351 Y40.007 E1.08038
G1 X98.778 Y40.007 E2.065
G1 X98.778 Y79.953 E1.0793
M73 P0 R26
G1 X99.135 Y80.35 F36000
;TYPE:Outer wall
G1 F6000
G1 X21.994 Y80.35 E2.0843
G1 X21.994 Y39.65 E1.09968
G1 X22.207 Y39.65 E.00576
G1 X99.135 Y39.65 E2.07854
G1 X99.135 Y80.31 E1.0986
G1 E-.56 F1800
;WIPE_START
G1 F6000
G1 X98.135 Y80.311 E-.24
;WIPE_END
G1 Z.6 F36000
G1 X75.847 Y61.171 Z.6
G1 Z.2
G1 E.8 F1800
;TYPE:Gap infill
;WIDTH:0.238676
G1 F6000
G3 X75.831 Y60.617 I10.407 J-.56 E.00821
;WIDTH:0.195279
G1 X75.827 Y60.49 E.00146
;WIDTH:0.164382
G1 X75.823 Y60.368 E.00112
;WIDTH:0.131217
G1 X75.825 Y59.638 E.00488
;WIDTH:0.16716
G1 X75.828 Y59.47 E.00159
;WIDTH:0.20307
G1 X75.832 Y59.364 E.00128
;WIDTH:0.218054
G1 X75.832 Y59.359 E.00006
;WIDTH:0.243512
G1 X75.834 Y59.206 E.00233
;WIDTH:0.27055
G1 X75.849 Y58.833 E.00642
G1 E-.6881 F1800
;WIPE_START
G1 F6000
G1 X75.834 Y59.206 E-.1119
;WIPE_END
G1 Z.6 F36000
G1 X45.97 Y60.893 Z.6
G1 Z.2
G1 E.8 F1800
;WIDTH:0.376078
G1 F6000
G1 X45.768 Y60.743 E.00635
;WIDTH:0.392868
G1 X45.749 Y60.729 E.00062
G1 X45.749 Y60.629 E.00264
;WIDTH:0.36191
G1 X45.745 Y60.501 E.00309
;WIDTH:0.331165
G1 X45.741 Y60.381 E.0026
;WIDTH:0.296694
G1 X45.742 Y59.635 E.01434
;WIDTH:0.332999
G1 X45.746 Y59.458 E.00387
;WIDTH:0.369282
G1 X45.75 Y59.356 E.00253
;WIDTH:0.397494
G1 X45.753 Y59.09 E.00715
G1 X45.787 Y58.519 F36000
;WIDTH:0.0957982
G1 F6000
G3 X45.834 Y58.389 I.163 J-.015 E.00057
G1 E-.75759 F1800
;WIPE_START
G1 F6000
G1 X45.79 Y58.473 E-.02841
G1 X45.787 Y58.519 E-.01399
;WIPE_END
G1 Z.6 F36000
G1 X23.172 Y40.99 Z.6
G1 Z.2
G1 E.8 F1800
;TYPE:Bottom surface
;WIDTH:0.401602
G1 F12600
M73 P1 R26
G1 X97.796 Y40.99 E2.02533
G1 X97.796 Y41.349 E.00973
G1 X23.333 Y41.349 E2.02097
G1 X23.333 Y41.707 E.00973
G1 X97.796 Y41.707 E2.02097
G1 X97.796 Y42.066 E.00973
G1 X23.333 Y42.066 E2.02097
G1 X23.333 Y42.425 E.00973
G1 X97.796 Y42.425 E2.02097
G1 X97.796 Y42.783 E.00973
G1 X23.333 Y42.783 E2.02097
G1 X23.333 Y43.142 E.00973
G1 X97.796 Y43.142 E2.02097
G1 X97.796 Y43.501 E.00973
G1 X23.333 Y43.501 E2.02097
G1 X23.333 Y43.859 E.00973
G1 X97.796 Y43.859 E2.02097
G1 X97.796 Y44.218 E.00973
G1 X23.333 Y44.218 E2.02097
G1 X23.333 Y44.577 E.00973
G1 X97.796 Y44.577 E2.02097
G1 X97.796 Y44.935 E.00973
G1 X23.333 Y44.935 E2.02097
G1 X23.333 Y45.294 E.00973
G1 X97.796 Y45.294 E2.02097
G1 X97.796 Y45.653 E.00973
G1 X23.333 Y45.653 E2.02097
G1 X23.333 Y46.011 E.00973
G1 X97.796 Y46.011 E2.02097
G1 X97.796 Y46.37 E.00973
G1 X23.333 Y46.37 E2.02097
G1 X23.333 Y46.729 E.00973
G1 X97.796 Y46.729 E2.02097
G1 X97.796 Y47.087 E.00973
G1 X23.333 Y47.087 E2.02097
G1 X23.333 Y47.446 E.00973
G1 X97.796 Y47.446 E2.02097
G1 X97.796 Y47.805 E.00973
G1 X23.333 Y47.805 E2.02097
G1 X23.333 Y48.164 E.00973
G1 X97.796 Y48.164 E2.02097
G1 X97.796 Y48.522 E.00973
G1 X23.333 Y48.522 E2.02097
G1 X23.333 Y48.881 E.00973
G1 X97.796 Y48.881 E2.02097
G1 X97.796 Y49.24 E.00973
G1 X23.333 Y49.24 E2.02097
G1 X23.333 Y49.598 E.00973
G1 X97.796 Y49.598 E2.02097
G1 X97.796 Y49.957 E.00973
G1 X23.333 Y49.957 E2.02097
G1 X23.333 Y50.316 E.00973
G1 X97.796 Y50.316 E2.02097
G1 X97.796 Y50.674 E.00973
G1 X23.333 Y50.674 E2.02097
G1 X23.333 Y51.033 E.00973
G1 X97.796 Y51.033 E2.02097
G1 X97.796 Y51.392 E.00973
G1 X23.333 Y51.392 E2.02097
G1 X23.333 Y51.75 E.00973
G1 X97.796 Y51.75 E2.02097
G1 X97.796 Y52.109 E.00973
G1 X23.333 Y52.109 E2.02097
G1 X23.333 Y52.468 E.00973
G1 X97.796 Y52.468 E2.02097
G1 X97.796 Y52.826 E.00973
G1 X23.333 Y52.826 E2.02097
G1 X23.333 Y53.185 E.00973
G1 X97.796 Y53.185 E2.02097
G1 X97.796 Y53.544 E.00973
G1 X23.333 Y53.544 E2.02097
G1 X23.333 Y53.902 E.00973
G1 X97.796 Y53.902 E2.02097
G1 X97.796 Y54.261 E.00973
G1 X23.333 Y54.261 E2.02097
G1 X23.333 Y54.62 E.00973
G1 X38.935 Y54.62 E.42345
G3 X41.969 Y54.62 I1.517 J5.595 E.08331
G1 X69.1 Y54.62 E.73635
G3 X72.138 Y54.62 I1.519 J5.399 E.08348
G1 X97.796 Y54.62 E.69638
G1 X97.796 Y54.979 E.00973
G1 X73.084 Y54.978 E.6707
G3 X73.71 Y55.337 I-1.972 J4.171 E.01962
G1 X97.796 Y55.337 E.6537
G1 X97.796 Y55.696 E.00973
G1 X74.191 Y55.696 E.64064
G3 X74.588 Y56.055 I-2.406 J3.059 E.01453
G1 X97.796 Y56.055 E.62988
G1 X97.796 Y56.413 E.00973
G1 X80.798 Y56.413 E.46135
G2 X77.794 Y56.413 I-1.502 J3.556 E.08372
G1 X74.923 Y56.413 E.07793
G3 X75.199 Y56.772 I-1.833 J1.701 E.01231
G1 X77.134 Y56.772 E.05251
G2 X76.679 Y57.131 I2.645 J3.829 E.01575
G1 X75.429 Y57.131 E.03392
G3 X75.625 Y57.489 I-1.621 J1.117 E.01111
G1 X76.335 Y57.489 E.01929
G2 X76.066 Y57.848 I1.572 J1.463 E.0122
G1 X75.622 Y57.848 E.01204
G1 E-.65714 F1800
;WIPE_START
G1 F12600
G1 X76.066 Y57.848 E-.06338
G1 X76.335 Y57.489 E-.06411
G1 X76.228 Y57.489 E-.01537
;WIPE_END
G1 Z.6 F36000
G1 X75.618 Y62.152 Z.6
G1 Z.2
G1 E.8 F1800
G1 F12600
G1 X76.066 Y62.152 E.01215
G2 X76.334 Y62.511 I1.841 J-1.099 E.01219
G1 X75.631 Y62.511 E.01908
G3 X75.431 Y62.87 I-4.576 J-2.324 E.01116
G1 X76.675 Y62.87 E.03378
G2 X77.137 Y63.228 I3.323 J-3.805 E.01588
G1 X74.999 Y63.228 E.05803
G1 E-.65714 F1800
;WIPE_START
G1 F12600
G1 X75.999 Y63.228 E-.14286
;WIPE_END
G1 Z.6 F36000
M73 P2 R26
G1 X81.165 Y56.772 Z.6
G1 Z.2
G1 E.8 F1800
G1 F12600
G1 X97.796 Y56.772 E.45136
G1 X97.796 Y57.131 E.00973
G1 X81.924 Y57.131 E.43077
G3 X82.268 Y57.489 I-1.535 J1.812 E.0135
G1 X97.796 Y57.489 E.42145
G1 X97.796 Y57.848 E.00973
G1 X82.537 Y57.848 E.41413
G3 X82.749 Y58.207 I-1.6 J1.187 E.01133
G1 X97.796 Y58.207 E.40838
G1 X97.796 Y58.565 E.00973
G1 X82.913 Y58.565 E.40393
G3 X83.036 Y58.924 I-1.645 J.762 E.01031
G1 X97.796 Y58.924 E.40061
G1 X97.796 Y59.283 E.00973
G1 X83.121 Y59.283 E.39829
G3 X83.172 Y59.641 I-1.681 J.422 E.00985
G1 X97.796 Y59.641 E.39691
G1 X97.796 Y60 E.00973
G1 X83.19 Y60 E.39642
G3 X83.175 Y60.359 I-1.714 J.11 E.00976
G1 X97.796 Y60.359 E.39682
G1 X97.796 Y60.717 E.00973
G1 X83.125 Y60.717 E.39819
G3 X83.038 Y61.076 I-1.749 J-.233 E.01003
G1 X97.796 Y61.076 E.40054
G1 X97.796 Y61.435 E.00973
G1 X82.915 Y61.435 E.40389
G3 X82.75 Y61.793 I-1.788 J-.602 E.01073
G1 X97.796 Y61.793 E.40835
G1 X97.796 Y62.152 E.00973
G1 X82.539 Y62.152 E.41409
G3 X82.271 Y62.511 I-1.841 J-1.095 E.01217
G1 X97.796 Y62.511 E.42135
G1 X97.796 Y62.87 E.00973
G1 X81.927 Y62.87 E.43069
G3 X81.465 Y63.228 I-1.938 J-2.021 E.01591
G1 X97.796 Y63.228 E.44324
G1 X97.796 Y63.587 E.00973
G1 X80.801 Y63.587 E.46125
G3 X77.802 Y63.587 I-1.5 J-3.537 E.08362
G1 X74.914 Y63.587 E.07837
G3 X74.581 Y63.946 I-1.767 J-1.305 E.01331
G1 X97.796 Y63.946 E.63006
G1 X97.796 Y64.304 E.00973
G1 X74.19 Y64.304 E.64068
G3 X73.702 Y64.663 I-1.954 J-2.146 E.01646
G1 X97.796 Y64.663 E.65392
G1 X97.796 Y65.022 E.00973
G1 X72.681 Y65.022 E.68163
G1 E-.65714 F1800
;WIPE_START
G1 F12600
G1 X73.681 Y65.022 E-.14286
;WIPE_END
G1 Z.6 F36000
G1 X68.552 Y54.978 Z.6
G1 Z.2
G1 E.8 F1800
G1 F12600
G1 X42.907 Y54.978 E.69603
G3 X43.548 Y55.337 I-4.292 J8.421 E.01994
G1 X67.53 Y55.337 E.6509
G2 X67.042 Y55.696 I2.218 J3.529 E.01645
G1 X44.025 Y55.696 E.6247
G3 X44.423 Y56.055 I-1.508 J2.071 E.01456
G1 X66.651 Y56.055 E.60327
G2 X66.319 Y56.413 I1.916 J2.102 E.01327
G1 X50.798 Y56.413 E.42126
G2 X47.794 Y56.413 I-1.502 J3.556 E.08373
G1 X44.757 Y56.413 E.08242
G3 X45.028 Y56.772 I-2.14 J1.894 E.0122
G1 X47.134 Y56.772 E.05717
G2 X46.679 Y57.131 I2.646 J3.83 E.01575
G1 X45.269 Y57.131 E.03826
G1 X45.461 Y57.489 E.01104
G1 X46.335 Y57.489 E.02373
G2 X46.066 Y57.848 I1.572 J1.463 E.0122
G1 X45.453 Y57.848 E.01662
G1 E-.65714 F1800
;WIPE_START
G1 F12600
G1 X46.066 Y57.848 E-.08746
G1 X46.299 Y57.538 E-.0554
;WIPE_END
G1 Z.6 F36000
G1 X45.596 Y61.793 Z.6
G1 Z.2
G1 E.8 F1800
G1 F12600
G1 X45.854 Y61.793 E.00699
G2 X46.066 Y62.152 I1.812 J-.827 E.01132
G1 X45.628 Y62.152 E.01188
G3 X45.459 Y62.511 I-1.906 J-.676 E.01077
G1 X46.334 Y62.511 E.02375
G2 X46.675 Y62.87 I1.877 J-1.443 E.01346
G1 X45.268 Y62.87 E.0382
G3 X45.026 Y63.228 I-2.395 J-1.35 E.01174
G1 X47.432 Y63.228 E.0653
G1 E-.65714 F1800
;WIPE_START
G1 F12600
G1 X46.432 Y63.228 E-.14286
;WIPE_END
G1 Z.6 F36000
G1 X51.166 Y56.772 Z.6
G1 Z.2
G1 E.8 F1800
G1 F12600
G1 X66.047 Y56.772 E.40388
G2 X65.806 Y57.131 I2.167 J1.717 E.01174
G1 X51.924 Y57.131 E.37674
G3 X52.268 Y57.489 I-1.535 J1.813 E.0135
G1 X65.609 Y57.489 E.36209
G1 X65.446 Y57.848 E.01069
G1 X52.537 Y57.848 E.35036
G3 X52.749 Y58.207 I-1.6 J1.187 E.01133
G1 X65.311 Y58.207 E.34094
G2 X65.198 Y58.565 I2.394 J.951 E.01022
G1 X52.913 Y58.565 E.33342
G3 X53.035 Y58.924 I-1.668 J.769 E.0103
G1 X65.115 Y58.924 E.32785
G2 X65.061 Y59.283 I2.42 J.551 E.00985
G1 X53.121 Y59.283 E.32405
G3 X53.172 Y59.641 I-1.681 J.422 E.00985
G1 X65.025 Y59.641 E.32169
G1 X65.016 Y60 E.00974
G1 X53.19 Y60 E.32096
G3 X53.175 Y60.359 I-1.714 J.11 E.00976
G1 X65.022 Y60.359 E.32152
G2 X65.062 Y60.717 I2.287 J-.074 E.00981
G1 X53.125 Y60.717 E.32398
G3 X53.038 Y61.076 I-1.749 J-.233 E.01003
G1 X65.114 Y61.076 E.32773
G2 X65.2 Y61.435 I2.312 J-.367 E.01002
G1 X52.915 Y61.435 E.33343
G3 X52.75 Y61.793 I-1.788 J-.602 E.01073
G1 X65.31 Y61.793 E.34088
G2 X65.442 Y62.152 I2.334 J-.653 E.01038
G1 X52.539 Y62.152 E.35019
G3 X52.271 Y62.511 I-1.84 J-1.095 E.01217
G1 X65.609 Y62.511 E.362
G1 X65.809 Y62.87 E.01114
G1 X51.927 Y62.87 E.37676
G3 X51.465 Y63.228 I-1.938 J-2.021 E.01591
G1 X66.04 Y63.228 E.39557
G1 X66.322 Y63.587 E.01238
G1 X50.801 Y63.587 E.42123
G3 X47.802 Y63.587 I-1.5 J-3.537 E.08362
G1 X44.752 Y63.587 E.08277
G1 X44.424 Y63.946 E.0132
G1 X66.648 Y63.946 E.60319
G2 X67.047 Y64.304 I2.171 J-2.009 E.01456
G1 X44.026 Y64.304 E.62479
G3 X43.54 Y64.663 I-1.949 J-2.132 E.01642
G1 X67.532 Y64.663 E.65116
G2 X68.182 Y65.022 I2.248 J-3.306 E.02017
G1 X42.516 Y65.022 E.6966
G1 E-.65714 F1800
;WIPE_START
G1 F12600
G1 X43.516 Y65.022 E-.14286
;WIPE_END
G1 Z.6 F36000
G1 X38.387 Y54.978 Z.6
G1 Z.2
G1 E.8 F1800
G1 F12600
G1 X23.333 Y54.978 E.40858
G1 X23.333 Y55.337 E.00973
G1 X37.365 Y55.337 E.38085
G2 X36.877 Y55.696 I2.218 J3.529 E.01645
G1 X23.333 Y55.696 E.36761
G1 X23.333 Y56.055 E.00973
G1 X36.485 Y56.055 E.35697
G2 X36.155 Y56.413 I1.64 J1.841 E.01325
G1 X23.333 Y56.413 E.34801
G1 X23.333 Y56.772 E.00973
G1 X35.876 Y56.772 E.34043
G2 X35.642 Y57.131 I4.09 J2.924 E.01163
G1 X23.333 Y57.131 E.33408
G1 X23.333 Y57.489 E.00973
G1 X35.444 Y57.489 E.3287
G1 X35.281 Y57.848 E.01069
G1 X23.333 Y57.848 E.32429
G1 X23.333 Y58.207 E.00973
G1 X35.146 Y58.207 E.32062
G2 X35.033 Y58.565 I2.393 J.951 E.01022
G1 X23.333 Y58.565 E.31755
