; HEADER_BLOCK_START
; generated by OrcaSlicer 2.3.2-beta2 on 2026-02-28 at 15:47:14
; total layer number: 100
; filament_density: 1.04
; filament_diameter: 1.75
; max_z_height: 20.00
; filament: 1
; HEADER_BLOCK_END

; THUMBNAIL_BLOCK_START

;
; THUMBNAIL_BLOCK_END

; THUMBNAIL_BLOCK_START

;
; THUMBNAIL_BLOCK_END

; external perimeters extrusion width = 0.40mm
; perimeters extrusion width = 0.40mm
; infill extrusion width = 0.40mm
; solid infill extrusion width = 0.40mm
; top infill extrusion width = 0.40mm
; first layer extrusion width = 0.40mm

; EXECUTABLE_BLOCK_START


; Pre-Processed for Cancel-Object support by preprocess_cancellation v0.2.0
; 1 known objects
EXCLUDE_OBJECT_DEFINE NAME=bcdesign_skr_pico_pcb_holder_voron_v2_stl_id_87_copy_0 CENTER=55.056,68.937 POLYGON=[[7.7,20.457],[7.7,99.543],[112.3,99.543],[112.3,20.457]]
M73 P0 R46
;TYPE:Custom
PRINT_START EXTRUDER_TEMP=255 BED_TEMP=105
G90
G21
M83 ; use relative distances for extrusion
; Filament gcode
SET_PRESSURE_ADVANCE ADVANCE=0.04; Override pressure advance value
M106 S0
;LAYER_CHANGE
;Z:0.2
;HEIGHT:0.2
;BEFORE_LAYER_CHANGE
;0.2
G92 E0

G1 E-.8 F1800
;AFTER_LAYER_CHANGE
;0.2
;_SET_FAN_SPEED_CHANGING_LAYER
SET_VELOCITY_LIMIT ACCEL=10000 ACCEL_TO_DECEL=10000
SET_VELOCITY_LIMIT SQUARE_CORNER_VELOCITY=9
; printing object bcdesign_skr_pico_pcb_holder_voron-v2.stl id:87 copy 0
EXCLUDE_OBJECT_START NAME=bcdesign_skr_pico_pcb_holder_voron_v2_stl_id_87_copy_0
G1 Z.6 F36000
G1 X19.785 Y71.023
G1 Z.6
G1 Z.2
G1 E.8 F1800
;TYPE:Outer wall
;WIDTH:0.4
G1 F6000
G1 X20.12 Y70.734 E.01196
G1 X20.545 Y70.551 E.01249
G1 X20.992 Y70.491 E.01218
G1 X21.453 Y70.549 E.01256
G1 X21.877 Y70.725 E.01239
G1 X22.24 Y71.003 E.01236
G1 X22.518 Y71.366 E.01236
G1 X22.693 Y71.789 E.01237
G1 X22.753 Y72.243 E.01236
G1 X22.693 Y72.697 E.01236
G1 X22.521 Y73.112 E.01214
G1 X22.24 Y73.482 E.01256
G1 X21.877 Y73.761 E.01239
G1 X21.454 Y73.936 E.01237
G1 X21 Y73.996 E.01237
G1 X20.545 Y73.935 E.0124
G1 X20.12 Y73.752 E.01249
G1 X19.768 Y73.447 E.01259
G1 X19.542 Y73.049 E.01238
G3 X19.398 Y72.243 I4.477 J-1.212 E.02214
G3 X19.539 Y71.445 I4.671 J.413 E.02192
G1 X19.759 Y71.053 E.01215
G1 E-.56 F1800
;WIPE_START
G1 F6000
G1 X20.12 Y70.734 E-.11563
G1 X20.545 Y70.551 E-.11094
G1 X20.6 Y70.544 E-.01344
;WIPE_END
G1 Z.6 F36000
G1 X20.945 Y21.497 Z.6
G1 Z.2
G1 E.8 F1800
G1 F6000
G1 X20.992 Y21.491 E.00127
G1 X21.453 Y21.549 E.01256
G1 X21.877 Y21.725 E.01239
G1 X22.24 Y22.003 E.01236
G1 X22.518 Y22.366 E.01236
G1 X22.693 Y22.789 E.01236
G1 X22.753 Y23.243 E.01236
G1 X22.693 Y23.697 E.01236
G1 X22.518 Y24.119 E.01236
G1 X22.24 Y24.482 E.01236
G1 X21.877 Y24.761 E.01236
G1 X21.454 Y24.936 E.01236
G1 X21 Y24.996 E.01236
G1 X20.546 Y24.936 E.01236
G1 X20.123 Y24.761 E.01237
G1 X19.76 Y24.482 E.01236
G1 X19.482 Y24.119 E.01236
G1 X19.31 Y23.704 E.01214
G1 X19.247 Y23.244 E.01256
G1 X19.307 Y22.789 E.01239
G1 X19.482 Y22.366 E.01236
G1 X19.76 Y22.003 E.01236
G1 X20.123 Y21.725 E.01236
G1 X20.546 Y21.55 E.01236
G1 X20.906 Y21.502 E.0098
G1 E-.56 F1800
;WIPE_START
G1 F6000
G1 X20.992 Y21.491 E-.02085
G1 X21.453 Y21.549 E-.11153
G1 X21.867 Y21.721 E-.10762
;WIPE_END
G1 Z.6 F36000
G1 X62.244 Y59.089 Z.6
G1 Z.2
G1 E.8 F1800
;TYPE:Inner wall
G1 F6000
G1 X62.36 Y59.422 E.00954
G1 X62.427 Y59.965 E.01477
G1 X62.376 Y60.509 E.01477
G1 X62.212 Y61.03 E.01477
G1 X61.94 Y61.505 E.01477
G1 X61.575 Y61.911 E.01477
G1 X61.131 Y62.231 E.01477
G1 X60.63 Y62.449 E.01477
G1 X60.094 Y62.556 E.01477
G1 X59.547 Y62.547 E.01477
G3 X58.399 Y62.197 I.986 J-5.286 E.03249
G2 X52.251 Y60.785 I-9.782 J28.504 E.17076
G1 X50.496 Y60.671 E.04752
G1 X48.744 Y60.702 E.04735
G1 X46.998 Y60.877 E.0474
G1 X45.012 Y61.243 E.05456
G3 X43.996 Y61.27 I-.687 J-6.538 E.0275
G3 X41.026 Y58.954 I.408 J-3.585 E.10706
G1 X40.868 Y58.359 E.01665
G1 X40.815 Y57.747 E.01659
G1 X40.867 Y57.134 E.01661
G1 X41.026 Y56.538 E.01667
G1 X41.286 Y55.981 E.01662
G1 X41.652 Y55.455 E.0173
G2 X41.994 Y55.086 I-1.275 J-1.522 E.01364
G1 X47.74 Y50.231 E.20323
G1 X48.211 Y49.899 E.01559
G1 X48.776 Y49.634 E.01686
G1 X49.379 Y49.472 E.01686
G1 X49.779 Y49.437 E.01086
G1 X50 Y49.417 E.006
G1 X50.622 Y49.472 E.01686
G1 X51.224 Y49.634 E.01686
G1 X51.789 Y49.899 E.01686
G1 X52.26 Y50.231 E.01559
G1 X61.557 Y58.085 E.32882
G1 X61.895 Y58.439 E.01323
G1 X62.18 Y58.906 E.01477
G1 X62.231 Y59.051 E.00416
G1 X61.907 Y59.206 F36000
G1 F6000
G1 X62.01 Y59.503 E.0085
G1 X62.067 Y59.97 E.0127
G1 X62.024 Y60.438 E.0127
G1 X61.883 Y60.886 E.0127
G1 X61.649 Y61.295 E.0127
G1 X61.335 Y61.644 E.0127
G1 X60.953 Y61.919 E.0127
G1 X60.522 Y62.106 E.0127
G1 X60.061 Y62.198 E.0127
G1 X59.591 Y62.191 E.0127
G3 X58.515 Y61.859 I.939 J-4.958 E.03049
G2 X52.288 Y60.429 I-9.9 J28.846 E.17294
G1 X50.504 Y60.313 E.04831
G1 X48.723 Y60.346 E.04814
G1 X46.95 Y60.523 E.04815
G1 X44.97 Y60.887 E.05439
G3 X44.033 Y60.914 I-.648 J-6.241 E.02536
G3 X41.173 Y57.747 I.354 J-3.194 E.12607
G1 X41.221 Y57.196 E.01494
G1 X41.363 Y56.661 E.01497
G1 X41.597 Y56.16 E.01494
G1 X41.922 Y55.692 E.01539
G2 X42.247 Y55.339 I-1.218 J-1.447 E.01299
G1 X47.958 Y50.514 E.20201
G1 X48.391 Y50.209 E.01432
G1 X48.899 Y49.971 E.01516
G1 X49.441 Y49.825 E.01516
G1 X49.81 Y49.792 E.01001
G1 X50 Y49.776 E.00515
G1 X50.559 Y49.825 E.01516
G1 X51.101 Y49.971 E.01516
G1 X51.609 Y50.209 E.01516
G1 X52.042 Y50.514 E.01432
G1 X61.312 Y58.346 E.32788
G1 X61.61 Y58.658 E.01168
G1 X61.856 Y59.059 E.0127
G1 X61.894 Y59.168 E.00312
G1 X61.57 Y59.324 F36000
;TYPE:Outer wall
G1 F6000
G1 X61.653 Y59.586 E.00745
G3 X59.27 Y61.749 I-1.8 J.411 E.10559
G2 X52.326 Y60.074 I-10.651 J28.93 E.19344
G1 X50.513 Y59.956 E.04909
G1 X48.702 Y59.989 E.04894
G1 X46.901 Y60.169 E.0489
G1 X44.927 Y60.532 E.05422
G3 X42.819 Y60.117 I-.499 J-3.029 E.05931
G3 X42.193 Y55.929 I1.546 J-2.372 E.12926
G2 X42.5 Y55.593 I-1.16 J-1.371 E.01234
G1 X48.177 Y50.797 E.20078
G3 X49.841 Y50.148 I1.781 J2.108 E.04916
G1 X50 Y50.134 E.00431
G3 X51.824 Y50.797 I.001 J2.838 E.0535
G1 X61.067 Y58.606 E.32695
G3 X61.526 Y59.215 I-1.213 J1.391 E.02076
G1 X61.555 Y59.287 E.00207
G1 E-.56 F1800
;WIPE_START
G1 F6000
G1 X61.653 Y59.586 E-.07572
G1 X61.708 Y59.975 E-.09428
G1 X61.682 Y60.266 E-.07
;WIPE_END
G1 Z.6 F36000
G1 X53.235 Y44.899 Z.6
G1 Z.2
G1 E.8 F1800
;TYPE:Inner wall
G1 F6000
G1 X53.374 Y45.048 E.00552
G1 X53.139 Y45.289 E.00908
G1 X52.725 Y45.922 E.02044
G1 X52.44 Y46.622 E.02044
G1 X52.295 Y47.365 E.02044
G1 X52.295 Y48.121 E.02044
G1 X52.44 Y48.863 E.02044
G1 X52.725 Y49.564 E.02044
G1 X53.139 Y50.197 E.02044
G1 X53.374 Y50.437 E.00907
G1 X53.234 Y50.587 E.00552
G1 X52.479 Y49.948 E.02672
G1 X51.969 Y49.589 E.01686
G1 X51.347 Y49.297 E.01855
G1 X50.684 Y49.119 E.01855
G1 X50 Y49.059 E.01855
G1 X49.316 Y49.119 E.01855
G1 X48.653 Y49.297 E.01855
G1 X48.031 Y49.589 E.01855
G1 X47.521 Y49.948 E.01686
G1 X46.765 Y50.587 E.02674
G1 X46.626 Y50.438 E.00552
G1 X46.861 Y50.197 E.00909
G1 X47.275 Y49.564 E.02044
G1 X47.56 Y48.863 E.02044
G1 X47.705 Y48.121 E.02044
G1 X47.705 Y47.365 E.02044
G1 X47.56 Y46.622 E.02044
G1 X47.275 Y45.922 E.02044
G1 X46.861 Y45.289 E.02044
G1 X46.626 Y45.048 E.00908
G1 X46.765 Y44.899 E.00552
G1 X47.521 Y45.537 E.02674
G1 X48.031 Y45.897 E.01686
G1 X48.653 Y46.188 E.01855
G1 X49.316 Y46.367 E.01855
G1 X50 Y46.427 E.01855
G1 X50.684 Y46.367 E.01855
G1 X51.347 Y46.188 E.01855
G1 X51.969 Y45.897 E.01855
G1 X52.479 Y45.537 E.01686
G1 X53.204 Y44.924 E.02566
G1 E-.56 F1800
;WIPE_START
G1 F6000
G1 X53.374 Y45.048 E-.05038
G1 X53.139 Y45.289 E-.0807
G1 X52.891 Y45.669 E-.10893
;WIPE_END
G1 Z.6 F36000
G1 X59.74 Y34.796 Z.6
G1 Z.2
G1 E.8 F1800
G1 F6000
G1 X59.828 Y34.927 E.00426
G3 X60.107 Y35.482 I-3.071 J1.895 E.0168
G1 X60.28 Y36.085 E.01693
G1 X60.344 Y36.706 E.01687
G1 X60.299 Y37.33 E.01691
G1 X60.144 Y37.938 E.01696
G1 X59.884 Y38.507 E.0169
G1 X59.515 Y39.042 E.01757
G2 X59.166 Y39.421 I1.331 J1.578 E.01394
G1 X52.26 Y45.254 E.24425
G1 X51.789 Y45.587 E.01559
M73 P0 R45
G1 X51.224 Y45.852 E.01686
G1 X50.621 Y46.014 E.01686
G1 X50 Y46.069 E.01686
G1 X49.379 Y46.014 E.01686
G1 X48.776 Y45.852 E.01686
G1 X48.211 Y45.587 E.01686
G1 X47.74 Y45.254 E.01559
G1 X40.837 Y39.423 E.24417
G3 X40.186 Y38.624 I4.888 J-4.645 E.02784
G3 X40.216 Y34.849 I3.09 J-1.863 E.10736
G1 X40.601 Y34.353 E.01694
G1 X41.064 Y33.935 E.01688
G1 X41.595 Y33.602 E.01692
G1 X42.178 Y33.369 E.01697
G1 X42.791 Y33.243 E.01691
G1 X42.978 Y33.237 E.00507
G1 X43.441 Y33.224 E.01251
G2 X43.949 Y33.283 I.486 J-1.992 E.01384
G1 X45.586 Y33.653 E.04535
G1 X47.162 Y33.898 E.04311
G1 X48.9 Y34.051 E.04714
G1 X50.637 Y34.07 E.04692
G1 X52.373 Y33.952 E.04702
G1 X54.111 Y33.707 E.04743
G1 X56.059 Y33.281 E.05387
G3 X57.079 Y33.228 I.85 J6.581 E.02762
G3 X59.497 Y34.474 I-.322 J3.594 E.07536
G1 X59.716 Y34.765 E.00983
G1 X59.45 Y35.005 F36000
G1 F6000
G1 X59.521 Y35.112 E.00346
G3 X59.773 Y35.611 I-2.759 J1.703 E.01513
G1 X59.928 Y36.153 E.01521
G1 X59.986 Y36.711 E.01517
G1 X59.946 Y37.272 E.0152
G1 X59.806 Y37.819 E.01523
G1 X59.572 Y38.33 E.01519
G1 X59.244 Y38.807 E.01564
G2 X58.913 Y39.167 I1.269 J1.498 E.01326
G1 X52.042 Y44.972 E.24302
G1 X51.609 Y45.277 E.01432
G1 X51.101 Y45.515 E.01516
G1 X50.559 Y45.661 E.01516
G1 X50 Y45.71 E.01516
G1 X49.441 Y45.661 E.01516
G1 X48.899 Y45.515 E.01516
G1 X48.391 Y45.277 E.01516
G1 X47.958 Y44.972 E.01432
G1 X41.089 Y39.169 E.24295
G3 X40.491 Y38.436 I4.633 J-4.394 E.02559
G3 X40.518 Y35.042 I2.777 J-1.675 E.0965
G1 X40.864 Y34.597 E.01522
G1 X41.28 Y34.221 E.01518
G1 X41.757 Y33.922 E.01521
G1 X42.281 Y33.712 E.01524
G1 X42.832 Y33.599 E.0152
G1 X42.988 Y33.594 E.00423
G1 X43.411 Y33.582 E.01142
G2 X43.895 Y33.637 I.459 J-1.899 E.01319
G1 X45.523 Y34.005 E.04512
G1 X47.119 Y34.253 E.04363
G1 X48.883 Y34.408 E.04784
G1 X50.647 Y34.427 E.04767
G1 X52.41 Y34.307 E.04774
G1 X54.17 Y34.059 E.04803
G1 X56.111 Y33.635 E.05368
G3 X57.051 Y33.585 I.802 J6.264 E.02544
G3 X59.224 Y34.705 I-.289 J3.23 E.06774
G1 X59.426 Y34.973 E.00908
G1 X59.161 Y35.214 F36000
;TYPE:Outer wall
G1 F6000
G1 X59.217 Y35.295 E.00265
G3 X58.973 Y38.571 I-2.423 J1.467 E.09468
G2 X58.66 Y38.913 I1.207 J1.417 E.01257
G1 X51.823 Y44.689 E.2418
G3 X48.177 Y44.689 I-1.823 J-2.176 E.107
G1 X41.342 Y38.915 E.24173
G3 X40.383 Y36.988 I2.097 J-2.247 E.05942
G3 X42.998 Y33.951 I2.808 J-.227 E.12049
G1 X43.381 Y33.94 E.01033
G2 X43.841 Y33.991 I.431 J-1.807 E.01254
G1 X45.461 Y34.357 E.04488
G1 X47.076 Y34.607 E.04416
G1 X48.865 Y34.765 E.04853
G1 X50.657 Y34.784 E.04842
G1 X52.447 Y34.662 E.04847
G1 X54.23 Y34.412 E.04864
G1 X56.164 Y33.989 E.0535
G3 X58.283 Y34.353 I.573 J3.018 E.05935
G3 X58.956 Y34.933 I-1.489 J2.409 E.0241
G1 X59.137 Y35.182 E.00833
G1 E-.56 F1800
;WIPE_START
G1 F6000
G1 X59.217 Y35.295 E-.03318
G1 X59.439 Y35.741 E-.11946
G1 X59.539 Y36.091 E-.08736
;WIPE_END
G1 Z.6 F36000
G1 X31.684 Y62.238 Z.6
G1 Z.2
G1 E.8 F1800
;TYPE:Inner wall
G1 F6000
G1 X31.34 Y62.301 E.00943
G1 X30.807 Y62.286 E.01442
G1 X30.288 Y62.161 E.01442
G1 X29.807 Y61.931 E.01442
G1 X29.383 Y61.607 E.01442
G1 X29.036 Y61.201 E.01442
G1 X28.78 Y60.733 E.01442
G1 X28.626 Y60.222 E.01442
G1 X28.582 Y59.691 E.01442
G1 X28.649 Y59.161 E.01442
G1 X28.805 Y58.71 E.0129
G1 X29.646 Y56.88 E.05441
G1 X30.375 Y55.05 E.05324
G2 X31.553 Y50.846 I-23.959 J-8.978 E.11809
G1 X31.752 Y49.408 E.03923
G1 X31.833 Y47.954 E.03934
G1 X31.787 Y46.504 E.0392
G1 X31.619 Y45.059 E.0393
G1 X31.341 Y43.619 E.03962
G2 X29.662 Y38.648 I-31.113 J7.74 E.14193
G1 X28.804 Y36.773 E.05572
G1 X28.648 Y36.323 E.01288
G1 X28.582 Y35.793 E.01441
G1 X28.627 Y35.262 E.01441
G1 X28.781 Y34.751 E.01441
G1 X29.037 Y34.283 E.01441
G1 X29.384 Y33.879 E.01441
G1 X29.807 Y33.554 E.01441
G1 X30.289 Y33.325 E.01441
G1 X30.807 Y33.2 E.01441
G1 X31.145 Y33.191 E.00911
G1 X31.341 Y33.185 E.0053
G1 X31.865 Y33.281 E.01441
G1 X32.359 Y33.483 E.01441
G1 X32.754 Y33.752 E.0129
G1 X46.137 Y45.058 E.47338
G1 X46.581 Y45.513 E.01717
G1 X46.957 Y46.088 E.01857
G1 X47.216 Y46.725 E.01857
G1 X47.348 Y47.399 E.01857
G1 X47.348 Y48.087 E.01857
G1 X47.216 Y48.761 E.01857
G1 X46.957 Y49.397 E.01857
G1 X46.581 Y49.972 E.01857
G1 X46.137 Y50.428 E.01717
G1 X32.754 Y61.734 E.47338
G1 X32.359 Y62.003 E.01291
G1 X31.865 Y62.205 E.01442
G1 X31.723 Y62.231 E.0039
G1 X31.62 Y61.887 F36000
G1 F6000
G1 X31.313 Y61.943 E.00842
G3 X29.137 Y58.845 I-.167 J-2.196 E.12309
G1 X29.976 Y57.017 E.05433
G1 X30.71 Y55.174 E.05362
G2 X31.905 Y50.908 I-24.3 J-9.104 E.11983
G1 X32.108 Y49.442 E.03999
G1 X32.191 Y47.958 E.04016
G1 X32.143 Y46.477 E.04002
G1 X31.973 Y45.005 E.04006
G1 X31.69 Y43.541 E.04027
G2 X29.992 Y38.51 I-31.444 J7.813 E.14362
G1 X29.136 Y36.639 E.0556
G1 X28.998 Y36.241 E.01138
G3 X30.855 Y33.556 I2.147 J-.5 E.09932
G1 X31.155 Y33.547 E.0081
G1 X31.313 Y33.543 E.00429
G3 X32.538 Y34.036 I-.265 J2.423 E.03611
G1 X45.894 Y45.32 E.47241
G1 X46.301 Y45.738 E.01577
G1 X46.64 Y46.255 E.0167
G1 X46.872 Y46.827 E.0167
G1 X46.991 Y47.434 E.0167
G1 X46.991 Y48.052 E.0167
G1 X46.872 Y48.658 E.0167
G1 X46.64 Y49.231 E.0167
G1 X46.301 Y49.748 E.0167
G1 X45.894 Y50.166 E.01577
G1 X32.537 Y61.45 E.47242
G1 X32.189 Y61.687 E.0114
G3 X31.764 Y61.861 I-1.043 J-1.94 E.01242
G1 X31.659 Y61.88 E.00289
G1 X31.555 Y61.536 F36000
;TYPE:Outer wall
G1 F6000
G1 X31.285 Y61.578 E.0074
G3 X29.468 Y58.979 I-.133 J-1.841 E.10303
G1 X30.305 Y57.155 E.05424
G1 X31.045 Y55.298 E.05401
G2 X32.256 Y50.97 I-24.64 J-9.23 E.12156
G1 X32.463 Y49.477 E.04074
G1 X32.548 Y47.962 E.04098
G1 X32.499 Y46.451 E.04085
G1 X32.326 Y44.95 E.04083
G1 X32.039 Y43.463 E.04093
G2 X30.321 Y38.373 I-31.775 J7.886 E.14531
G1 X29.467 Y36.505 E.05548
G3 X31.165 Y33.904 I1.668 J-.766 E.10003
G1 X31.286 Y33.901 E.00328
G3 X32.321 Y34.321 I-.224 J2.039 E.03058
G1 X45.65 Y45.582 E.47144
G1 X46.021 Y45.962 E.01437
G1 X46.322 Y46.422 E.01483
G1 X46.529 Y46.93 E.01483
G1 X46.634 Y47.469 E.01483
G1 X46.634 Y48.017 E.01483
G1 X46.529 Y48.556 E.01483
G1 X46.322 Y49.064 E.01483
G1 X46.021 Y49.523 E.01483
G1 X45.65 Y49.904 E.01437
G1 X32.321 Y61.165 E.47145
G3 X31.662 Y61.511 I-1.169 J-1.429 E.02026
G1 X31.594 Y61.527 E.00187
G1 E-.56 F1800
;WIPE_START
G1 F6000
G1 X31.285 Y61.578 E-.07528
G1 X30.902 Y61.574 E-.09202
G1 X30.607 Y61.503 E-.0727
;WIPE_END
G1 Z.6 F36000
G1 X28.083 Y35.599 Z.6
G1 Z.2
G1 E.8 F1800
;TYPE:Inner wall
G1 F6000
G2 X26.049 Y31.655 I-76.127 J36.772 E.11991
G1 X23.457 Y27.043 E.14293
G1 X22.848 Y26.363 E.02467
G1 X22.157 Y25.804 E.02401
G1 X22.417 Y25.697 E.0076
G1 X23.004 Y25.247 E.01998
G1 X23.454 Y24.66 E.01999
G1 X23.668 Y24.143 E.01512
G1 X23.901 Y24.414 E.00965
G3 X24.239 Y24.774 I-1.15 J1.415 E.01339
G3 X24.912 Y25.337 I-2.691 J3.906 E.02374
G2 X34.704 Y29.857 I137.89 J-285.799 E.29141
G1 X37.794 Y31.129 E.09029
G2 X42.534 Y32.763 I22.213 J-56.747 E.13551
G1 X42.529 Y32.932 E.00456
G1 X42.074 Y33.025 E.01252
G1 X41.432 Y33.283 E.01869
G1 X40.848 Y33.649 E.01863
G1 X40.338 Y34.11 E.01858
G1 X39.915 Y34.655 E.01866
G1 X39.598 Y35.262 E.01848
G1 X39.407 Y35.852 E.01676
G1 X39.31 Y36.459 E.01662
G1 X39.311 Y37.075 E.01663
G1 X39.409 Y37.681 E.0166
G1 X39.601 Y38.266 E.01662
G1 X39.882 Y38.813 E.01662
G1 X40.268 Y39.34 E.01767
G1 X40.478 Y39.553 E.00808
G1 X40.339 Y39.692 E.00533
G1 X32.97 Y33.467 E.26065
G1 X32.529 Y33.167 E.01441
G1 X31.966 Y32.936 E.01643
G1 X31.368 Y32.827 E.01643
G1 X30.76 Y32.844 E.01643
G1 X30.169 Y32.986 E.01643
G1 X29.62 Y33.248 E.01643
G1 X29.137 Y33.618 E.01643
G1 X28.741 Y34.079 E.01643
G1 X28.449 Y34.613 E.01643
G1 X28.274 Y35.195 E.01643
G1 X28.243 Y35.568 E.01013
G1 X28.122 Y35.591 E.00331
G1 E-.56 F1800
;WIPE_START
G1 F6000
G1 X27.658 Y34.705 E-.24
;WIPE_END
G1 Z.6 F36000
G1 X30.119 Y62.476 Z.6
G1 Z.2
G1 E.8 F1800
G1 F6000
G1 X30.081 Y62.643 E.00462
G1 X26.676 Y62.643 E.092
G2 X28.083 Y59.887 I-51.777 J-28.165 E.0836
G1 X28.243 Y59.918 E.0044
G1 X28.274 Y60.289 E.01007
G1 X28.449 Y60.872 E.01643
G1 X28.74 Y61.406 E.01643
G1 X29.136 Y61.867 E.01643
G1 X29.619 Y62.237 E.01643
G1 X30.083 Y62.459 E.01389
G1 E-.56 F1800
;WIPE_START
G1 F6000
G1 X30.081 Y62.643 E-.0442
G1 X29.266 Y62.643 E-.1958
;WIPE_END
G1 Z.6 F36000
G1 X27.414 Y63 Z.6
G1 Z.2
G1 E.8 F1800
G1 F6000
