; HEADER_BLOCK_START
; generated by OrcaSlicer 2.3.1 on 2025-12-25 at 00:13:58
; total layer number: 148
; filament_density: 1.04
; filament_diameter: 1.75
; max_z_height: 41.72
; HEADER_BLOCK_END

; THUMBNAIL_BLOCK_START

;
; THUMBNAIL_BLOCK_END

; THUMBNAIL_BLOCK_START

;
; THUMBNAIL_BLOCK_END

; external perimeters extrusion width = 0.40mm
; perimeters extrusion width = 0.40mm
; infill extrusion width = 0.40mm
; solid infill extrusion width = 0.40mm
; top infill extrusion width = 0.40mm
; first layer extrusion width = 0.40mm

; EXECUTABLE_BLOCK_START


; Pre-Processed for Cancel-Object support by preprocess_cancellation v0.2.0
; 1 known objects
EXCLUDE_OBJECT_DEFINE NAME=Body3_stl_id_2305898131799307361_copy_0 CENTER=63.143,65.900 POLYGON=[[11.151,7.585],[11.151,117.981],[103.256,117.981],[103.256,7.585]]
M73 P0 R28
;TYPE:Custom
PRINT_START EXTRUDER_TEMP=250 BED_TEMP=110
G90
G21
M83 ; use relative distances for extrusion
; Filament gcode
SET_PRESSURE_ADVANCE ADVANCE=0.04; Override pressure advance value
M106 S0
;LAYER_CHANGE
;Z:0.28
;HEIGHT:0.28
;BEFORE_LAYER_CHANGE
;0.28
G92 E0

G1 E-.8 F1800
;AFTER_LAYER_CHANGE
;0.28
;_SET_FAN_SPEED_CHANGING_LAYER
SET_VELOCITY_LIMIT ACCEL=10000 ACCEL_TO_DECEL=10000
SET_VELOCITY_LIMIT SQUARE_CORNER_VELOCITY=9
; printing object Body3.stl id:2305898131799307361 copy 0
EXCLUDE_OBJECT_START NAME=Body3_stl_id_2305898131799307361_copy_0
G1 Z.68 F36000
G1 X64.475 Y112.763
G1 Z.68
G1 Z.28
G1 E.8 F1800
;TYPE:Brim
;WIDTH:0.4
G1 F6000
G1 X68.431 Y113.996 E.1492
G1 X68.522 Y113.998 E.00329
G1 X68.622 Y113.974 E.00373
G1 X68.702 Y113.929 E.00329
G1 X71.551 Y111.08 E.14509
G1 X72.073 Y111.76 E.03087
G1 X72.487 Y112.76 E.03899
G1 X72.629 Y113.833 E.03899
G1 X72.487 Y114.907 E.03899
G1 X72.073 Y115.907 E.03899
G1 X71.414 Y116.766 E.03899
G1 X70.555 Y117.425 E.03899
G1 X69.555 Y117.839 E.03899
G1 X68.481 Y117.981 E.03899
G1 X67.408 Y117.839 E.03899
G1 X66.408 Y117.425 E.03899
G1 X65.549 Y116.766 E.03899
G1 X64.889 Y115.907 E.03899
G1 X64.475 Y114.907 E.03899
G1 X64.334 Y113.833 E.03899
G1 X64.47 Y112.803 E.03744
G1 X64.801 Y113.249 F36000
G1 F6000
G1 X64.875 Y113.244 E.00266
G1 X68.323 Y114.318 E.13005
G1 X68.423 Y114.335 E.00367
G1 X68.609 Y114.326 E.00669
G1 X68.794 Y114.266 E.00702
G1 X68.949 Y114.162 E.00671
G1 X71.435 Y111.676 E.12659
G1 X71.529 Y111.649 E.00352
G1 X71.588 Y111.686 E.00252
G1 X71.781 Y111.943 E.01158
G1 X72.158 Y112.862 E.03575
G1 X72.284 Y113.82 E.0348
G1 X72.158 Y114.805 E.03575
G1 X71.768 Y115.746 E.0367
G1 X71.161 Y116.532 E.03575
G1 X70.394 Y117.12 E.0348
G1 X69.453 Y117.51 E.0367
G1 X68.495 Y117.636 E.0348
G1 X67.51 Y117.51 E.03575
G1 X66.568 Y117.12 E.0367
G1 X65.802 Y116.532 E.0348
G1 X65.195 Y115.746 E.03575
G1 X64.805 Y114.805 E.0367
G1 X64.678 Y113.847 E.0348
G1 X64.743 Y113.328 E.01883
G1 X64.777 Y113.281 E.00208
G1 X65.087 Y113.694 F36000
G1 F6000
G1 X65.162 Y113.689 E.00268
G1 X68.214 Y114.64 E.11513
G1 X68.446 Y114.674 E.00845
G1 X68.722 Y114.646 E.00997
G1 X68.992 Y114.542 E.0104
G1 X69.196 Y114.397 E.00903
G1 X71.374 Y112.218 E.11092
G1 X71.468 Y112.191 E.00352
G1 X71.54 Y112.252 E.00341
G1 X71.828 Y112.963 E.02764
G1 X71.94 Y113.808 E.03066
G1 X71.821 Y114.729 E.03346
G1 X71.463 Y115.585 E.03341
G1 X70.908 Y116.297 E.0325
G1 X70.21 Y116.828 E.03159
G1 X69.376 Y117.174 E.03251
G1 X68.507 Y117.292 E.03159
G1 X67.585 Y117.173 E.03346
G1 X66.752 Y116.828 E.03248
G1 X66.054 Y116.297 E.03159
G1 X65.486 Y115.562 E.03346
G1 X65.134 Y114.703 E.03343
G1 X65.023 Y113.859 E.03066
G1 X65.03 Y113.774 E.00306
G1 X65.064 Y113.727 E.00208
G1 X65.456 Y114.186 F36000
G1 F6000
G1 X65.552 Y114.167 E.00353
G1 X68.104 Y114.962 E.09625
G1 X68.489 Y115.011 E.01397
G1 X68.853 Y114.96 E.01324
G1 X69.198 Y114.813 E.01348
G1 X69.441 Y114.632 E.01092
G1 X71.251 Y112.821 E.09218
G1 X71.345 Y112.794 E.00352
G1 X71.418 Y112.855 E.00343
G1 X71.499 Y113.064 E.00804
G1 X71.595 Y113.821 E.0275
G1 X71.492 Y114.627 E.02924
G1 X71.172 Y115.399 E.03011
G1 X70.657 Y116.061 E.03021
G1 X70.027 Y116.536 E.02839
G1 X69.299 Y116.838 E.02838
G1 X68.519 Y116.947 E.02836
G1 X67.687 Y116.844 E.03019
G1 X66.912 Y116.523 E.03019
G1 X66.287 Y116.043 E.02838
G1 X65.792 Y115.401 E.02921
G1 X65.47 Y114.627 E.03019
G1 X65.421 Y114.277 E.01271
G1 X65.442 Y114.224 E.00208
G1 X65.925 Y114.714 F36000
G1 F6000
G1 X66.039 Y114.674 E.00433
G1 X68.071 Y115.3 E.07655
G1 X68.435 Y115.346 E.01323
G1 X68.89 Y115.297 E.01648
G1 X69.323 Y115.129 E.01672
G1 X69.639 Y114.908 E.0139
G1 X71.047 Y113.507 E.07151
G1 X71.141 Y113.479 E.00352
G1 X71.22 Y113.566 E.00423
G1 X71.251 Y113.834 E.00971
G1 X71.162 Y114.525 E.02509
G1 X70.867 Y115.238 E.02778
G1 X70.405 Y115.825 E.0269
G1 X69.845 Y116.244 E.02518
G1 X69.196 Y116.509 E.02525
G1 X68.503 Y116.603 E.02518
G1 X67.788 Y116.514 E.02593
G1 X67.096 Y116.231 E.02692
G1 X66.521 Y115.79 E.0261
G1 X66.096 Y115.24 E.02503
G1 X65.915 Y114.811 E.01678
G1 X65.921 Y114.753 E.00208
G1 X66.647 Y115.319 F36000
G1 F6000
G1 X66.72 Y115.254 E.00352
G1 X66.772 Y115.256 E.00189
G1 X68.036 Y115.638 E.04752
G1 X68.482 Y115.683 E.01616
G1 X68.915 Y115.636 E.01566
G1 X69.437 Y115.448 E.02
G1 X69.828 Y115.19 E.01686
G1 X70.636 Y114.395 E.04083
G1 X70.73 Y114.368 E.00352
G1 X70.804 Y114.433 E.00352
G1 X70.802 Y114.507 E.00265
G1 X70.576 Y115.052 E.02123
G1 X70.174 Y115.569 E.0236
G1 X69.664 Y115.95 E.02292
G1 X69.095 Y116.18 E.02211
G1 X68.488 Y116.258 E.02203
G1 X67.862 Y116.177 E.02272
G1 X67.256 Y115.926 E.02363
G1 X66.774 Y115.555 E.0219
G1 X66.662 Y115.416 E.00643
G1 X66.653 Y115.359 E.00208
G1 E-.56 F1800
;WIPE_START
G1 F6000
G1 X66.72 Y115.254 E-.02978
G1 X66.772 Y115.256 E-.01261
G1 X67.56 Y115.495 E-.19761
;WIPE_END
G1 Z.68 F36000
G1 X44.679 Y60.803 Z.68
G1 Z.28
G1 E.8 F1800
;TYPE:Inner wall
G1 F6000
G1 X45.42 Y60.365 E.03101
G1 X46.344 Y60.096 E.03464
G1 X47.156 Y60.071 E.02925
G1 X47.305 Y60.066 E.00539
G1 X48.244 Y60.276 E.03464
G1 X49.102 Y60.713 E.03464
G1 X49.823 Y61.349 E.03464
G1 X50.364 Y62.144 E.03464
G1 X50.69 Y63.05 E.03464
G1 X50.78 Y64.007 E.03464
G1 X50.63 Y64.958 E.03464
G1 X50.248 Y65.841 E.03464
G1 X49.658 Y66.601 E.03464
G1 X48.898 Y67.19 E.03464
G1 X48.152 Y67.513 E.02925
G1 X48.015 Y67.572 E.00539
G1 X47.065 Y67.723 E.03464
G1 X46.107 Y67.632 E.03464
G1 X45.202 Y67.307 E.03464
G1 X44.406 Y66.766 E.03464
G1 X43.77 Y66.044 E.03464
G1 X43.333 Y65.187 E.03464
G1 X43.123 Y64.248 E.03464
G1 X43.153 Y63.286 E.03464
G1 X43.38 Y62.506 E.02925
G1 X43.422 Y62.363 E.00539
G1 X43.912 Y61.535 E.03464
G1 X44.592 Y60.854 E.03464
G1 X44.644 Y60.823 E.00219
G1 X44.852 Y61.095 F36000
G1 F6000
G1 X45.556 Y60.679 E.02946
G1 X46.397 Y60.435 E.03155
G1 X47.166 Y60.41 E.0277
G1 X47.273 Y60.407 E.00385
G1 X48.128 Y60.598 E.03155
G1 X48.909 Y60.996 E.03155
G1 X49.566 Y61.575 E.03155
G1 X50.059 Y62.3 E.03155
G1 X50.319 Y63.024 E.0277
G1 X50.355 Y63.124 E.00385
G1 X50.438 Y63.997 E.03155
G1 X50.301 Y64.862 E.03155
G1 X49.953 Y65.666 E.03155
G1 X49.416 Y66.358 E.03155
G1 X48.724 Y66.896 E.03155
G1 X48.017 Y67.201 E.0277
G1 X47.919 Y67.243 E.00385
G1 X47.054 Y67.381 E.03155
G1 X46.182 Y67.298 E.03155
G1 X45.357 Y67.001 E.03155
G1 X44.633 Y66.509 E.03155
G1 X44.053 Y65.852 E.03155
G1 X43.655 Y65.071 E.03155
G1 X43.464 Y64.216 E.03155
G1 X43.492 Y63.34 E.03155
G1 X43.707 Y62.601 E.0277
G1 X43.736 Y62.499 E.00385
G1 X44.182 Y61.745 E.03155
G1 X44.802 Y61.125 E.03155
G1 X44.817 Y61.116 E.00065
G1 X45.025 Y61.388 F36000
;TYPE:Outer wall
G1 F6000
G1 X45.692 Y60.993 E.02792
G1 X46.451 Y60.773 E.02846
G1 X47.177 Y60.75 E.02616
G1 X47.241 Y60.748 E.0023
G1 X48.012 Y60.92 E.02846
G1 X48.716 Y61.279 E.02846
G1 X49.309 Y61.802 E.02846
G1 X49.753 Y62.456 E.02846
G1 X49.999 Y63.139 E.02616
G1 X50.021 Y63.199 E.0023
G1 X50.095 Y63.986 E.02846
G1 X49.972 Y64.766 E.02846
G1 X49.658 Y65.492 E.02846
G1 X49.174 Y66.116 E.02846
G1 X48.549 Y66.601 E.02846
G1 X47.882 Y66.889 E.02616
G1 X47.824 Y66.914 E.0023
G1 X47.043 Y67.038 E.02846
G1 X46.256 Y66.964 E.02846
G1 X45.513 Y66.696 E.02846
G1 X44.859 Y66.252 E.02846
G1 X44.337 Y65.659 E.02846
G1 X43.978 Y64.955 E.02846
G1 X43.805 Y64.184 E.02846
G1 X43.83 Y63.394 E.02846
G1 X44.033 Y62.696 E.02616
G1 X44.051 Y62.635 E.0023
G1 X44.453 Y61.955 E.02846
G1 X44.994 Y61.413 E.02756
G1 E-.56 F1800
;WIPE_START
G1 F6000
G1 X45.692 Y60.993 E-.19548
G1 X45.87 Y60.942 E-.04452
;WIPE_END
G1 Z.68 F36000
G1 X48.707 Y100.45 Z.68
G1 Z.28
G1 E.8 F1800
;TYPE:Inner wall
G1 F6000
G1 X47.968 Y100.681 E.02788
G1 X46.996 Y100.74 E.03505
G1 X46.101 Y100.575 E.03279
G1 X35.291 Y97.207 E.4077
G1 X34.504 Y96.859 E.03097
G1 X33.769 Y96.307 E.0331
G1 X33.178 Y95.603 E.0331
G1 X32.762 Y94.783 E.0331
G1 X32.542 Y93.891 E.0331
G1 X32.53 Y92.983 E.0327
G1 X32.725 Y92.075 E.03344
G1 X33.12 Y91.243 E.03316
G1 X33.655 Y90.569 E.03097
G1 X37.418 Y86.806 E.19164
G1 X38.079 Y86.279 E.03045
G1 X38.894 Y85.886 E.03255
G1 X39.775 Y85.685 E.03255
G1 X40.679 Y85.685 E.03255
G1 X41.56 Y85.886 E.03255
G1 X42.374 Y86.279 E.03255
G1 X43.035 Y86.806 E.03045
G1 X50.134 Y93.904 E.36146
G1 X50.695 Y94.621 E.03279
G1 X51.095 Y95.508 E.03505
G1 X51.27 Y96.466 E.03505
G1 X51.211 Y97.437 E.03505
G1 X50.922 Y98.366 E.03505
G1 X50.67 Y98.783 E.01752
G1 X50.418 Y99.199 E.01752
G1 X49.73 Y99.888 E.03505
G1 X48.897 Y100.391 E.03505
G1 X48.745 Y100.439 E.00573
G1 X48.606 Y100.126 F36000
G1 F6000
G1 X47.906 Y100.344 E.02639
G1 X47.017 Y100.398 E.03207
G1 X46.182 Y100.245 E.03056
G1 X35.41 Y96.888 E.40626
G1 X34.677 Y96.564 E.02887
G1 X34.005 Y96.059 E.0303
G1 X33.464 Y95.414 E.0303
G1 X33.083 Y94.664 E.0303
G1 X32.881 Y93.847 E.0303
G1 X32.87 Y93.017 E.02991
G1 X33.049 Y92.185 E.03063
G1 X33.41 Y91.424 E.03034
G1 X33.909 Y90.796 E.02887
G1 X37.645 Y87.06 E.19026
G1 X38.261 Y86.568 E.02838
G1 X39.007 Y86.209 E.02979
G1 X39.813 Y86.025 E.02979
G1 X40.64 Y86.025 E.02979
G1 X41.447 Y86.209 E.02979
G1 X42.192 Y86.568 E.02979
G1 X42.809 Y87.06 E.02838
G1 X49.879 Y94.13 E.36003
G1 X50.402 Y94.798 E.03056
G1 X50.768 Y95.61 E.03207
G1 X50.928 Y96.486 E.03207
G1 X50.874 Y97.376 E.03207
G1 X50.609 Y98.226 E.03207
G1 X50.379 Y98.607 E.01604
G1 X50.149 Y98.988 E.01604
G1 X49.519 Y99.618 E.03207
G1 X48.756 Y100.079 E.03207
G1 X48.644 Y100.114 E.00424
G1 X48.505 Y99.801 F36000
;TYPE:Outer wall
G1 F6000
G1 X47.844 Y100.007 E.02491
G1 X47.038 Y100.056 E.0291
G1 X46.264 Y99.914 E.02833
G1 X35.53 Y96.57 E.40482
G1 X34.85 Y96.269 E.02677
G1 X34.24 Y95.81 E.02749
G1 X33.749 Y95.226 E.02749
G1 X33.403 Y94.545 E.02749
G1 X33.221 Y93.804 E.02749
G1 X33.211 Y93.05 E.02713
G1 X33.373 Y92.295 E.02783
G1 X33.701 Y91.605 E.02751
G1 X34.163 Y91.023 E.02677
G1 X37.872 Y87.314 E.18887
G1 X38.443 Y86.858 E.02632
G1 X39.12 Y86.532 E.02703
G1 X39.851 Y86.365 E.02703
G1 X40.602 Y86.365 E.02703
G1 X41.334 Y86.532 E.02703
G1 X42.01 Y86.858 E.02703
G1 X42.582 Y87.314 E.02632
G1 X49.624 Y94.356 E.35861
G1 X50.109 Y94.975 E.02833
G1 X50.441 Y95.712 E.0291
G1 X50.586 Y96.507 E.0291
G1 X50.538 Y97.314 E.0291
G1 X50.297 Y98.085 E.0291
G1 X50.088 Y98.431 E.01455
G1 X49.879 Y98.777 E.01455
G1 X49.308 Y99.349 E.0291
G1 X48.616 Y99.767 E.0291
G1 X48.543 Y99.789 E.00275
G1 E-.56 F1800
;WIPE_START
G1 F6000
G1 X47.844 Y100.007 E-.17561
G1 X47.577 Y100.023 E-.06439
;WIPE_END
G1 Z.68 F36000
G1 X29.383 Y86.83 Z.68
G1 Z.28
G1 E.8 F1800
;TYPE:Inner wall
G1 F6000
G1 X28.781 Y87.432 E.03066
G1 X27.95 Y87.92 E.0347
G1 X27.025 Y88.185 E.03464
G1 X26.065 Y88.212 E.03457
G1 X25.148 Y88.007 E.03387
G1 X24.271 Y87.56 E.03541
G1 X23.551 Y86.921 E.0347
G1 X23.014 Y86.125 E.03457
G1 X22.696 Y85.241 E.0338
G1 X22.602 Y84.284 E.03464
G1 X22.756 Y83.313 E.0354
G1 X23.129 Y82.45 E.03387
G1 X23.716 Y81.688 E.03464
G1 X24.495 Y81.084 E.03547
G1 X25.379 Y80.705 E.03464
G1 X25.842 Y80.631 E.0169
G1 X26.308 Y80.558 E.01697
G1 X27.285 Y80.65 E.03534
G1 X28.17 Y80.969 E.03387
G1 X28.967 Y81.507 E.03464
G1 X29.619 Y82.246 E.03547
G1 X30.052 Y83.104 E.03464
G1 X30.258 Y84.022 E.03387
G1 X30.227 Y85.005 E.0354
G1 X29.955 Y85.928 E.03464
G1 X29.476 Y86.737 E.03387
G1 X29.411 Y86.802 E.00331
G1 X29.143 Y86.59 F36000
G1 F6000
G1 X28.571 Y87.161 E.02909
G1 X27.815 Y87.605 E.03159
G1 X26.973 Y87.847 E.03154
G1 X26.098 Y87.871 E.0315
G1 X25.264 Y87.684 E.0308
G1 X24.465 Y87.277 E.03229
G1 X23.809 Y86.695 E.03159
G1 X23.319 Y85.97 E.0315
G1 X23.03 Y85.166 E.03075
G1 X22.945 Y84.294 E.03154
G1 X23.085 Y83.409 E.03229
G1 X23.425 Y82.624 E.0308
G1 X23.959 Y81.929 E.03154
G1 X24.669 Y81.379 E.03233
G1 X25.474 Y81.034 E.03154
G1 X25.896 Y80.967 E.01538
G1 X26.319 Y80.9 E.01542
G1 X27.21 Y80.985 E.03225
G1 X28.015 Y81.274 E.0308
G1 X28.741 Y81.764 E.03154
G1 X29.335 Y82.438 E.03233
G1 X29.73 Y83.22 E.03154
G1 X29.916 Y84.054 E.0308
G1 X29.888 Y84.951 E.03229
G1 X29.641 Y85.791 E.03154
G1 X29.206 Y86.527 E.0308
G1 X29.171 Y86.562 E.00176
G1 X28.902 Y86.35 F36000
;TYPE:Outer wall
G1 F6000
G1 X28.362 Y86.89 E.02752
G1 X27.68 Y87.29 E.02847
G1 X26.92 Y87.508 E.02845
G1 X26.131 Y87.53 E.02843
G1 X25.38 Y87.362 E.02773
G1 X24.658 Y86.994 E.02918
G1 X24.066 Y86.469 E.02847
G1 X23.625 Y85.815 E.02843
G1 X23.364 Y85.091 E.0277
G1 X23.287 Y84.304 E.02845
G1 X23.414 Y83.504 E.02918
G1 X23.72 Y82.797 E.02773
G1 X24.202 Y82.171 E.02845
G1 X24.843 Y81.674 E.0292
G1 X25.569 Y81.363 E.02845
G1 X25.949 Y81.303 E.01385
G1 X26.329 Y81.243 E.01387
G1 X27.135 Y81.319 E.02915
G1 X27.86 Y81.58 E.02773
G1 X28.515 Y82.022 E.02845
G1 X29.051 Y82.63 E.0292
G1 X29.407 Y83.335 E.02845
G1 X29.575 Y84.087 E.02773
G1 X29.55 Y84.896 E.02918
G1 X29.327 Y85.654 E.02845
G1 X28.935 Y86.317 E.02773
G1 X28.931 Y86.321 E.00022
G1 E-.56 F1800
;WIPE_START
G1 F6000
G1 X28.362 Y86.89 E-.19302
G1 X28.193 Y86.989 E-.04698
;WIPE_END
G1 Z.68 F36000
G1 X67.202 Y47.196 Z.68
G1 Z.28
G1 E.8 F1800
;TYPE:Inner wall
G1 F6000
G1 X67.078 Y47.2 E.00448
G1 X66.16 Y46.995 E.03387
G1 X65.285 Y46.549 E.03534
G1 X64.58 Y45.927 E.03387
G1 X64.036 Y45.133 E.03464
G1 X63.703 Y44.207 E.03547
G1 X63.615 Y43.249 E.03464
G1 X63.763 Y42.32 E.03387
G1 X64.152 Y41.419 E.03534
G1 X64.729 Y40.676 E.03387
G1 X65.485 Y40.085 E.03457
G1 X66.367 Y39.7 E.03464
G1 X66.842 Y39.623 E.01732
G1 X67.318 Y39.545 E.01738
G1 X68.297 Y39.638 E.0354
G1 X69.182 Y39.957 E.03387
G1 X69.979 Y40.494 E.03464
G1 X70.63 Y41.232 E.0354
G1 X71.057 Y42.07 E.03387
G1 X71.27 Y43.008 E.03464
G1 X71.239 Y43.993 E.03547
G1 X70.967 Y44.915 E.03464
G1 X70.489 Y45.723 E.0338
G1 X69.813 Y46.405 E.03457
G1 X68.985 Y46.898 E.0347
G1 X68.039 Y47.173 E.03547
G1 X67.242 Y47.195 E.02872
G1 X67.192 Y46.857 F36000
G1 F6000
G1 X67.11 Y46.859 E.00295
G1 X66.276 Y46.672 E.0308
G1 X65.478 Y46.266 E.03225
G1 X64.836 Y45.7 E.0308
G1 X64.341 Y44.977 E.03154
G1 X64.037 Y44.132 E.03233
G1 X63.958 Y43.26 E.03154
G1 X64.092 Y42.415 E.0308
G1 X64.447 Y41.593 E.03225
G1 X64.971 Y40.918 E.0308
G1 X65.661 Y40.379 E.0315
G1 X66.464 Y40.028 E.03154
G1 X66.896 Y39.958 E.01577
G1 X67.33 Y39.888 E.01582
G1 X68.222 Y39.972 E.03229
G1 X69.027 Y40.262 E.0308
G1 X69.753 Y40.752 E.03154
G1 X70.346 Y41.425 E.03229
G1 X70.735 Y42.187 E.0308
G1 X70.929 Y43.041 E.03154
G1 X70.901 Y43.938 E.03233
G1 X70.653 Y44.779 E.03154
G1 X70.218 Y45.514 E.03075
G1 X69.602 Y46.135 E.0315
G1 X68.848 Y46.584 E.03159
G1 X67.986 Y46.834 E.03233
G1 X67.232 Y46.855 E.02715
G1 X67.183 Y46.517 F36000
;TYPE:Outer wall
G1 F6000
G1 X67.143 Y46.518 E.00143
G1 X66.392 Y46.35 E.02773
G1 X65.67 Y45.982 E.02915
G1 X65.093 Y45.473 E.02773
G1 X64.646 Y44.821 E.02845
G1 X64.372 Y44.058 E.0292
G1 X64.3 Y43.271 E.02845
G1 X64.421 Y42.511 E.02773
G1 X64.742 Y41.768 E.02915
G1 X65.214 Y41.159 E.02773
G1 X65.836 Y40.673 E.02843
G1 X66.56 Y40.357 E.02845
G1 X66.95 Y40.294 E.01423
G1 X67.341 Y40.23 E.01425
G1 X68.148 Y40.307 E.02918
G1 X68.872 Y40.568 E.02773
G1 X69.527 Y41.009 E.02845
G1 X70.063 Y41.617 E.02918
G1 X70.413 Y42.303 E.02773
G1 X70.588 Y43.074 E.02845
G1 X70.562 Y43.884 E.0292
G1 X70.339 Y44.642 E.02845
G1 X69.947 Y45.304 E.0277
G1 X69.391 Y45.865 E.02843
G1 X68.712 Y46.27 E.02847
G1 X67.933 Y46.496 E.0292
G1 X67.223 Y46.516 E.02559
G1 E-.56 F1800
;WIPE_START
G1 F6000
G1 X67.143 Y46.518 E-.01911
G1 X66.392 Y46.35 E-.18481
G1 X66.258 Y46.282 E-.03609
;WIPE_END
G1 Z.68 F36000
