; HEADER_BLOCK_START
; generated by OrcaSlicer 2.3.2-rc on 2026-03-02 at 23:08:47
; total layer number: 25
; filament_density: 1.04
; filament_diameter: 1.75
; max_z_height: 5.00
; filament: 1
; HEADER_BLOCK_END

; THUMBNAIL_BLOCK_START

;
; THUMBNAIL_BLOCK_END

; THUMBNAIL_BLOCK_START

;
; THUMBNAIL_BLOCK_END

; external perimeters extrusion width = 0.40mm
; perimeters extrusion width = 0.40mm
; infill extrusion width = 0.40mm
; solid infill extrusion width = 0.40mm
; top infill extrusion width = 0.40mm
; first layer extrusion width = 0.40mm

; EXECUTABLE_BLOCK_START


; Pre-Processed for Cancel-Object support by preprocess_cancellation v0.2.0
; 1 known objects
EXCLUDE_OBJECT_DEFINE NAME=Body14_id_87_copy_0 CENTER=57.065,59.603 POLYGON=[[14.207,33.824],[14.207,86.176],[105.793,86.176],[105.793,33.824]]
M73 P0 R11
;TYPE:Custom
PRINT_START EXTRUDER_TEMP=255 BED_TEMP=105
G90
G21
M83 ; use relative distances for extrusion
; Filament gcode
SET_PRESSURE_ADVANCE ADVANCE=0.04; Override pressure advance value
M106 S0
;LAYER_CHANGE
;Z:0.2
;HEIGHT:0.2
;BEFORE_LAYER_CHANGE
;0.2
G92 E0

G1 E-.8 F1800
;AFTER_LAYER_CHANGE
;0.2
;_SET_FAN_SPEED_CHANGING_LAYER
SET_VELOCITY_LIMIT ACCEL=10000 ACCEL_TO_DECEL=10000
SET_VELOCITY_LIMIT SQUARE_CORNER_VELOCITY=9
; printing object Body14 id:87 copy 0
EXCLUDE_OBJECT_START NAME=Body14_id_87_copy_0
G1 Z.6 F36000
G1 X103.247 Y85.538
G1 Z.6
G1 Z.2
G1 E.8 F1800
;TYPE:Outer wall
;WIDTH:0.4
G1 F6000
G1 X102.861 Y85.505 E.01049
G1 X102.409 Y85.322 E.01318
G1 X102.024 Y85.027 E.01309
G1 X101.729 Y84.644 E.01307
G1 X101.544 Y84.197 E.01307
G1 X101.481 Y83.717 E.01307
G1 X101.544 Y83.237 E.01307
G1 X101.729 Y82.791 E.01307
G1 X102.024 Y82.407 E.01307
G1 X102.408 Y82.112 E.01307
G1 X102.854 Y81.927 E.01307
G1 X103.275 Y81.872 E.01147
G1 X103.334 Y81.864 E.0016
G1 X103.814 Y81.927 E.01307
G1 X104.261 Y82.112 E.01307
G1 X104.644 Y82.407 E.01307
G1 X104.939 Y82.792 E.01309
G1 X105.122 Y83.244 E.01317
G1 X105.164 Y83.733 E.01328
G1 X105.045 Y84.205 E.01315
G3 X104.537 Y84.92 I-3.269 J-1.784 E.02374
G3 X103.822 Y85.428 I-2.499 J-2.76 E.02374
G1 X103.35 Y85.547 E.01315
G1 X103.287 Y85.542 E.00172
G1 E-.56 F1800
;WIPE_START
G1 F6000
G1 X102.861 Y85.505 E-.10275
G1 X102.409 Y85.322 E-.11703
G1 X102.342 Y85.271 E-.02022
;WIPE_END
G1 Z.6 F36000
G1 X101.693 Y38.69 Z.6
G1 Z.2
G1 E.8 F1800
;TYPE:Inner wall
G1 F6000
G1 X101.867 Y38.823 E.00593
G1 X102.575 Y39.116 E.02069
G1 X103.334 Y39.216 E.02069
G1 X104.093 Y39.116 E.02069
G1 X104.572 Y38.918 E.01399
G1 X104.572 Y81.082 E1.13922
G1 X104.093 Y80.884 E.014
G1 X103.334 Y80.784 E.02069
G1 X102.575 Y80.884 E.02069
G1 X101.867 Y81.177 E.02069
G1 X101.26 Y81.643 E.02069
G1 X100.794 Y82.25 E.02069
G1 X100.501 Y82.958 E.02069
G1 X100.401 Y83.717 E.02069
G1 X100.501 Y84.476 E.02069
G1 X100.699 Y84.955 E.01399
G1 X19.301 Y84.955 E2.19928
G1 X19.499 Y84.476 E.01399
G1 X19.599 Y83.717 E.02069
G1 X19.499 Y82.958 E.02069
G1 X19.206 Y82.25 E.02069
G1 X18.74 Y81.643 E.02069
G1 X18.133 Y81.177 E.02069
G1 X17.425 Y80.884 E.02069
G1 X16.666 Y80.784 E.02069
G1 X15.907 Y80.884 E.02069
G1 X15.428 Y81.082 E.01399
G1 X15.428 Y38.918 E1.13922
G1 X15.907 Y39.116 E.014
G1 X16.666 Y39.216 E.02069
G1 X17.425 Y39.116 E.02069
G1 X18.133 Y38.823 E.02069
G1 X18.74 Y38.357 E.02069
G1 X19.206 Y37.75 E.02069
G1 X19.499 Y37.042 E.02069
G1 X19.599 Y36.283 E.02069
G1 X19.499 Y35.524 E.02069
G1 X19.301 Y35.045 E.01399
G1 X100.699 Y35.045 E2.19928
G1 X100.501 Y35.524 E.01399
G1 X100.401 Y36.283 E.02069
G1 X100.501 Y37.042 E.02069
G1 X100.794 Y37.75 E.02069
G1 X101.26 Y38.357 E.02069
G1 X101.662 Y38.666 E.01369
G1 X101.911 Y38.407 F36000
G1 F6000
G1 X102.047 Y38.511 E.00465
G1 X102.668 Y38.769 E.01815
G1 X103.334 Y38.856 E.01815
G1 X104 Y38.769 E.01815
G1 X104.621 Y38.511 E.01815
G1 X104.929 Y38.275 E.01049
G1 X104.929 Y81.725 E1.17398
G1 X104.621 Y81.489 E.0105
G1 X104 Y81.231 E.01815
G1 X103.334 Y81.144 E.01815
G1 X102.668 Y81.231 E.01815
G1 X102.047 Y81.489 E.01815
G1 X101.514 Y81.897 E.01815
G1 X101.105 Y82.43 E.01815
G1 X100.848 Y83.051 E.01815
G1 X100.761 Y83.717 E.01815
G1 X100.848 Y84.383 E.01815
G1 X101.106 Y85.004 E.01815
G1 X101.342 Y85.312 E.01049
G1 X18.658 Y85.312 E2.23404
G1 X18.894 Y85.004 E.01049
G1 X19.152 Y84.383 E.01815
G1 X19.239 Y83.717 E.01815
G1 X19.152 Y83.051 E.01815
G1 X18.895 Y82.43 E.01815
G1 X18.486 Y81.897 E.01815
G1 X17.953 Y81.489 E.01815
G1 X17.332 Y81.231 E.01815
G1 X16.666 Y81.144 E.01815
G1 X16 Y81.231 E.01815
G1 X15.379 Y81.489 E.01815
G1 X15.071 Y81.725 E.01049
G1 X15.071 Y38.275 E1.17398
G1 X15.379 Y38.511 E.0105
G1 X16 Y38.769 E.01815
G1 X16.666 Y38.856 E.01815
G1 X17.332 Y38.769 E.01815
G1 X17.953 Y38.511 E.01815
G1 X18.486 Y38.103 E.01815
G1 X18.895 Y37.57 E.01815
G1 X19.152 Y36.949 E.01815
G1 X19.239 Y36.283 E.01815
G1 X19.152 Y35.617 E.01815
G1 X18.894 Y34.996 E.01815
G1 X18.658 Y34.688 E.01049
G1 X101.342 Y34.688 E2.23404
G1 X101.106 Y34.996 E.01049
G1 X100.848 Y35.617 E.01815
G1 X100.761 Y36.283 E.01815
G1 X100.848 Y36.949 E.01815
G1 X101.106 Y37.57 E.01815
G1 X101.514 Y38.103 E.01815
G1 X101.879 Y38.382 E.01241
G1 X102.128 Y38.123 F36000
M73 P1 R11
G1 F6000
G1 X102.227 Y38.2 E.00338
G1 X102.761 Y38.421 E.01561
G1 X103.334 Y38.496 E.01561
G1 X103.907 Y38.421 E.01561
G1 X104.441 Y38.2 E.01561
G1 X104.899 Y37.848 E.01562
G1 X105.14 Y37.533 E.01072
G1 X105.286 Y37.582 E.00415
G1 X105.286 Y82.418 E1.21143
G1 X105.141 Y82.467 E.00415
G1 X104.899 Y82.152 E.01072
G1 X104.441 Y81.8 E.01562
G1 X103.907 Y81.579 E.01561
G1 X103.334 Y81.504 E.01561
G1 X102.761 Y81.579 E.01561
G1 X102.227 Y81.8 E.01561
G1 X101.769 Y82.152 E.01561
G1 X101.417 Y82.61 E.01561
G1 X101.196 Y83.144 E.01561
G1 X101.121 Y83.717 E.01561
G1 X101.196 Y84.29 E.01561
G1 X101.417 Y84.824 E.01561
G1 X101.769 Y85.282 E.01562
G1 X102.084 Y85.523 E.01072
G1 X102.035 Y85.669 E.00415
G1 X17.965 Y85.669 E2.27149
G1 X17.916 Y85.523 E.00415
G1 X18.231 Y85.282 E.01072
G1 X18.583 Y84.824 E.01562
G1 X18.804 Y84.29 E.01561
G1 X18.879 Y83.717 E.01561
G1 X18.804 Y83.144 E.01561
G1 X18.583 Y82.61 E.01561
G1 X18.231 Y82.152 E.01561
G1 X17.773 Y81.8 E.01561
G1 X17.239 Y81.579 E.01561
G1 X16.666 Y81.504 E.01561
G1 X16.093 Y81.579 E.01561
G1 X15.559 Y81.8 E.01561
G1 X15.101 Y82.152 E.01562
G1 X14.86 Y82.467 E.01072
G1 X14.714 Y82.418 E.00415
G1 X14.714 Y37.582 E1.21143
G1 X14.859 Y37.533 E.00415
G1 X15.101 Y37.848 E.01072
G1 X15.559 Y38.2 E.01562
G1 X16.093 Y38.421 E.01561
G1 X16.666 Y38.496 E.01561
G1 X17.239 Y38.421 E.01561
G1 X17.773 Y38.2 E.01561
G1 X18.231 Y37.848 E.01561
G1 X18.583 Y37.39 E.01561
G1 X18.804 Y36.856 E.01561
G1 X18.879 Y36.283 E.01561
G1 X18.804 Y35.71 E.01561
G1 X18.583 Y35.176 E.01561
G1 X18.231 Y34.718 E.01562
G1 X17.916 Y34.477 E.01072
G1 X17.965 Y34.331 E.00415
G1 X102.035 Y34.331 E2.27149
G1 X102.084 Y34.477 E.00415
G1 X101.769 Y34.718 E.01072
G1 X101.417 Y35.176 E.01562
G1 X101.196 Y35.71 E.01561
G1 X101.121 Y36.283 E.01561
G1 X101.196 Y36.856 E.01561
G1 X101.417 Y37.39 E.01561
G1 X101.769 Y37.848 E.01561
G1 X102.096 Y38.099 E.01114
G1 X102.345 Y37.84 F36000
;TYPE:Outer wall
G1 F6000
G1 X102.024 Y37.593 E.01096
G1 X101.729 Y37.209 E.01307
G1 X101.544 Y36.763 E.01307
G1 X101.481 Y36.283 E.01307
G1 X101.544 Y35.803 E.01307
G1 X101.729 Y35.356 E.01307
G1 X102.024 Y34.973 E.01307
G1 X102.409 Y34.678 E.01309
G1 X102.861 Y34.495 E.01318
G1 X103.285 Y34.459 E.01152
G1 X103.349 Y34.452 E.00171
G1 X103.822 Y34.572 E.0132
G3 X104.537 Y35.08 I-1.784 J3.269 E.02374
G3 X105.045 Y35.795 I-2.761 J2.499 E.02374
G1 X105.164 Y36.267 E.01315
G1 X105.122 Y36.756 E.01328
G1 X104.939 Y37.208 E.01318
G1 X104.644 Y37.593 E.01309
G1 X104.261 Y37.888 E.01307
G1 X103.814 Y38.073 E.01307
G1 X103.334 Y38.136 E.01307
G1 X102.854 Y38.073 E.01307
G1 X102.408 Y37.888 E.01307
G1 X102.377 Y37.864 E.00103
G1 E-.56 F1800
;WIPE_START
G1 F6000
G1 X102.024 Y37.593 E-.10691
G1 X101.729 Y37.209 E-.1161
G1 X101.702 Y37.144 E-.01699
;WIPE_END
G1 Z.6 F36000
G1 X18.458 Y35.818 Z.6
G1 Z.2
G1 E.8 F1800
G1 F6000
G1 X18.519 Y36.283 E.01267
G1 X18.456 Y36.763 E.01307
G1 X18.271 Y37.209 E.01307
G1 X17.976 Y37.593 E.01307
G1 X17.592 Y37.888 E.01307
G1 X17.146 Y38.073 E.01307
G1 X16.666 Y38.136 E.01307
G1 X16.186 Y38.073 E.01307
G1 X15.739 Y37.888 E.01307
G1 X15.356 Y37.593 E.01307
G1 X15.061 Y37.208 E.01309
G1 X14.878 Y36.756 E.01317
G1 X14.836 Y36.267 E.01328
G1 X14.955 Y35.795 E.01315
G3 X15.463 Y35.08 I3.269 J1.784 E.02374
G3 X16.177 Y34.573 I2.497 J2.759 E.02373
G1 X16.595 Y34.464 E.01168
G1 X16.659 Y34.454 E.00173
G1 X17.139 Y34.495 E.01304
G1 X17.592 Y34.678 E.01318
G1 X17.976 Y34.973 E.01309
G1 X18.271 Y35.356 E.01307
G1 X18.446 Y35.78 E.01239
G1 E-.56 F1800
;WIPE_START
G1 F6000
G1 X18.519 Y36.283 E-.12192
G1 X18.456 Y36.763 E-.1161
G1 X18.453 Y36.77 E-.00199
;WIPE_END
G1 Z.6 F36000
G1 X14.885 Y83.228 Z.6
G1 Z.2
G1 E.8 F1800
G1 F6000
G1 X15.061 Y82.792 E.01271
G1 X15.356 Y82.407 E.01309
G1 X15.739 Y82.112 E.01307
G1 X16.186 Y81.927 E.01307
G1 X16.607 Y81.872 E.01147
G1 X16.666 Y81.864 E.0016
G1 X17.146 Y81.927 E.01307
G1 X17.592 Y82.112 E.01307
G1 X17.976 Y82.407 E.01307
G1 X18.271 Y82.791 E.01307
G1 X18.456 Y83.237 E.01307
G1 X18.519 Y83.717 E.01307
G1 X18.456 Y84.197 E.01307
G1 X18.271 Y84.644 E.01307
G1 X17.976 Y85.027 E.01307
G1 X17.591 Y85.322 E.01309
G1 X17.139 Y85.505 E.01318
G1 X16.65 Y85.547 E.01328
G1 X16.178 Y85.428 E.01315
G3 X15.463 Y84.92 I1.784 J-3.268 E.02374
G3 X14.955 Y84.205 I2.761 J-2.499 E.02374
G1 X14.836 Y83.733 E.01315
G1 X14.876 Y83.266 E.01267
G1 E-.56 F1800
;WIPE_START
G1 F6000
G1 X15.061 Y82.792 E-.12224
G1 X15.356 Y82.407 E-.11629
G1 X15.36 Y82.403 E-.00146
;WIPE_END
G1 Z.6 F36000
G1 X103.706 Y33.96 Z.6
G1 Z.2
G1 E.8 F1800
G1 F6000
G1 X103.985 Y34.193 E.00982
G3 X105.359 Y35.552 I-2.966 J4.372 E.05251
G1 X105.655 Y35.913 E.0126
G2 X105.643 Y37.293 I29.853 J.946 E.03729
G1 X105.643 Y83.207 E1.24056
G2 X105.654 Y84.087 I21.382 J.169 E.02378
G3 X104.916 Y84.999 I-33.353 J-26.244 E.03172
G3 X103.939 Y85.84 I-4.721 J-4.497 E.03488
G1 X103.704 Y86.037 E.0083
G2 X102.328 Y86.026 I-.939 J30.668 E.03718
G1 X17.672 Y86.026 E2.28731
G2 X16.296 Y86.037 I-.437 J30.676 E.03718
G3 X15.384 Y85.299 I26.238 J-33.345 E.03172
G3 X14.543 Y84.322 I4.497 J-4.721 E.03488
G1 X14.346 Y84.087 E.0083
G2 X14.357 Y82.707 I-30.806 J-.941 E.03727
G1 X14.357 Y36.793 E1.24056
G2 X14.346 Y35.913 I-21.382 J-.169 E.02378
G3 X15.084 Y35.001 I33.349 J26.241 E.03172
G3 X16.061 Y34.16 I4.721 J4.497 E.03488
G1 X16.296 Y33.963 E.0083
G2 X17.672 Y33.974 I.939 J-30.665 E.03718
G1 X102.328 Y33.974 E2.28731
G2 X103.666 Y33.962 I.434 J-25.287 E.03616
M73 P2 R11
G1 X103.579 Y34.233 F36000
;TYPE:Gap infill
;WIDTH:0.186467
G1 F6000
G2 X102.811 Y34.235 I-.374 J2.936 E.00836
;WIDTH:0.214677
G1 X102.786 Y34.239 E.00033
;WIDTH:0.236757
G1 X102.647 Y34.266 E.00208
;WIDTH:0.274939
G1 X102.508 Y34.293 E.00249
;WIDTH:0.313122
G1 X102.368 Y34.32 E.0029
;WIDTH:0.332213
G1 X102.229 Y34.347 E.00311
G1 E-.75743 F1800
;WIPE_START
G1 F6000
G1 X102.368 Y34.32 E-.04257
;WIPE_END
G1 Z.6 F36000
G1 X103.579 Y34.233 Z.6
G1 Z.2
G1 E.8 F1800
;WIDTH:0.216428
G1 F6000
G1 X103.78 Y34.255 E.00267
G1 E-.73908 F1800
;WIPE_START
G1 F6000
G1 X103.579 Y34.233 E-.06092
;WIPE_END
G1 Z.6 F36000
G1 X105.361 Y35.836 Z.6
G1 Z.2
G1 E.8 F1800
;WIDTH:0.215283
G1 F6000
G1 X105.383 Y36.036 E.00263
;WIDTH:0.186644
G3 X105.381 Y36.806 I-2.996 J.378 E.00839
;WIDTH:0.214568
G1 X105.378 Y36.831 E.00033
;WIDTH:0.236663
G1 X105.351 Y36.97 E.00208
;WIDTH:0.274854
G1 X105.324 Y37.11 E.00249
;WIDTH:0.313046
G1 X105.297 Y37.249 E.0029
;WIDTH:0.332142
G1 X105.27 Y37.388 E.0031
G1 E-.75745 F1800
;WIPE_START
G1 F6000
G1 X105.297 Y37.249 E-.04255
;WIPE_END
G1 Z.6 F36000
G1 X100.472 Y35.313 Z.6
G1 Z.2
G1 E.8 F1800
;TYPE:Bottom surface
;WIDTH:0.400696
G1 F12600
G1 X19.702 Y35.313 E2.18657
G3 X19.789 Y35.671 I-.624 J.341 E.01008
G1 X100.211 Y35.671 E2.17717
G1 X100.164 Y36.029 E.00977
G1 X19.836 Y36.029 E2.17461
G3 X19.856 Y36.387 I-.658 J.216 E.00981
G1 X100.144 Y36.387 E2.17355
G1 X100.191 Y36.745 E.00977
G1 X19.809 Y36.745 E2.1761
G1 X19.762 Y37.102 E.00977
G1 X100.238 Y37.102 E2.17865
G1 X100.384 Y37.46 E.01046
G1 X19.616 Y37.46 E2.18652
G1 X19.468 Y37.818 E.01048
G1 X100.532 Y37.818 E2.19454
G1 X100.56 Y37.885 E.00196
G1 X100.783 Y38.176 E.00993
G1 X19.217 Y38.176 E2.20813
G1 X18.943 Y38.533 E.01221
G1 X101.057 Y38.533 E2.22299
G1 X101.516 Y38.891 E.01574
G1 X18.484 Y38.891 E2.24781
G1 X18.268 Y39.057 E.00739
G1 X17.805 Y39.249 E.01356
G1 X102.195 Y39.249 E2.28458
G1 X102.505 Y39.377 E.00908
G1 X103.334 Y39.487 E.02264
G1 X104.163 Y39.377 E.02264
G1 X104.304 Y39.319 E.00412
G1 X104.304 Y39.607 E.00779
G1 X15.696 Y39.607 E2.39878
G1 X15.696 Y39.965 E.00969
G1 X104.304 Y39.965 E2.39878
M73 P3 R11
G1 X104.304 Y40.322 E.00969
G1 X15.696 Y40.322 E2.39878
G1 X15.696 Y40.68 E.00969
G1 X104.304 Y40.68 E2.39878
G1 X104.304 Y41.038 E.00969
G1 X15.696 Y41.038 E2.39878
G1 X15.696 Y41.396 E.00969
G1 X104.304 Y41.396 E2.39878
G1 X104.304 Y41.753 E.00969
G1 X15.696 Y41.753 E2.39878
G1 X15.696 Y42.111 E.00969
G1 X104.304 Y42.111 E2.39878
G1 X104.304 Y42.469 E.00969
G1 X15.696 Y42.469 E2.39878
G1 X15.696 Y42.827 E.00969
G1 X104.304 Y42.827 E2.39878
G1 X104.304 Y43.185 E.00969
G1 X15.696 Y43.185 E2.39878
G1 X15.696 Y43.542 E.00969
G1 X104.304 Y43.542 E2.39878
G1 X104.304 Y43.9 E.00969
G1 X15.696 Y43.9 E2.39878
G1 X15.696 Y44.258 E.00969
G1 X104.304 Y44.258 E2.39878
G1 X104.304 Y44.616 E.00969
G1 X15.696 Y44.616 E2.39878
G1 X15.696 Y44.973 E.00969
G1 X104.304 Y44.973 E2.39878
G1 X104.304 Y45.331 E.00969
G1 X15.696 Y45.331 E2.39878
G1 X15.696 Y45.689 E.00969
M73 P4 R11
G1 X104.304 Y45.689 E2.39878
G1 X104.304 Y46.047 E.00969
G1 X15.696 Y46.047 E2.39878
G1 X15.696 Y46.405 E.00969
G1 X104.304 Y46.405 E2.39878
G1 X104.304 Y46.762 E.00969
G1 X15.696 Y46.762 E2.39878
G1 X15.696 Y47.12 E.00969
G1 X104.304 Y47.12 E2.39878
G1 X104.304 Y47.478 E.00969
G1 X15.696 Y47.478 E2.39878
G1 X15.696 Y47.836 E.00969
G1 X104.304 Y47.836 E2.39878
G1 X104.304 Y48.193 E.00969
G1 X15.696 Y48.193 E2.39878
G1 X15.696 Y48.551 E.00969
G1 X104.304 Y48.551 E2.39878
G1 X104.304 Y48.909 E.00969
G1 X15.696 Y48.909 E2.39878
G1 X15.696 Y49.267 E.00969
G1 X104.304 Y49.267 E2.39878
G1 X104.304 Y49.624 E.00969
G1 X15.696 Y49.624 E2.39878
G1 X15.696 Y49.982 E.00969
G1 X104.304 Y49.982 E2.39878
G1 X104.304 Y50.34 E.00969
G1 X15.696 Y50.34 E2.39878
G1 X15.696 Y50.698 E.00969
G1 X104.304 Y50.698 E2.39878
G1 X104.304 Y51.056 E.00969
G1 X15.696 Y51.056 E2.39878
G1 X15.696 Y51.413 E.00969
M73 P5 R11
G1 X104.304 Y51.413 E2.39878
G1 X104.304 Y51.771 E.00969
G1 X15.696 Y51.771 E2.39878
G1 X15.696 Y52.129 E.00969
G1 X104.304 Y52.129 E2.39878
G1 X104.304 Y52.487 E.00969
G1 X15.696 Y52.487 E2.39878
G1 X15.696 Y52.844 E.00969
G1 X104.304 Y52.844 E2.39878
G1 X104.304 Y53.202 E.00969
G1 X15.696 Y53.202 E2.39878
G1 X15.696 Y53.56 E.00969
G1 X104.304 Y53.56 E2.39878
G1 X104.304 Y53.918 E.00969
G1 X15.696 Y53.918 E2.39878
G1 X15.696 Y54.276 E.00969
G1 X104.304 Y54.276 E2.39878
G1 X104.304 Y54.633 E.00969
G1 X15.696 Y54.633 E2.39878
G1 X15.696 Y54.991 E.00969
G1 X104.304 Y54.991 E2.39878
G1 X104.304 Y55.349 E.00969
G1 X15.696 Y55.349 E2.39878
G1 X15.696 Y55.707 E.00969
G1 X104.304 Y55.707 E2.39878
G1 X104.304 Y56.064 E.00969
G1 X15.696 Y56.064 E2.39878
G1 X15.696 Y56.422 E.00969
G1 X104.304 Y56.422 E2.39878
G1 X104.304 Y56.78 E.00969
M73 P6 R11
G1 X15.696 Y56.78 E2.39878
G1 X15.696 Y57.138 E.00969
M73 P6 R10
G1 X104.304 Y57.138 E2.39878
G1 X104.304 Y57.496 E.00969
G1 X15.696 Y57.496 E2.39878
G1 X15.696 Y57.853 E.00969
G1 X104.304 Y57.853 E2.39878
G1 X104.304 Y58.211 E.00969
G1 X15.696 Y58.211 E2.39878
G1 X15.696 Y58.569 E.00969
G1 X104.304 Y58.569 E2.39878
G1 X104.304 Y58.927 E.00969
G1 X15.696 Y58.927 E2.39878
G1 X15.696 Y59.284 E.00969
G1 X104.304 Y59.284 E2.39878
G1 X104.304 Y59.642 E.00969
G1 X15.696 Y59.642 E2.39878
G1 X15.696 Y60 E.00969
G1 X104.304 Y60 E2.39878
G1 X104.304 Y60.358 E.00969
G1 X15.696 Y60.358 E2.39878
G1 X15.696 Y60.716 E.00969
G1 X104.304 Y60.716 E2.39878
G1 X104.304 Y61.073 E.00969
G1 X15.696 Y61.073 E2.39878
G1 X15.696 Y61.431 E.00969
