; HEADER_BLOCK_START
; generated by OrcaSlicer 2.3.1 on 2025-12-25 at 10:19:18
; total layer number: 208
; filament_density: 1.04
; filament_diameter: 1.75
; max_z_height: 41.60
; HEADER_BLOCK_END

; THUMBNAIL_BLOCK_START

;
; THUMBNAIL_BLOCK_END

; THUMBNAIL_BLOCK_START

;
; THUMBNAIL_BLOCK_END

; external perimeters extrusion width = 0.40mm
; perimeters extrusion width = 0.40mm
; infill extrusion width = 0.40mm
; solid infill extrusion width = 0.40mm
; top infill extrusion width = 0.40mm
; first layer extrusion width = 0.40mm

; EXECUTABLE_BLOCK_START


; Pre-Processed for Cancel-Object support by preprocess_cancellation v0.2.0
; 1 known objects
EXCLUDE_OBJECT_DEFINE NAME=Body3_stl_id_4135539429406552369_copy_0 CENTER=65.894,65.065 POLYGON=[[6.709,13.784],[6.709,110.863],[113.331,110.863],[113.331,13.784]]
M73 P0 R31
;TYPE:Custom
PRINT_START EXTRUDER_TEMP=250 BED_TEMP=110
G90
G21
M83 ; use relative distances for extrusion
; Filament gcode
SET_PRESSURE_ADVANCE ADVANCE=0.04; Override pressure advance value
M106 S0
;LAYER_CHANGE
;Z:0.2
;HEIGHT:0.2
;BEFORE_LAYER_CHANGE
;0.2
G92 E0

G1 E-.8 F1800
;AFTER_LAYER_CHANGE
;0.2
;_SET_FAN_SPEED_CHANGING_LAYER
SET_VELOCITY_LIMIT ACCEL=10000 ACCEL_TO_DECEL=10000
SET_VELOCITY_LIMIT SQUARE_CORNER_VELOCITY=9
; printing object Body3.stl id:4135539429406552369 copy 0
EXCLUDE_OBJECT_START NAME=Body3_stl_id_4135539429406552369_copy_0
G1 Z.6 F36000
G1 X9.942 Y29.281
G1 Z.6
G1 Z.2
G1 E.8 F1800
;TYPE:Brim
;WIDTH:0.4
G1 F6000
G1 X11.071 Y29.132 E.03077
G1 X12.2 Y29.281 E.03077
G1 X13.252 Y29.717 E.03077
G1 X14.155 Y30.41 E.03077
G1 X14.848 Y31.313 E.03077
G1 X14.88 Y31.39 E.00224
G1 X10.991 Y33.335 E.11749
G1 X10.919 Y33.4 E.00264
G1 X10.864 Y33.49 E.00284
G1 X10.837 Y33.584 E.00264
G1 X10.837 Y37.826 E.11461
G1 X9.942 Y37.708 E.0244
G1 X8.89 Y37.272 E.03077
G1 X7.986 Y36.579 E.03077
G1 X7.293 Y35.675 E.03077
G1 X6.857 Y34.623 E.03077
G1 X6.709 Y33.494 E.03077
G1 X6.857 Y32.365 E.03077
G1 X7.293 Y31.313 E.03077
G1 X7.986 Y30.41 E.03077
G1 X8.89 Y29.717 E.03077
G1 X9.905 Y29.296 E.02969
G1 X10.043 Y29.63 F36000
G1 F6000
G1 X10.049 Y29.627 E.00018
G1 X11.057 Y29.494 E.02746
G1 X12.093 Y29.627 E.02821
G1 X13.083 Y30.037 E.02896
G1 X13.909 Y30.676 E.02821
G1 X14.274 Y31.151 E.0162
G1 X14.291 Y31.25 E.00271
G1 X14.237 Y31.312 E.00222
G1 X10.841 Y33.011 E.10259
G1 X10.681 Y33.135 E.00548
G1 X10.614 Y33.216 E.00283
G1 X10.519 Y33.399 E.00557
G1 X10.48 Y33.594 E.00539
G1 X10.48 Y37.296 E.10002
G1 X10.433 Y37.385 E.00271
G1 X10.359 Y37.402 E.00206
G1 X10.049 Y37.362 E.00844
G1 X9.059 Y36.951 E.02896
G1 X8.252 Y36.333 E.02746
G1 X7.614 Y35.506 E.02821
G1 X7.204 Y34.516 E.02896
G1 X7.071 Y33.508 E.02746
G1 X7.204 Y32.473 E.02821
G1 X7.614 Y31.482 E.02896
G1 X8.233 Y30.676 E.02746
G1 X9.059 Y30.037 E.02821
G1 X10.006 Y29.645 E.0277
G1 X10.144 Y29.978 F36000
G1 F6000
G1 X10.156 Y29.973 E.00036
G1 X11.071 Y29.856 E.02492
G1 X11.986 Y29.973 E.02491
G1 X12.913 Y30.358 E.02713
G1 X13.643 Y30.922 E.02491
G1 X13.727 Y31.026 E.00362
G1 X13.744 Y31.125 E.00271
G1 X13.69 Y31.187 E.00222
G1 X10.689 Y32.687 E.09066
G1 X10.469 Y32.848 E.00735
G1 X10.293 Y33.06 E.00745
G1 X10.167 Y33.339 E.00827
G1 X10.123 Y33.603 E.00725
G1 X10.123 Y36.845 E.08759
G1 X10.076 Y36.934 E.00271
G1 X9.975 Y36.944 E.00274
G1 X9.228 Y36.631 E.02189
G1 X8.517 Y36.086 E.02418
G1 X7.92 Y35.313 E.02641
G1 X7.557 Y34.436 E.02564
G1 X7.433 Y33.522 E.02493
G1 X7.557 Y32.552 E.02641
G1 X7.934 Y31.651 E.02639
G1 X8.499 Y30.922 E.02492
G1 X9.228 Y30.358 E.02491
G1 X10.107 Y29.993 E.02571
G1 X10.236 Y30.327 F36000
G1 F6000
G1 X11.085 Y30.218 E.02313
G1 X11.906 Y30.327 E.02239
G1 X12.72 Y30.664 E.02379
G1 X13.067 Y30.927 E.01177
G1 X13.108 Y31.019 E.00271
G1 X13.049 Y31.108 E.00289
G1 X10.537 Y32.364 E.0759
G1 X10.267 Y32.553 E.00889
G1 X10.026 Y32.824 E.0098
G1 X9.844 Y33.188 E.01099
G1 X9.766 Y33.611 E.01164
G1 X9.766 Y36.308 E.07287
G1 X9.719 Y36.397 E.00271
G1 X9.617 Y36.407 E.00276
G1 X9.397 Y36.311 E.00648
G1 X8.783 Y35.839 E.02093
G1 X8.226 Y35.119 E.02461
G1 X7.91 Y34.355 E.02234
G1 X7.795 Y33.534 E.02239
G1 X7.903 Y32.66 E.02381
G1 X8.254 Y31.821 E.02456
G1 X8.745 Y31.187 E.02167
G1 X9.397 Y30.678 E.02236
G1 X10.199 Y30.342 E.02347
G1 X10.316 Y30.68 F36000
G1 F6000
G1 X11.098 Y30.58 E.02131
G1 X11.826 Y30.68 E.01986
G1 X12.309 Y30.88 E.01413
G1 X12.373 Y30.958 E.00271
G1 X12.316 Y31.075 E.00352
G1 X10.326 Y32.076 E.06019
G1 X9.995 Y32.322 E.01115
G1 X9.7 Y32.676 E.01243
G1 X9.492 Y33.13 E.01351
G1 X9.416 Y33.537 E.01117
G1 X9.409 Y35.653 E.05717
G1 X9.361 Y35.741 E.00271
G1 X9.236 Y35.737 E.00338
G1 X9.028 Y35.573 E.00715
G1 X8.547 Y34.949 E.0213
G1 X8.262 Y34.273 E.01983
G1 X8.157 Y33.517 E.02061
G1 X8.257 Y32.739 E.02121
G1 X8.574 Y31.991 E.02193
G1 X9.01 Y31.433 E.01915
G1 X9.568 Y30.998 E.01911
G1 X10.279 Y30.696 E.02086
G1 X10.418 Y31.029 F36000
G1 F6000
G1 X10.424 Y31.026 E.00019
G1 X11.11 Y30.942 E.01867
G1 X11.299 Y30.968 E.00516
G1 X11.381 Y31.027 E.00271
G1 X11.378 Y31.127 E.00271
G1 X11.333 Y31.17 E.00166
G1 X10.107 Y31.794 E.03719
G1 X9.714 Y32.102 E.01349
G1 X9.373 Y32.533 E.01484
G1 X9.172 Y32.97 E.013
G1 X9.067 Y33.464 E.01364
G1 X9.055 Y34.707 E.03359
G1 X9.007 Y34.796 E.00271
G1 X8.907 Y34.805 E.00271
G1 X8.849 Y34.748 E.00221
G1 X8.615 Y34.19 E.01634
G1 X8.519 Y33.53 E.01803
G1 X8.603 Y32.848 E.01857
G1 X8.879 Y32.187 E.01934
G1 X9.256 Y31.698 E.0167
G1 X9.764 Y31.303 E.01737
G1 X10.381 Y31.045 E.01808
G1 E-.56 F1800
;WIPE_START
G1 F6000
G1 X10.424 Y31.026 E-.01129
G1 X11.11 Y30.942 E-.16583
G1 X11.299 Y30.968 E-.0458
G1 X11.357 Y31.01 E-.01709
;WIPE_END
G1 Z.6 F36000
G1 X104.756 Y65.234 Z.6
G1 Z.2
G1 E.8 F1800
G1 F6000
G1 X105.192 Y64.182 E.03077
G1 X105.885 Y63.279 E.03077
G1 X106.788 Y62.586 E.03077
G1 X107.84 Y62.15 E.03077
G1 X108.969 Y62.001 E.03077
G1 X110.098 Y62.15 E.03077
G1 X111.15 Y62.586 E.03077
G1 X112.054 Y63.279 E.03077
G1 X112.747 Y64.182 E.03077
G1 X113.183 Y65.234 E.03077
G1 X113.331 Y66.363 E.03077
G1 X113.183 Y67.492 E.03077
G1 X112.747 Y68.544 E.03077
G1 X112.054 Y69.447 E.03077
G1 X111.15 Y70.141 E.03077
G1 X110.098 Y70.576 E.03077
G1 X109.163 Y70.7 E.02548
G1 X109.163 Y66.416 E.11573
G1 X109.141 Y66.314 E.00283
G1 X109.056 Y66.207 E.00369
G1 X108.894 Y66.138 E.00474
G1 X107.426 Y66.057 E.03972
G1 X106.22 Y65.823 E.03319
G1 X105.045 Y65.435 E.03344
G1 X104.748 Y65.293 E.0089
G1 X104.751 Y65.274 E.00053
G1 X105.234 Y65.072 F36000
G1 F6000
G1 X105.239 Y65.002 E.0019
G1 X105.512 Y64.351 E.01908
G1 X106.131 Y63.545 E.02746
G1 X106.981 Y62.892 E.02896
G1 X107.947 Y62.496 E.02821
G1 X108.955 Y62.363 E.02746
G1 X109.991 Y62.496 E.02821
G1 X110.981 Y62.906 E.02896
G1 X111.788 Y63.525 E.02746
G1 X112.426 Y64.351 E.02821
G1 X112.836 Y65.341 E.02896
G1 X112.969 Y66.377 E.02821
G1 X112.836 Y67.385 E.02746
G1 X112.44 Y68.351 E.02821
G1 X111.808 Y69.182 E.02821
G1 X110.957 Y69.834 E.02896
G1 X110.018 Y70.223 E.02746
G1 X109.641 Y70.276 E.01028
G1 X109.547 Y70.241 E.00271
G1 X109.52 Y70.17 E.00206
G1 X109.52 Y66.425 E.10119
G1 X109.491 Y66.248 E.00486
G1 X109.412 Y66.082 E.00496
G1 X109.343 Y65.995 E.003
G1 X109.184 Y65.873 E.00542
G1 X109.043 Y65.813 E.00413
G1 X108.905 Y65.781 E.00384
G1 X107.478 Y65.702 E.03861
G1 X106.317 Y65.478 E.03193
G1 X105.304 Y65.145 E.02883
G1 X105.262 Y65.101 E.00163
G1 X105.714 Y64.854 F36000
G1 F6000
G1 X105.718 Y64.783 E.00192
G1 X105.832 Y64.521 E.00773
G1 X106.377 Y63.81 E.02419
G1 X107.174 Y63.199 E.02715
G1 X108.027 Y62.849 E.02491
G1 X108.942 Y62.725 E.02495
G1 X109.884 Y62.842 E.02565
G1 X110.788 Y63.213 E.0264
G1 X111.542 Y63.791 E.02567
G1 X112.12 Y64.545 E.02567
G1 X112.483 Y65.421 E.02562
G1 X112.607 Y66.363 E.02567
G1 X112.483 Y67.305 E.02568
G1 X112.119 Y68.183 E.02568
G1 X111.541 Y68.936 E.02565
G1 X110.788 Y69.514 E.02564
G1 X110.025 Y69.834 E.02235
G1 X109.925 Y69.824 E.00271
G1 X109.877 Y69.735 E.00274
G1 X109.877 Y66.432 E.08923
G1 X109.844 Y66.196 E.00644
G1 X109.811 Y66.088 E.00308
G1 X109.739 Y65.937 E.00451
G1 X109.627 Y65.779 E.00523
G1 X109.318 Y65.542 E.01051
G1 X108.993 Y65.435 E.00924
G1 X107.515 Y65.345 E.04002
G1 X106.401 Y65.13 E.03065
G1 X105.783 Y64.926 E.01757
G1 X105.741 Y64.883 E.00163
G1 X106.237 Y64.65 F36000
G1 F6000
G1 X106.255 Y64.556 E.0026
G1 X106.623 Y64.076 E.01633
G1 X107.367 Y63.506 E.02533
G1 X108.134 Y63.195 E.02236
G1 X108.93 Y63.087 E.02171
G1 X109.779 Y63.189 E.02309
G1 X110.595 Y63.519 E.02381
G1 X111.296 Y64.057 E.02385
G1 X111.8 Y64.714 E.02237
G1 X112.13 Y65.501 E.02307
G1 X112.245 Y66.349 E.02312
G1 X112.137 Y67.198 E.02313
G1 X111.799 Y68.014 E.02388
G1 X111.275 Y68.69 E.0231
G1 X110.618 Y69.194 E.02237
G1 X110.383 Y69.296 E.00694
G1 X110.283 Y69.287 E.00271
G1 X110.234 Y69.198 E.00275
G1 X110.23 Y66.376 E.07624
G1 X110.199 Y66.154 E.00605
G1 X110.153 Y65.986 E.00472
G1 X110.064 Y65.79 E.0058
G1 X109.922 Y65.578 E.0069
G1 X109.838 Y65.49 E.00329
G1 X109.542 Y65.264 E.01005
G1 X109.421 Y65.2 E.00369
G1 X109.112 Y65.098 E.00881
G1 X109.008 Y65.078 E.00285
G1 X107.553 Y64.989 E.03939
G1 X106.498 Y64.785 E.02903
G1 X106.307 Y64.723 E.00542
G1 X106.265 Y64.679 E.00163
G1 X106.863 Y64.444 F36000
G1 F6000
G1 X106.896 Y64.317 E.00355
G1 X107.534 Y63.827 E.02172
G1 X108.214 Y63.548 E.01986
G1 X108.919 Y63.449 E.01925
G1 X109.675 Y63.536 E.02054
G1 X110.403 Y63.827 E.02119
G1 X111.03 Y64.303 E.02127
G1 X111.493 Y64.907 E.02058
G1 X111.784 Y65.61 E.02055
G1 X111.883 Y66.364 E.02056
G1 X111.784 Y67.119 E.02056
G1 X111.478 Y67.845 E.02128
G1 X111.03 Y68.424 E.01979
G1 X110.763 Y68.633 E.00917
G1 X110.664 Y68.65 E.00271
G1 X110.59 Y68.548 E.00338
G1 X110.583 Y66.32 E.0602
G1 X110.542 Y66.054 E.00728
G1 X110.476 Y65.834 E.00622
G1 X110.357 Y65.586 E.00743
G1 X110.174 Y65.325 E.00859
G1 X110.05 Y65.203 E.00471
G1 X109.703 Y64.946 E.01168
G1 X109.527 Y64.859 E.0053
G1 X109.174 Y64.747 E.01001
G1 X109.024 Y64.722 E.0041
G1 X107.591 Y64.633 E.0388
G1 X106.941 Y64.507 E.01788
G1 X106.894 Y64.469 E.00163
G1 X107.791 Y64.24 F36000
G1 F6000
G1 X107.787 Y64.14 E.00271
G1 X107.843 Y64.087 E.00209
G1 X108.322 Y63.893 E.01395
G1 X108.937 Y63.81 E.01679
G1 X109.572 Y63.884 E.01727
G1 X110.212 Y64.135 E.01858
G1 X110.764 Y64.549 E.01865
G1 X111.173 Y65.076 E.018
G1 X111.431 Y65.69 E.01799
G1 X111.521 Y66.35 E.01801
G1 X111.438 Y67.01 E.01797
G1 X111.15 Y67.681 E.01972
G1 X111.071 Y67.743 E.00271
G1 X110.975 Y67.713 E.00271
G1 X110.944 Y67.638 E.00219
G1 X110.94 Y66.326 E.03545
G1 X110.896 Y66.006 E.00874
G1 X110.819 Y65.737 E.00754
G1 X110.683 Y65.439 E.00887
G1 X110.418 Y65.065 E.01239
G1 X110.258 Y64.913 E.00594
G1 X109.853 Y64.622 E.0135
G1 X109.629 Y64.517 E.00668
G1 X109.289 Y64.409 E.00963
G1 X109.04 Y64.365 E.00683
G1 X107.877 Y64.293 E.03149
G1 X107.825 Y64.261 E.00163
G1 E-.56 F1800
;WIPE_START
G1 F6000
G1 X107.787 Y64.14 E-.03054
G1 X107.843 Y64.087 E-.01854
G1 X108.322 Y63.893 E-.12395
G1 X108.598 Y63.856 E-.06697
;WIPE_END
G1 Z.6 F36000
G1 X109.163 Y102.169 Z.6
G1 Z.2
G1 E.8 F1800
G1 F6000
G1 X110.067 Y102.288 E.02462
G1 X111.119 Y102.723 E.03077
G1 X112.022 Y103.417 E.03077
G1 X112.715 Y104.32 E.03077
G1 X113.151 Y105.372 E.03077
G1 X113.3 Y106.501 E.03077
G1 X113.151 Y107.63 E.03077
G1 X112.715 Y108.682 E.03077
G1 X112.022 Y109.585 E.03077
G1 X111.119 Y110.278 E.03077
G1 X110.067 Y110.714 E.03077
G1 X108.938 Y110.863 E.03077
G1 X107.809 Y110.714 E.03077
G1 X106.757 Y110.278 E.03077
G1 X105.853 Y109.585 E.03077
G1 X105.16 Y108.682 E.03077
G1 X104.724 Y107.63 E.03077
G1 X104.601 Y106.695 E.02548
G1 X108.885 Y106.695 E.11573
G1 X108.987 Y106.673 E.00283
G1 X109.094 Y106.587 E.00369
G1 X109.163 Y106.416 E.00499
G1 X109.163 Y102.209 E.11368
G1 X109.567 Y102.609 F36000
G1 F6000
G1 X109.641 Y102.592 E.00206
G1 X109.959 Y102.634 E.00867
G1 X110.95 Y103.044 E.02896
G1 X111.756 Y103.663 E.02746
G1 X112.395 Y104.489 E.02821
G1 X112.805 Y105.479 E.02896
G1 X112.938 Y106.487 E.02746
G1 X112.805 Y107.523 E.02821
G1 X112.395 Y108.513 E.02896
G1 X111.776 Y109.319 E.02746
G1 X110.95 Y109.958 E.02821
G1 X109.959 Y110.368 E.02896
G1 X108.952 Y110.501 E.02746
G1 X107.916 Y110.368 E.02821
G1 X106.926 Y109.958 E.02896
G1 X106.099 Y109.319 E.02821
G1 X105.467 Y108.489 E.02821
G1 X105.078 Y107.55 E.02746
G1 X105.024 Y107.173 E.01028
G1 X105.059 Y107.079 E.00271
G1 X105.131 Y107.052 E.00206
G1 X108.876 Y107.052 E.10119
G1 X109.053 Y107.023 E.00486
G1 X109.219 Y106.944 E.00496
G1 X109.306 Y106.875 E.00298
G1 X109.43 Y106.708 E.00563
G1 X109.49 Y106.56 E.00434
G1 X109.52 Y106.406 E.00423
G1 X109.52 Y102.698 E.10018
G1 X109.548 Y102.645 E.00163
G1 X109.925 Y103.058 F36000
G1 F6000
G1 X110.025 Y103.047 E.00274
G1 X110.757 Y103.35 E.02139
G1 X111.491 Y103.909 E.02493
G1 X112.074 Y104.658 E.02565
G1 X112.459 Y105.586 E.02715
G1 X112.576 Y106.501 E.02492
G1 X112.459 Y107.416 E.02491
G1 X112.074 Y108.344 E.02715
G1 X111.51 Y109.074 E.02492
G1 X110.78 Y109.638 E.02491
G1 X109.852 Y110.022 E.02715
G1 X108.937 Y110.139 E.02492
G1 X108.023 Y110.022 E.02491
G1 X107.095 Y109.638 E.02713
G1 X106.346 Y109.054 E.02564
G1 X105.787 Y108.32 E.02493
G1 X105.467 Y107.557 E.02236
G1 X105.477 Y107.457 E.00271
G1 X105.566 Y107.409 E.00274
G1 X108.868 Y107.409 E.08923
G1 X109.211 Y107.343 E.00943
G1 X109.446 Y107.219 E.00719
G1 X109.598 Y107.081 E.00554
G1 X109.71 Y106.931 E.00506
G1 X109.819 Y106.698 E.00693
G1 X109.869 Y106.482 E.006
G1 X109.877 Y103.146 E.09014
G1 X109.906 Y103.093 E.00163
G1 X110.281 Y103.591 F36000
G1 F6000
G1 X110.381 Y103.581 E.00273
G1 X110.564 Y103.657 E.00536
G1 X111.227 Y104.157 E.02242
G1 X111.754 Y104.828 E.02306
G1 X112.105 Y105.666 E.02454
G1 X112.214 Y106.488 E.0224
G1 X112.112 Y107.309 E.02236
G1 X111.768 Y108.15 E.02456
G1 X111.264 Y108.808 E.0224
G1 X110.611 Y109.317 E.02236
G1 X109.745 Y109.676 E.02532
G1 X108.951 Y109.777 E.02164
G1 X108.129 Y109.676 E.02236
G1 X107.29 Y109.332 E.02452
G1 X106.594 Y108.79 E.02382
G1 X106.107 Y108.151 E.02171
G1 X106.004 Y107.915 E.00697
G1 X106.013 Y107.814 E.00271
G1 X106.103 Y107.766 E.00275
G1 X108.946 Y107.758 E.07682
G1 X109.271 Y107.695 E.00894
G1 X109.384 Y107.655 E.00326
G1 X109.603 Y107.54 E.00667
G1 X109.832 Y107.349 E.00805
G1 X110.038 Y107.073 E.00931
G1 X110.138 Y106.859 E.00638
G1 X110.214 Y106.572 E.00801
G1 X110.233 Y103.68 E.07816
G1 X110.262 Y103.626 E.00163
G1 X110.633 Y104.247 F36000
G1 F6000
G1 X110.757 Y104.25 E.00335
G1 X110.983 Y104.425 E.00772
G1 X111.449 Y105.024 E.02051
G1 X111.752 Y105.747 E.02117
G1 X111.852 Y106.476 E.01988
G1 X111.758 Y107.231 E.02057
G1 X111.461 Y107.958 E.02121
G1 X111.016 Y108.544 E.01988
G1 X110.416 Y109.011 E.02056
G1 X109.666 Y109.322 E.02194
G1 X108.937 Y109.416 E.01987
G1 X108.207 Y109.322 E.01987
G1 X107.484 Y109.025 E.02112
G1 X106.861 Y108.545 E.02125
G1 X106.664 Y108.293 E.00864
G1 X106.648 Y108.194 E.00271
G1 X106.749 Y108.121 E.00336
G1 X109.023 Y108.106 E.06145
G1 X109.331 Y108.047 E.00846
G1 X109.557 Y107.968 E.00647
G1 X109.839 Y107.808 E.00875
G1 X110.051 Y107.632 E.00745
G1 X110.365 Y107.215 E.0141
G1 X110.485 Y106.942 E.00806
G1 X110.557 Y106.67 E.0076
G1 X110.586 Y104.335 E.06311
G1 X110.614 Y104.282 E.00163
G1 X110.986 Y105.171 F36000
G1 F6000
G1 X111.086 Y105.162 E.00271
G1 X111.143 Y105.219 E.00219
G1 X111.406 Y105.856 E.01861
G1 X111.49 Y106.492 E.01734
G1 X111.412 Y107.126 E.01726
G1 X111.154 Y107.766 E.01865
G1 X110.749 Y108.3 E.01809
G1 X110.222 Y108.706 E.01799
G1 X109.587 Y108.969 E.01857
G1 X108.951 Y109.054 E.01734
G1 X108.287 Y108.968 E.01809
G1 X107.677 Y108.719 E.01779
G1 X107.6 Y108.664 E.00254
G1 X107.559 Y108.573 E.00271
G1 X107.611 Y108.487 E.00271
G1 X107.665 Y108.472 E.00151
G1 X109.017 Y108.464 E.03652
G1 X109.391 Y108.399 E.01027
G1 X109.74 Y108.274 E.01002
G1 X110.007 Y108.123 E.00827
G1 X110.27 Y107.914 E.00909
G1 X110.696 Y107.348 E.01914
G1 X110.809 Y107.093 E.00752
G1 X110.915 Y106.668 E.01184
G1 X110.938 Y105.259 E.03808
G1 X110.967 Y105.206 E.00163
G1 E-.56 F1800
;WIPE_START
G1 F6000
G1 X111.086 Y105.162 E-.03054
G1 X111.143 Y105.219 E-.01947
G1 X111.406 Y105.856 E-.16531
G1 X111.42 Y105.957 E-.02469
;WIPE_END
G1 Z.6 F36000
G1 X60.429 Y59.788 Z.6
G1 Z.2
G1 E.8 F1800
;TYPE:Inner wall
G1 F6000
