; HEADER_BLOCK_START
; generated by OrcaSlicer 2.3.2-rc2 on 2026-03-10 at 21:05:29
; total layer number: 40
; filament_density: 1.04
; filament_diameter: 1.75
; max_z_height: 8.00
; filament: 1
; HEADER_BLOCK_END

; THUMBNAIL_BLOCK_START

;
; THUMBNAIL_BLOCK_END

; THUMBNAIL_BLOCK_START

;
; THUMBNAIL_BLOCK_END

; external perimeters extrusion width = 0.40mm
; perimeters extrusion width = 0.40mm
; infill extrusion width = 0.40mm
; solid infill extrusion width = 0.40mm
; top infill extrusion width = 0.40mm
; first layer extrusion width = 0.40mm

; EXECUTABLE_BLOCK_START


; Pre-Processed for Cancel-Object support by preprocess_cancellation v0.2.0
; 1 known objects
EXCLUDE_OBJECT_DEFINE NAME=Body1_stl_id_87_copy_0 CENTER=57.834,59.524 POLYGON=[[32.2,39.2],[32.2,80.8],[87.8,80.8],[87.8,39.2]]
M73 P0 R5
;TYPE:Custom
PRINT_START EXTRUDER_TEMP=255 BED_TEMP=105
G90
G21
M83 ; use relative distances for extrusion
; Filament gcode
SET_PRESSURE_ADVANCE ADVANCE=0.04; Override pressure advance value
M106 S0
;LAYER_CHANGE
;Z:0.2
;HEIGHT:0.2
;BEFORE_LAYER_CHANGE
;0.2
G92 E0

G1 E-.8 F1800
;AFTER_LAYER_CHANGE
;0.2
;_SET_FAN_SPEED_CHANGING_LAYER
SET_VELOCITY_LIMIT ACCEL=10000 ACCEL_TO_DECEL=10000
SET_VELOCITY_LIMIT SQUARE_CORNER_VELOCITY=9
; printing object Body1.stl id:87 copy 0
EXCLUDE_OBJECT_START NAME=Body1_stl_id_87_copy_0
G1 Z.6 F36000
G1 X55.982 Y52.159
G1 Z.6
G1 Z.2
G1 E.8 F1800
;TYPE:Inner wall
;WIDTH:0.4
G1 F6000
G1 X84.539 Y52.159 E.77159
G1 X84.539 Y69.073 E.457
G1 X55.625 Y69.073 E.78123
G1 X55.625 Y52.159 E.457
G1 X55.942 Y52.159 E.00857
G1 X55.982 Y52.516 F36000
;TYPE:Outer wall
G1 F6000
G1 X84.182 Y52.516 E.76194
G1 X84.182 Y68.716 E.43771
G1 X55.982 Y68.716 E.76194
G1 X55.982 Y52.556 E.43663
G1 E-.56 F1800
;WIPE_START
G1 F6000
G1 X56.982 Y52.555 E-.24
;WIPE_END
G1 Z.6 F36000
G1 X52.682 Y59.659 Z.6
G1 Z.2
G1 E.8 F1800
;TYPE:Inner wall
G1 F6000
G1 X53.039 Y59.659 E.00965
G1 X53.039 Y74.073 E.38946
G1 X39.125 Y74.073 E.37595
G1 X39.125 Y59.659 E.38946
G1 X52.642 Y59.659 E.36522
G1 X52.682 Y60.016 F36000
;TYPE:Outer wall
G1 F6000
G1 X52.682 Y73.716 E.37016
G1 X39.482 Y73.716 E.35665
G1 X39.482 Y60.016 E.37016
M73 P1 R5
G1 X52.642 Y60.016 E.35557
G1 E-.56 F1800
;WIPE_START
G1 F6000
G1 X52.645 Y61.016 E-.24
;WIPE_END
G1 Z.6 F36000
G1 X53.682 Y54.073 Z.6
G1 Z.2
G1 E.8 F1800
;TYPE:Inner wall
G1 F6000
G1 X38.125 Y54.073 E.42034
G1 X38.125 Y42.659 E.3084
G1 X54.039 Y42.659 E.42999
G1 X54.039 Y54.073 E.3084
G1 X53.722 Y54.073 E.00857
G1 X53.682 Y53.716 F36000
;TYPE:Outer wall
G1 F6000
G1 X38.482 Y53.716 E.41069
G1 X38.482 Y43.016 E.2891
G1 X53.682 Y43.016 E.41069
G1 X53.682 Y53.676 E.28802
G1 E-.56 F1800
;WIPE_START
G1 F6000
G1 X52.682 Y53.679 E-.24
;WIPE_END
G1 Z.6 F36000
G1 X87.293 Y80.293 Z.6
G1 Z.2
G1 E.8 F1800
;TYPE:Inner wall
G1 F6000
G1 X32.707 Y80.293 E1.47486
G1 X32.707 Y39.707 E1.09659
G1 X87.293 Y39.707 E1.47486
G1 X87.293 Y80.253 E1.09551
M73 P2 R5
G1 X87.65 Y80.65 F36000
;TYPE:Outer wall
G1 F6000
G1 X32.35 Y80.65 E1.49415
G1 X32.35 Y39.35 E1.11589
G1 X87.65 Y39.35 E1.49415
G1 X87.65 Y80.61 E1.11481
G1 E-.56 F1800
;WIPE_START
G1 F6000
G1 X86.65 Y80.611 E-.24
;WIPE_END
G1 Z.6 F36000
G1 X32.814 Y39.975 Z.6
G1 Z.2
G1 E.8 F1800
;TYPE:Bottom surface
;WIDTH:0.400506
G1 F12600
G1 X87.025 Y39.975 E1.46681
G1 X87.025 Y40.333 E.00968
G1 X32.975 Y40.333 E1.46246
G1 X32.975 Y40.69 E.00968
M73 P3 R5
G1 X87.025 Y40.69 E1.46246
G1 X87.025 Y41.048 E.00968
G1 X32.975 Y41.048 E1.46246
G1 X32.975 Y41.406 E.00968
G1 X87.025 Y41.406 E1.46246
G1 X87.025 Y41.763 E.00968
G1 X32.975 Y41.763 E1.46246
G1 X32.975 Y42.121 E.00968
G1 X87.025 Y42.121 E1.46246
G1 X87.025 Y42.478 E.00968
G1 X32.975 Y42.478 E1.46246
G1 X32.975 Y42.836 E.00968
G1 X37.857 Y42.836 E.1321
G1 X37.857 Y43.193 E.00968
G1 X32.975 Y43.193 E.1321
G1 X32.975 Y43.551 E.00968
G1 X37.857 Y43.551 E.1321
G1 X37.857 Y43.909 E.00968
G1 X32.975 Y43.909 E.1321
G1 X32.975 Y44.266 E.00968
G1 X37.857 Y44.266 E.1321
G1 X37.857 Y44.624 E.00968
G1 X32.975 Y44.624 E.1321
G1 X32.975 Y44.981 E.00968
G1 X37.857 Y44.981 E.1321
G1 X37.857 Y45.339 E.00968
G1 X32.975 Y45.339 E.1321
G1 X32.975 Y45.697 E.00968
G1 X37.857 Y45.697 E.1321
G1 X37.857 Y46.054 E.00968
G1 X32.975 Y46.054 E.1321
G1 X32.975 Y46.412 E.00968
G1 X37.857 Y46.412 E.1321
G1 X37.857 Y46.769 E.00968
G1 X32.975 Y46.769 E.1321
G1 X32.975 Y47.127 E.00968
G1 X37.857 Y47.127 E.1321
G1 X37.857 Y47.484 E.00968
G1 X32.975 Y47.484 E.1321
G1 X32.975 Y47.842 E.00968
G1 X37.857 Y47.842 E.1321
G1 X37.857 Y48.2 E.00968
G1 X32.975 Y48.2 E.1321
G1 X32.975 Y48.557 E.00968
G1 X37.857 Y48.557 E.1321
G1 X37.857 Y48.915 E.00968
G1 X32.975 Y48.915 E.1321
G1 X32.975 Y49.272 E.00968
G1 X37.857 Y49.272 E.1321
G1 X37.857 Y49.63 E.00968
G1 X32.975 Y49.63 E.1321
G1 X32.975 Y49.988 E.00968
G1 X37.857 Y49.988 E.1321
G1 X37.857 Y50.345 E.00968
G1 X32.975 Y50.345 E.1321
G1 X32.975 Y50.703 E.00968
G1 X37.857 Y50.703 E.1321
G1 X37.857 Y51.06 E.00968
G1 X32.975 Y51.06 E.1321
G1 X32.975 Y51.418 E.00968
G1 X37.857 Y51.418 E.1321
G1 X37.857 Y51.776 E.00968
G1 X32.975 Y51.776 E.1321
G1 X32.975 Y52.133 E.00968
G1 X37.857 Y52.133 E.1321
G1 X37.857 Y52.491 E.00968
G1 X32.975 Y52.491 E.1321
G1 X32.975 Y52.848 E.00968
G1 X37.857 Y52.848 E.1321
G1 X37.857 Y53.206 E.00968
G1 X32.975 Y53.206 E.1321
G1 X32.975 Y53.563 E.00968
G1 X37.857 Y53.563 E.1321
M73 P4 R5
G1 X37.857 Y53.921 E.00968
G1 X32.814 Y53.921 E.13645
G1 E-.65714 F1800
;WIPE_START
G1 F12600
G1 X33.814 Y53.921 E-.14286
;WIPE_END
G1 Z.6 F36000
G1 X54.146 Y42.836 Z.6
G1 Z.2
G1 E.8 F1800
G1 F12600
G1 X87.025 Y42.836 E.88962
G1 X87.025 Y43.193 E.00968
G1 X54.307 Y43.193 E.88527
G1 X54.307 Y43.551 E.00968
G1 X87.025 Y43.551 E.88527
G1 X87.025 Y43.909 E.00968
G1 X54.307 Y43.909 E.88527
G1 X54.307 Y44.266 E.00968
G1 X87.025 Y44.266 E.88527
G1 X87.025 Y44.624 E.00968
G1 X54.307 Y44.624 E.88527
G1 X54.307 Y44.981 E.00968
G1 X87.025 Y44.981 E.88527
G1 X87.025 Y45.339 E.00968
G1 X54.307 Y45.339 E.88527
G1 X54.307 Y45.697 E.00968
G1 X87.025 Y45.697 E.88527
G1 X87.025 Y46.054 E.00968
G1 X54.307 Y46.054 E.88527
G1 X54.307 Y46.412 E.00968
G1 X87.025 Y46.412 E.88527
G1 X87.025 Y46.769 E.00968
G1 X54.307 Y46.769 E.88527
G1 X54.307 Y47.127 E.00968
G1 X87.025 Y47.127 E.88527
G1 X87.025 Y47.485 E.00968
G1 X54.307 Y47.484 E.88527
G1 X54.307 Y47.842 E.00968
G1 X87.025 Y47.842 E.88527
G1 X87.025 Y48.2 E.00968
G1 X54.307 Y48.2 E.88527
G1 X54.307 Y48.557 E.00968
G1 X87.025 Y48.557 E.88527
G1 X87.025 Y48.915 E.00968
M73 P5 R5
G1 X54.307 Y48.915 E.88527
G1 X54.307 Y49.272 E.00968
G1 X87.025 Y49.272 E.88527
G1 X87.025 Y49.63 E.00968
G1 X54.307 Y49.63 E.88527
G1 X54.307 Y49.988 E.00968
G1 X87.025 Y49.988 E.88527
G1 X87.025 Y50.345 E.00968
G1 X54.307 Y50.345 E.88527
G1 X54.307 Y50.703 E.00968
G1 X87.025 Y50.703 E.88527
G1 X87.025 Y51.06 E.00968
G1 X54.307 Y51.06 E.88527
G1 X54.307 Y51.418 E.00968
G1 X87.025 Y51.418 E.88527
G1 X87.025 Y51.776 E.00968
G1 X54.307 Y51.776 E.88527
G1 X54.307 Y52.133 E.00968
G1 X55.357 Y52.133 E.02842
G1 X55.357 Y51.891 E.00654
G1 X84.807 Y51.891 E.79683
G1 X84.807 Y52.133 E.00654
G1 X87.025 Y52.133 E.06002
G1 X87.025 Y52.491 E.00968
G1 X84.807 Y52.491 E.06002
G1 X84.807 Y52.848 E.00968
G1 X87.025 Y52.848 E.06002
G1 X87.025 Y53.206 E.00968
G1 X84.807 Y53.206 E.06002
G1 X84.807 Y53.563 E.00968
G1 X87.025 Y53.563 E.06002
G1 X87.025 Y53.921 E.00968
G1 X84.807 Y53.921 E.06002
G1 X84.807 Y54.279 E.00968
G1 X87.025 Y54.279 E.06002
G1 X87.025 Y54.636 E.00968
G1 X84.807 Y54.636 E.06002
G1 X84.807 Y54.994 E.00968
G1 X87.025 Y54.994 E.06002
G1 X87.025 Y55.351 E.00968
G1 X84.807 Y55.351 E.06002
G1 X84.807 Y55.709 E.00968
G1 X87.025 Y55.709 E.06002
G1 X87.025 Y56.067 E.00968
G1 X84.807 Y56.067 E.06002
G1 X84.807 Y56.424 E.00968
G1 X87.025 Y56.424 E.06002
G1 X87.025 Y56.782 E.00968
G1 X84.807 Y56.782 E.06002
G1 X84.807 Y57.139 E.00968
G1 X87.025 Y57.139 E.06002
G1 X87.025 Y57.497 E.00968
G1 X84.807 Y57.497 E.06002
G1 X84.807 Y57.854 E.00968
G1 X87.025 Y57.854 E.06002
G1 X87.025 Y58.212 E.00968
G1 X84.807 Y58.212 E.06002
G1 X84.807 Y58.57 E.00968
G1 X87.025 Y58.57 E.06002
G1 X87.025 Y58.927 E.00968
G1 X84.807 Y58.927 E.06002
G1 X84.807 Y59.285 E.00968
G1 X87.025 Y59.285 E.06002
G1 X87.025 Y59.642 E.00968
G1 X84.807 Y59.642 E.06002
G1 X84.807 Y60 E.00968
G1 X87.025 Y60 E.06002
G1 X87.025 Y60.358 E.00968
G1 X84.807 Y60.358 E.06002
G1 X84.807 Y60.715 E.00968
G1 X87.025 Y60.715 E.06002
G1 X87.025 Y61.073 E.00968
G1 X84.807 Y61.073 E.06002
G1 X84.807 Y61.43 E.00968
G1 X87.025 Y61.43 E.06002
G1 X87.025 Y61.788 E.00968
G1 X84.807 Y61.788 E.06002
G1 X84.807 Y62.146 E.00968
G1 X87.025 Y62.146 E.06002
G1 X87.025 Y62.503 E.00968
G1 X84.807 Y62.503 E.06002
G1 X84.807 Y62.861 E.00968
G1 X87.025 Y62.861 E.06002
G1 X87.025 Y63.218 E.00968
G1 X84.807 Y63.218 E.06002
G1 X84.807 Y63.576 E.00968
G1 X87.025 Y63.576 E.06002
G1 X87.025 Y63.933 E.00968
G1 X84.807 Y63.933 E.06002
G1 X84.807 Y64.291 E.00968
G1 X87.025 Y64.291 E.06002
G1 X87.025 Y64.649 E.00968
G1 X84.807 Y64.649 E.06002
G1 X84.807 Y65.006 E.00968
G1 X87.025 Y65.006 E.06002
M73 P6 R5
G1 X87.025 Y65.364 E.00968
G1 X84.807 Y65.364 E.06002
G1 X84.807 Y65.721 E.00968
G1 X87.025 Y65.721 E.06002
G1 X87.025 Y66.079 E.00968
G1 X84.807 Y66.079 E.06002
G1 X84.807 Y66.437 E.00968
G1 X87.025 Y66.437 E.06002
G1 X87.025 Y66.794 E.00968
G1 X84.807 Y66.794 E.06002
G1 X84.807 Y67.152 E.00968
G1 X87.025 Y67.152 E.06002
G1 X87.025 Y67.509 E.00968
G1 X84.807 Y67.509 E.06002
G1 X84.807 Y67.867 E.00968
G1 X87.025 Y67.867 E.06002
G1 X87.025 Y68.224 E.00968
G1 X84.807 Y68.224 E.06002
G1 X84.807 Y68.582 E.00968
G1 X87.025 Y68.582 E.06002
G1 X87.025 Y68.94 E.00968
G1 X84.646 Y68.94 E.06437
G1 E-.65714 F1800
;WIPE_START
G1 F12600
G1 X85.646 Y68.94 E-.14286
;WIPE_END
G1 Z.6 F36000
G1 X55.518 Y52.491 Z.6
G1 Z.2
G1 E.8 F1800
G1 F12600
G1 X54.307 Y52.491 E.03276
G1 X54.307 Y52.848 E.00968
G1 X55.357 Y52.848 E.02842
G1 X55.357 Y53.206 E.00968
G1 X54.307 Y53.206 E.02842
G1 X54.307 Y53.563 E.00968
G1 X55.357 Y53.563 E.02842
G1 X55.357 Y53.921 E.00968
G1 X54.146 Y53.921 E.03276
G1 E-.65714 F1800
;WIPE_START
G1 F12600
G1 X55.146 Y53.921 E-.14286
;WIPE_END
G1 Z.6 F36000
G1 X55.518 Y54.279 Z.6
G1 Z.2
G1 E.8 F1800
G1 F12600
G1 X32.975 Y54.279 E.60995
G1 X32.975 Y54.636 E.00968
G1 X55.357 Y54.636 E.6056
G1 X55.357 Y54.994 E.00968
G1 X32.975 Y54.994 E.6056
G1 X32.975 Y55.351 E.00968
G1 X55.357 Y55.351 E.6056
G1 X55.357 Y55.709 E.00968
G1 X32.975 Y55.709 E.6056
G1 X32.975 Y56.067 E.00968
G1 X55.357 Y56.067 E.6056
G1 X55.357 Y56.424 E.00968
G1 X32.975 Y56.424 E.6056
G1 X32.975 Y56.782 E.00968
G1 X55.357 Y56.782 E.6056
G1 X55.357 Y57.139 E.00968
G1 X32.975 Y57.139 E.6056
G1 X32.975 Y57.497 E.00968
G1 X55.357 Y57.497 E.6056
G1 X55.357 Y57.854 E.00968
G1 X32.975 Y57.854 E.6056
G1 X32.975 Y58.212 E.00968
G1 X55.357 Y58.212 E.6056
G1 X55.357 Y58.57 E.00968
G1 X32.975 Y58.57 E.6056
G1 X32.975 Y58.927 E.00968
G1 X55.357 Y58.927 E.6056
G1 X55.357 Y59.285 E.00968
G1 X32.975 Y59.285 E.6056
G1 X32.975 Y59.642 E.00968
G1 X38.857 Y59.642 E.15916
G1 X38.857 Y59.391 E.00679
G1 X53.307 Y59.391 E.39097
G1 X53.307 Y59.642 E.00679
G1 X55.357 Y59.642 E.05547
G1 X55.357 Y60 E.00968
G1 X53.307 Y60 E.05547
G1 X53.307 Y60.358 E.00968
G1 X55.357 Y60.358 E.05547
G1 X55.357 Y60.715 E.00968
M73 P7 R5
G1 X53.307 Y60.715 E.05547
G1 X53.307 Y61.073 E.00968
G1 X55.357 Y61.073 E.05547
G1 X55.357 Y61.43 E.00968
G1 X53.307 Y61.43 E.05547
G1 X53.307 Y61.788 E.00968
G1 X55.357 Y61.788 E.05547
G1 X55.357 Y62.146 E.00968
G1 X53.307 Y62.146 E.05547
G1 X53.307 Y62.503 E.00968
G1 X55.357 Y62.503 E.05547
G1 X55.357 Y62.861 E.00968
G1 X53.307 Y62.861 E.05547
G1 X53.307 Y63.218 E.00968
G1 X55.357 Y63.218 E.05547
G1 X55.357 Y63.576 E.00968
G1 X53.307 Y63.576 E.05547
G1 X53.307 Y63.933 E.00968
G1 X55.357 Y63.933 E.05547
G1 X55.357 Y64.291 E.00968
G1 X53.307 Y64.291 E.05547
G1 X53.307 Y64.649 E.00968
G1 X55.357 Y64.649 E.05547
G1 X55.357 Y65.006 E.00968
G1 X53.307 Y65.006 E.05547
G1 X53.307 Y65.364 E.00968
G1 X55.357 Y65.364 E.05547
G1 X55.357 Y65.721 E.00968
G1 X53.307 Y65.721 E.05547
G1 X53.307 Y66.079 E.00968
G1 X55.357 Y66.079 E.05547
G1 X55.357 Y66.437 E.00968
G1 X53.307 Y66.437 E.05547
G1 X53.307 Y66.794 E.00968
G1 X55.357 Y66.794 E.05547
G1 X55.357 Y67.152 E.00968
G1 X53.307 Y67.152 E.05547
G1 X53.307 Y67.509 E.00968
G1 X55.357 Y67.509 E.05547
G1 X55.357 Y67.867 E.00968
G1 X53.307 Y67.867 E.05547
G1 X53.307 Y68.224 E.00968
G1 X55.357 Y68.224 E.05547
G1 X55.357 Y68.582 E.00968
G1 X53.307 Y68.582 E.05547
G1 X53.307 Y68.94 E.00968
G1 X55.518 Y68.94 E.05982
G1 E-.65714 F1800
;WIPE_START
G1 F12600
G1 X54.518 Y68.94 E-.14286
;WIPE_END
G1 Z.6 F36000
G1 X53.146 Y69.297 Z.6
G1 Z.2
G1 E.8 F1800
G1 F12600
G1 X87.025 Y69.297 E.91668
G1 X87.025 Y69.655 E.00968
G1 X53.307 Y69.655 E.91233
G1 X53.307 Y70.012 E.00968
G1 X87.025 Y70.012 E.91233
G1 X87.025 Y70.37 E.00968
G1 X53.307 Y70.37 E.91233
G1 X53.307 Y70.728 E.00968
G1 X87.025 Y70.728 E.91233
G1 X87.025 Y71.085 E.00968
G1 X53.307 Y71.085 E.91233
G1 X53.307 Y71.443 E.00968
G1 X87.025 Y71.443 E.91233
G1 X87.025 Y71.8 E.00968
G1 X53.307 Y71.8 E.91233
G1 X53.307 Y72.158 E.00968
G1 X87.025 Y72.158 E.91233
G1 X87.025 Y72.516 E.00968
G1 X53.307 Y72.516 E.91233
G1 X53.307 Y72.873 E.00968
G1 X87.025 Y72.873 E.91233
G1 X87.025 Y73.231 E.00968
G1 X53.307 Y73.231 E.91233
G1 X53.307 Y73.588 E.00968
G1 X87.025 Y73.588 E.91233
M73 P8 R5
G1 X87.025 Y73.946 E.00968
G1 X53.146 Y73.946 E.91668
G1 E-.65714 F1800
;WIPE_START
G1 F12600
G1 X54.146 Y73.946 E-.14286
;WIPE_END
G1 Z.6 F36000
G1 X32.814 Y60 Z.6
G1 Z.2
G1 E.8 F1800
G1 F12600
G1 X38.857 Y60 E.1635
G1 X38.857 Y60.358 E.00968
G1 X32.975 Y60.358 E.15916
G1 X32.975 Y60.715 E.00968
G1 X38.857 Y60.715 E.15916
G1 X38.857 Y61.073 E.00968
G1 X32.975 Y61.073 E.15916
G1 X32.975 Y61.43 E.00968
G1 X38.857 Y61.43 E.15916
G1 X38.857 Y61.788 E.00968
G1 X32.975 Y61.788 E.15916
G1 X32.975 Y62.146 E.00968
G1 X38.857 Y62.146 E.15916
G1 X38.857 Y62.503 E.00968
G1 X32.975 Y62.503 E.15916
G1 X32.975 Y62.861 E.00968
G1 X38.857 Y62.861 E.15916
G1 X38.857 Y63.218 E.00968
G1 X32.975 Y63.218 E.15916
G1 X32.975 Y63.576 E.00968
G1 X38.857 Y63.576 E.15916
G1 X38.857 Y63.933 E.00968
G1 X32.975 Y63.933 E.15916
G1 X32.975 Y64.291 E.00968
G1 X38.857 Y64.291 E.15916
G1 X38.857 Y64.649 E.00968
G1 X32.975 Y64.649 E.15916
G1 X32.975 Y65.006 E.00968
G1 X38.857 Y65.006 E.15916
G1 X38.857 Y65.364 E.00968
G1 X32.975 Y65.364 E.15916
G1 X32.975 Y65.721 E.00968
G1 X38.857 Y65.721 E.15916
G1 X38.857 Y66.079 E.00968
G1 X32.975 Y66.079 E.15916
G1 X32.975 Y66.437 E.00968
G1 X38.857 Y66.437 E.15916
G1 X38.857 Y66.794 E.00968
G1 X32.975 Y66.794 E.15916
G1 X32.975 Y67.152 E.00968
G1 X38.857 Y67.152 E.15916
G1 X38.857 Y67.509 E.00968
G1 X32.975 Y67.509 E.15916
G1 X32.975 Y67.867 E.00968
G1 X38.857 Y67.867 E.15916
G1 X38.857 Y68.224 E.00968
G1 X32.975 Y68.224 E.15916
G1 X32.975 Y68.582 E.00968
G1 X38.857 Y68.582 E.15916
G1 X38.857 Y68.94 E.00968
G1 X32.975 Y68.94 E.15916
G1 X32.975 Y69.297 E.00968
G1 X38.857 Y69.297 E.15916
G1 X38.857 Y69.655 E.00968
G1 X32.975 Y69.655 E.15916
G1 X32.975 Y70.012 E.00968
G1 X38.857 Y70.012 E.15916
G1 X38.857 Y70.37 E.00968
G1 X32.975 Y70.37 E.15916
G1 X32.975 Y70.728 E.00968
G1 X38.857 Y70.728 E.15916
G1 X38.857 Y71.085 E.00968
G1 X32.975 Y71.085 E.15916
G1 X32.975 Y71.443 E.00968
G1 X38.857 Y71.443 E.15916
G1 X38.857 Y71.8 E.00968
G1 X32.975 Y71.8 E.15916
G1 X32.975 Y72.158 E.00968
G1 X38.857 Y72.158 E.15916
G1 X38.857 Y72.516 E.00968
G1 X32.975 Y72.516 E.15916
G1 X32.975 Y72.873 E.00968
G1 X38.857 Y72.873 E.15916
G1 X38.857 Y73.231 E.00968
G1 X32.975 Y73.231 E.15916
G1 X32.975 Y73.588 E.00968
G1 X38.857 Y73.588 E.15916
G1 X38.857 Y73.946 E.00968
G1 X32.975 Y73.946 E.15916
G1 X32.975 Y74.303 E.00968
G1 X87.025 Y74.303 E1.46246
G1 X87.025 Y74.661 E.00968
G1 X32.975 Y74.661 E1.46246
G1 X32.975 Y75.019 E.00968
M73 P9 R5
G1 X87.025 Y75.019 E1.46246
G1 X87.025 Y75.376 E.00968
G1 X32.975 Y75.376 E1.46246
G1 X32.975 Y75.734 E.00968
G1 X87.025 Y75.734 E1.46246
G1 X87.025 Y76.091 E.00968
G1 X32.975 Y76.091 E1.46246
G1 X32.975 Y76.449 E.00968
G1 X87.025 Y76.449 E1.46246
G1 X87.025 Y76.807 E.00968
