; HEADER_BLOCK_START
; generated by OrcaSlicer 2.3.2-beta2 on 2026-02-25 at 17:28:18
; total layer number: 25
; filament_density: 1.04
; filament_diameter: 1.75
; max_z_height: 5.00
; filament: 1
; HEADER_BLOCK_END

; THUMBNAIL_BLOCK_START

;
; THUMBNAIL_BLOCK_END

; THUMBNAIL_BLOCK_START

;
; THUMBNAIL_BLOCK_END

; external perimeters extrusion width = 0.40mm
; perimeters extrusion width = 0.40mm
; infill extrusion width = 0.40mm
; solid infill extrusion width = 0.40mm
; top infill extrusion width = 0.40mm
; first layer extrusion width = 0.40mm

; EXECUTABLE_BLOCK_START


; Pre-Processed for Cancel-Object support by preprocess_cancellation v0.2.0
; 1 known objects
EXCLUDE_OBJECT_DEFINE NAME=Body1_stl_id_87_copy_0 CENTER=60.116,59.751 POLYGON=[[31.2,15.2],[31.2,104.8],[88.8,104.8],[88.8,15.2]]
M73 P0 R23
;TYPE:Custom
PRINT_START EXTRUDER_TEMP=255 BED_TEMP=105
G90
G21
M83 ; use relative distances for extrusion
; Filament gcode
SET_PRESSURE_ADVANCE ADVANCE=0.04; Override pressure advance value
M106 S0
;LAYER_CHANGE
;Z:0.2
;HEIGHT:0.2
;BEFORE_LAYER_CHANGE
;0.2
G92 E0

G1 E-.8 F1800
;AFTER_LAYER_CHANGE
;0.2
;_SET_FAN_SPEED_CHANGING_LAYER
SET_VELOCITY_LIMIT ACCEL=10000 ACCEL_TO_DECEL=10000
SET_VELOCITY_LIMIT SQUARE_CORNER_VELOCITY=9
; printing object Body1.stl id:87 copy 0
EXCLUDE_OBJECT_START NAME=Body1_stl_id_87_copy_0
G1 Z.6 F36000
G1 X85.194 Y77.395
G1 Z.6
G1 Z.2
G1 E.8 F1800
;TYPE:Inner wall
;WIDTH:0.4
G1 F6000
G1 X85.3 Y77.58 E.00575
G1 X85.634 Y78.517 E.02687
G1 X85.805 Y79.501 E.02698
G1 X85.805 Y80.499 E.02698
G1 X85.634 Y81.483 E.02698
G1 X85.3 Y82.42 E.02687
G1 X84.799 Y83.301 E.02739
G1 X84.161 Y84.075 E.02708
G3 X83.4 Y84.727 I-7.101 J-7.509 E.02709
G1 X82.539 Y85.239 E.02708
G3 X76.799 Y84.856 I-2.529 J-5.303 E.16242
G1 X76.206 Y84.417 E.01995
G1 X75.504 Y83.702 E.02708
G1 X74.935 Y82.876 E.02709
G1 X74.513 Y81.957 E.02732
G1 X74.26 Y80.998 E.02682
G1 X74.174 Y79.999 E.02707
G1 X74.259 Y79.005 E.02696
G1 X74.513 Y78.043 E.02689
G1 X74.935 Y77.124 E.02732
G1 X75.504 Y76.298 E.02709
G1 X76.205 Y75.583 E.02708
G1 X77.02 Y74.998 E.02708
G3 X79.617 Y74.193 I3.034 J5.198 E.07412
G3 X82.539 Y74.761 I.36 J5.952 E.08126
G1 X83.4 Y75.273 E.02708
G3 X84.161 Y75.925 I-6.34 J8.162 E.02709
G1 X84.799 Y76.699 E.02708
G1 X85.175 Y77.36 E.02056
G1 X84.885 Y77.572 F36000
G1 F6000
G1 X84.973 Y77.728 E.00486
G1 X85.288 Y78.608 E.02524
G1 X85.448 Y79.531 E.02532
G1 X85.448 Y80.469 E.02532
G1 X85.288 Y81.392 E.02532
G1 X84.973 Y82.272 E.02524
G1 X84.505 Y83.096 E.02563
G1 X83.907 Y83.822 E.0254
G1 X83.194 Y84.434 E.02539
G1 X82.387 Y84.915 E.02539
G1 X81.509 Y85.251 E.02539
G3 X78.045 Y85.102 I-1.508 J-5.307 E.09532
G1 X77.199 Y84.692 E.02539
G1 X76.436 Y84.144 E.02539
G3 X75.778 Y83.472 I7.357 J-7.864 E.0254
G1 X75.245 Y82.698 E.0254
G1 X74.85 Y81.838 E.02557
G1 X74.613 Y80.936 E.0252
G1 X74.532 Y80 E.02539
G1 X74.612 Y79.066 E.02531
G1 X74.85 Y78.162 E.02525
G1 X75.245 Y77.302 E.02557
G1 X75.778 Y76.528 E.0254
G3 X76.436 Y75.857 I8.012 J7.19 E.0254
G1 X77.199 Y75.308 E.02539
G1 X78.045 Y74.898 E.02539
G3 X79.648 Y74.549 I1.989 J5.29 E.0445
G3 X81.509 Y74.749 I.345 J5.559 E.05082
G1 X82.387 Y75.085 E.02539
G1 X83.194 Y75.566 E.02539
G3 X83.907 Y76.178 I-5.951 J7.649 E.0254
G1 X84.505 Y76.904 E.0254
G1 X84.865 Y77.537 E.01968
G1 X84.575 Y77.748 F36000
G1 F6000
G1 X84.647 Y77.877 E.00398
G1 X84.941 Y78.699 E.02361
G1 X85.091 Y79.562 E.02366
G1 X85.091 Y80.438 E.02366
G1 X84.941 Y81.301 E.02366
G1 X84.647 Y82.123 E.02361
G1 X84.211 Y82.892 E.02386
G3 X83.654 Y83.569 I-9.004 J-6.837 E.02372
G1 X82.989 Y84.142 E.02371
G1 X82.235 Y84.592 E.02371
G1 X81.416 Y84.906 E.0237
G3 X79.01 Y85.009 I-1.435 J-5.363 E.06559
G1 X78.167 Y84.766 E.0237
G1 X77.378 Y84.383 E.0237
G1 X76.666 Y83.87 E.02371
G1 X76.053 Y83.242 E.02371
G1 X75.556 Y82.519 E.02371
G1 X75.188 Y81.718 E.02383
G1 X74.966 Y80.874 E.02358
G1 X74.89 Y80 E.02371
G1 X74.965 Y79.128 E.02365
G1 X75.188 Y78.282 E.02362
G1 X75.556 Y77.481 E.02383
G1 X76.053 Y76.758 E.02371
G1 X76.666 Y76.13 E.02371
G1 X77.378 Y75.617 E.02371
G1 X78.167 Y75.234 E.0237
G1 X79.01 Y74.991 E.0237
G1 X79.679 Y74.905 E.01821
G3 X81.416 Y75.094 I.315 J5.189 E.04745
G1 X82.235 Y75.408 E.0237
G1 X82.989 Y75.858 E.02371
G1 X83.654 Y76.431 E.02371
G3 X84.211 Y77.108 I-8.45 J7.517 E.02372
G1 X84.555 Y77.714 E.0188
G1 X84.264 Y77.925 F36000
;TYPE:Outer wall
G1 F6000
G1 X84.321 Y78.025 E.0031
G1 X84.595 Y78.791 E.02197
G1 X84.734 Y79.593 E.022
G1 X84.734 Y80.407 E.022
G1 X84.595 Y81.209 E.022
G1 X84.321 Y81.975 E.02197
G1 X83.918 Y82.687 E.0221
G3 X83.4 Y83.317 I-8.369 J-6.345 E.02203
G1 X82.783 Y83.849 E.02202
G1 X82.084 Y84.268 E.02202
G1 X81.323 Y84.561 E.02202
G1 X80.524 Y84.719 E.02201
G1 X79.883 Y84.746 E.01735
G1 X79.073 Y84.657 E.02201
G1 X78.29 Y84.43 E.02202
G1 X77.558 Y84.073 E.02202
G1 X76.897 Y83.596 E.02202
G1 X76.327 Y83.013 E.02202
G3 X75.866 Y82.341 I9.655 J-7.122 E.02203
G1 X75.526 Y81.598 E.02208
G1 X75.319 Y80.812 E.02196
G1 X75.249 Y80 E.02202
G1 X75.319 Y79.189 E.022
G1 X75.526 Y78.402 E.02198
G1 X75.866 Y77.659 E.02208
G3 X76.327 Y76.987 I10.118 J6.451 E.02203
G1 X76.897 Y76.404 E.02202
G1 X77.558 Y75.927 E.02202
G1 X78.29 Y75.57 E.02202
G1 X79.073 Y75.343 E.02202
G1 X79.71 Y75.261 E.01735
G1 X80.524 Y75.281 E.02201
G3 X81.323 Y75.439 I-.619 J5.217 E.02204
G1 X82.084 Y75.732 E.02202
G1 X82.783 Y76.151 E.02202
G1 X83.4 Y76.683 E.02202
G3 X83.918 Y77.313 I-7.854 J6.976 E.02203
G1 X84.245 Y77.89 E.01791
G1 E-.56 F1800
;WIPE_START
G1 F6000
G1 X84.321 Y78.025 E-.03718
G1 X84.595 Y78.791 E-.19518
G1 X84.6 Y78.822 E-.00764
;WIPE_END
G1 Z.6 F36000
G1 X70.117 Y93.323 Z.6
G1 Z.2
G1 E.8 F1800
;TYPE:Inner wall
G1 F6000
G1 X70.504 Y93.116 E.01184
G3 X71.673 Y92.75 I2.107 J4.686 E.03318
G1 X72.367 Y92.682 E.01886
G1 X72.633 Y92.682 E.00716
G1 X73.327 Y92.75 E.01886
G3 X75.326 Y93.601 I-.846 J4.764 E.05921
G1 X75.866 Y94.044 E.01886
G1 X76.486 Y94.78 E.02602
G1 X76.953 Y95.636 E.02633
G1 X77.233 Y96.547 E.02576
G1 X77.328 Y97.5 E.02588
G1 X77.233 Y98.453 E.02588
G1 X76.953 Y99.364 E.02576
G1 X76.486 Y100.22 E.02633
G1 X75.866 Y100.956 E.02602
G1 X75.112 Y101.555 E.02601
G3 X73.327 Y102.25 I-2.723 J-4.357 E.05205
G1 X72.633 Y102.318 E.01886
G1 X72.367 Y102.318 E.00716
G1 X71.673 Y102.25 E.01886
G3 X69.674 Y101.399 I.846 J-4.764 E.05921
G1 X69.134 Y100.956 E.01886
G1 X68.514 Y100.22 E.02602
G1 X68.047 Y99.364 E.02633
G1 X67.767 Y98.453 E.02576
G1 X67.672 Y97.5 E.02588
G1 X67.767 Y96.547 E.02588
G1 X68.047 Y95.636 E.02576
G1 X68.514 Y94.78 E.02633
G1 X69.134 Y94.044 E.02602
G1 X69.888 Y93.445 E.02601
G1 X70.082 Y93.341 E.00593
G1 X70.285 Y93.638 F36000
G1 F6000
G1 X70.663 Y93.443 E.01149
G3 X72.385 Y93.039 I1.895 J4.21 E.04808
G1 X72.615 Y93.039 E.00621
G1 X73.272 Y93.104 E.01784
G3 X74.922 Y93.748 I-.877 J4.677 E.04813
G1 X75.619 Y94.303 E.02405
G3 X76.191 Y94.984 I-7.149 J6.591 E.02407
G1 X76.622 Y95.774 E.02429
G1 X76.881 Y96.618 E.02387
G1 X76.969 Y97.5 E.02395
G1 X76.881 Y98.382 E.02395
G1 X76.622 Y99.226 E.02387
G1 X76.191 Y100.016 E.02429
G1 X75.619 Y100.697 E.02406
G3 X72.385 Y101.961 I-3.169 J-3.341 E.09617
G1 X71.728 Y101.896 E.01784
G3 X70.078 Y101.252 I.877 J-4.677 E.04813
G1 X69.381 Y100.697 E.02405
G3 X68.809 Y100.016 I7.149 J-6.591 E.02407
G1 X68.378 Y99.226 E.02429
G1 X68.119 Y98.382 E.02387
G1 X68.031 Y97.5 E.02395
G1 X68.119 Y96.618 E.02395
G1 X68.378 Y95.774 E.02387
G1 X68.809 Y94.984 E.02429
G1 X69.381 Y94.303 E.02406
G3 X70.083 Y93.756 I3.177 J3.35 E.02407
G1 X70.251 Y93.658 E.00526
G1 X70.468 Y93.949 F36000
G1 F6000
G1 X70.996 Y93.679 E.01602
G3 X72.403 Y93.396 I1.527 J3.961 E.03896
G3 X74.004 Y93.679 I.081 J4.221 E.04422
G1 X74.732 Y94.052 E.02209
G1 X75.371 Y94.561 E.02209
G3 X75.897 Y95.188 I-6.572 J6.048 E.02211
G1 X76.291 Y95.911 E.02226
G1 X76.53 Y96.689 E.02197
G1 X76.611 Y97.5 E.02203
G1 X76.53 Y98.311 E.02203
G1 X76.291 Y99.089 E.02197
G1 X75.897 Y99.812 E.02226
G1 X75.371 Y100.439 E.0221
G1 X74.732 Y100.948 E.02209
G1 X74.004 Y101.321 E.02209
G3 X70.996 Y101.321 I-1.504 J-3.886 E.08317
G1 X70.268 Y100.948 E.02209
G1 X69.629 Y100.439 E.02209
G1 X69.103 Y99.812 E.0221
G3 X68.709 Y99.089 I10.85 J-6.377 E.02226
G1 X68.47 Y98.311 E.02197
G1 X68.389 Y97.5 E.02203
G1 X68.47 Y96.689 E.02203
G1 X68.709 Y95.911 E.02197
G1 X69.103 Y95.188 E.02226
G1 X69.629 Y94.561 E.0221
G1 X70.268 Y94.052 E.02209
G1 X70.432 Y93.967 E.00498
G1 X70.63 Y94.267 F36000
;TYPE:Outer wall
G1 F6000
G1 X71.121 Y94.014 E.01492
G1 X71.837 Y93.811 E.02013
G1 X72.42 Y93.753 E.01582
G3 X73.163 Y93.811 I.08 J3.798 E.02016
G1 X73.879 Y94.014 E.02013
G1 X74.542 Y94.355 E.02013
G1 X75.124 Y94.82 E.02014
G3 X75.602 Y95.392 I-5.995 J5.505 E.02014
G1 X75.96 Y96.049 E.02022
G1 X76.178 Y96.76 E.02008
G1 X76.252 Y97.5 E.02011
G1 X76.178 Y98.24 E.02011
G1 X75.96 Y98.951 E.02008
G1 X75.602 Y99.608 E.02022
G3 X75.124 Y100.18 I-6.473 J-4.934 E.02014
G1 X74.542 Y100.645 E.02014
G1 X73.879 Y100.986 E.02013
G1 X73.163 Y101.189 E.02013
G3 X71.837 Y101.189 I-.663 J-3.797 E.03599
G1 X71.121 Y100.986 E.02013
G1 X70.458 Y100.645 E.02013
G1 X69.876 Y100.18 E.02014
G3 X69.398 Y99.608 I5.995 J-5.505 E.02014
G1 X69.04 Y98.951 E.02022
G1 X68.822 Y98.24 E.02008
G1 X68.748 Y97.5 E.02011
G1 X68.822 Y96.76 E.02011
G1 X69.04 Y96.049 E.02008
G1 X69.398 Y95.392 E.02022
G3 X69.876 Y94.82 I6.473 J4.934 E.02014
G1 X70.458 Y94.355 E.02014
G1 X70.594 Y94.285 E.00413
G1 E-.56 F1800
;WIPE_START
G1 F6000
G1 X71.121 Y94.014 E-.14211
G1 X71.513 Y93.903 E-.09789
;WIPE_END
G1 Z.6 F36000
G1 X43.154 Y99.56 Z.6
G1 Z.2
G1 E.8 F1800
;TYPE:Inner wall
G1 F6000
G1 X43.047 Y99.364 E.00602
G1 X42.767 Y98.453 E.02576
G1 X42.672 Y97.5 E.02588
G1 X42.767 Y96.547 E.02588
G1 X43.047 Y95.636 E.02576
G1 X43.514 Y94.78 E.02633
G1 X44.134 Y94.044 E.02602
G1 X44.888 Y93.445 E.02601
G3 X46.673 Y92.75 I2.723 J4.357 E.05205
G1 X47.367 Y92.682 E.01886
G1 X47.633 Y92.682 E.00716
G1 X48.327 Y92.75 E.01886
G3 X50.326 Y93.601 I-.846 J4.764 E.05921
G1 X50.866 Y94.044 E.01886
G1 X51.486 Y94.78 E.02602
G1 X51.953 Y95.636 E.02633
G1 X52.233 Y96.547 E.02576
G1 X52.328 Y97.5 E.02588
G1 X52.233 Y98.453 E.02588
G1 X51.953 Y99.364 E.02576
G1 X51.486 Y100.22 E.02633
G1 X50.866 Y100.956 E.02602
G1 X50.112 Y101.555 E.02601
G3 X48.327 Y102.25 I-2.723 J-4.357 E.05205
G1 X47.633 Y102.318 E.01886
G1 X47.367 Y102.318 E.00716
G1 X46.673 Y102.25 E.01886
G3 X44.674 Y101.399 I.846 J-4.764 E.05921
G1 X44.134 Y100.956 E.01886
G1 X43.514 Y100.22 E.02602
G1 X43.173 Y99.595 E.01924
G1 X43.466 Y99.388 F36000
G1 F6000
G1 X43.378 Y99.226 E.00498
G1 X43.119 Y98.382 E.02387
G1 X43.031 Y97.5 E.02395
G1 X43.119 Y96.618 E.02395
G1 X43.378 Y95.774 E.02387
G1 X43.809 Y94.984 E.02429
G1 X44.381 Y94.303 E.02406
G3 X47.385 Y93.039 I3.177 J3.35 E.08998
G1 X47.615 Y93.039 E.00621
G1 X48.272 Y93.104 E.01784
G3 X49.922 Y93.748 I-.877 J4.677 E.04813
G1 X50.619 Y94.303 E.02405
G3 X51.191 Y94.984 I-7.149 J6.591 E.02407
G1 X51.622 Y95.774 E.02429
G1 X51.881 Y96.618 E.02387
G1 X51.969 Y97.5 E.02395
G1 X51.881 Y98.382 E.02395
G1 X51.622 Y99.226 E.02387
G1 X51.191 Y100.016 E.02429
G1 X50.619 Y100.697 E.02406
G3 X47.385 Y101.961 I-3.169 J-3.341 E.09617
G1 X46.728 Y101.896 E.01784
G3 X45.078 Y101.252 I.877 J-4.677 E.04813
G1 X44.381 Y100.697 E.02405
G3 X43.809 Y100.016 I7.149 J-6.591 E.02407
G1 X43.485 Y99.423 E.01823
G1 X43.779 Y99.217 F36000
G1 F6000
G1 X43.709 Y99.089 E.00395
G1 X43.47 Y98.311 E.02197
G1 X43.389 Y97.5 E.02203
G1 X43.47 Y96.689 E.02203
G1 X43.709 Y95.911 E.02197
G1 X44.103 Y95.188 E.02226
G1 X44.629 Y94.561 E.0221
G1 X45.268 Y94.052 E.02209
G1 X45.996 Y93.679 E.02209
G3 X47.403 Y93.396 I1.527 J3.961 E.03896
G3 X49.004 Y93.679 I.081 J4.221 E.04422
G1 X49.732 Y94.052 E.02209
G1 X50.371 Y94.561 E.02209
G3 X50.897 Y95.188 I-6.572 J6.048 E.02211
G1 X51.291 Y95.911 E.02226
G1 X51.53 Y96.689 E.02197
G1 X51.611 Y97.5 E.02203
G1 X51.53 Y98.311 E.02203
G1 X51.291 Y99.089 E.02197
G1 X50.897 Y99.812 E.02226
G1 X50.371 Y100.439 E.0221
G1 X49.732 Y100.948 E.02209
G1 X49.004 Y101.321 E.02209
G3 X45.996 Y101.321 I-1.504 J-3.886 E.08317
G1 X45.268 Y100.948 E.02209
G1 X44.629 Y100.439 E.02209
G1 X44.103 Y99.812 E.0221
G1 X43.798 Y99.252 E.01722
G1 X44.092 Y99.046 F36000
;TYPE:Outer wall
G1 F6000
G1 X44.04 Y98.951 E.00294
G1 X43.822 Y98.24 E.02008
G1 X43.748 Y97.5 E.02011
G1 X43.822 Y96.76 E.02011
G1 X44.04 Y96.049 E.02008
G1 X44.398 Y95.392 E.02022
G3 X44.876 Y94.82 I6.473 J4.934 E.02014
G1 X45.458 Y94.355 E.02014
G1 X46.121 Y94.014 E.02013
G1 X46.837 Y93.811 E.02013
G1 X47.42 Y93.753 E.01582
G3 X48.163 Y93.811 I.08 J3.798 E.02016
G1 X48.879 Y94.014 E.02013
G1 X49.542 Y94.355 E.02013
G1 X50.124 Y94.82 E.02014
G3 X50.602 Y95.392 I-5.995 J5.505 E.02014
G1 X50.96 Y96.049 E.02022
G1 X51.178 Y96.76 E.02008
G1 X51.252 Y97.5 E.02011
G1 X51.178 Y98.24 E.02011
G1 X50.96 Y98.951 E.02008
G1 X50.602 Y99.608 E.02022
G3 X50.124 Y100.18 I-6.473 J-4.934 E.02014
G1 X49.542 Y100.645 E.02014
G1 X48.879 Y100.986 E.02013
G1 X48.163 Y101.189 E.02013
G3 X46.837 Y101.189 I-.663 J-3.797 E.03599
G1 X46.121 Y100.986 E.02013
G1 X45.458 Y100.645 E.02013
G1 X44.876 Y100.18 E.02014
G3 X44.398 Y99.608 I5.995 J-5.505 E.02014
G1 X44.111 Y99.081 E.0162
G1 E-.56 F1800
;WIPE_START
G1 F6000
G1 X44.04 Y98.951 E-.03568
G1 X43.822 Y98.24 E-.17833
G1 X43.811 Y98.133 E-.02599
;WIPE_END
G1 Z.6 F36000
G1 X43.992 Y84.22 Z.6
G1 Z.2
G1 E.8 F1800
;TYPE:Inner wall
G1 F6000
G1 X43.4 Y84.727 E.02106
G1 X42.539 Y85.239 E.02708
G3 X36.799 Y84.856 I-2.529 J-5.303 E.16242
G1 X36.206 Y84.417 E.01995
G1 X35.504 Y83.702 E.02708
G1 X34.935 Y82.876 E.02709
G1 X34.513 Y81.957 E.02732
G1 X34.26 Y80.998 E.02682
G1 X34.174 Y79.999 E.02707
G1 X34.259 Y79.005 E.02696
G1 X34.513 Y78.043 E.02689
G1 X34.935 Y77.124 E.02732
G1 X35.504 Y76.298 E.02709
G1 X36.205 Y75.583 E.02708
G1 X37.02 Y74.998 E.02708
G3 X39.617 Y74.193 I3.034 J5.198 E.07412
G3 X42.539 Y74.761 I.36 J5.952 E.08126
G1 X43.4 Y75.273 E.02708
G3 X44.161 Y75.925 I-6.341 J8.163 E.02709
G1 X44.799 Y76.699 E.02708
G1 X45.3 Y77.58 E.02739
G1 X45.634 Y78.517 E.02687
G1 X45.805 Y79.501 E.02698
G1 X45.805 Y80.499 E.02698
G1 X45.634 Y81.483 E.02698
G1 X45.3 Y82.42 E.02687
G1 X44.799 Y83.301 E.02739
G1 X44.161 Y84.075 E.02708
G1 X44.022 Y84.194 E.00494
G1 X43.76 Y83.948 F36000
G1 F6000
G1 X43.194 Y84.434 E.02015
G1 X42.387 Y84.915 E.02539
G1 X41.509 Y85.251 E.02539
G3 X38.045 Y85.102 I-1.508 J-5.307 E.09532
G1 X37.199 Y84.692 E.02539
G1 X36.436 Y84.144 E.02539
G3 X35.778 Y83.472 I7.357 J-7.864 E.0254
G1 X35.245 Y82.698 E.0254
G1 X34.85 Y81.838 E.02557
G1 X34.613 Y80.936 E.0252
G1 X34.532 Y80 E.02539
G1 X34.612 Y79.066 E.02531
G1 X34.85 Y78.162 E.02525
G1 X35.245 Y77.302 E.02557
G1 X35.778 Y76.528 E.0254
G3 X36.436 Y75.857 I8.011 J7.189 E.0254
G1 X37.199 Y75.308 E.02539
G1 X38.045 Y74.898 E.02539
G3 X39.648 Y74.549 I1.989 J5.29 E.0445
G3 X41.509 Y74.749 I.345 J5.559 E.05082
G1 X42.387 Y75.085 E.02539
G1 X43.194 Y75.566 E.02539
G3 X43.907 Y76.178 I-5.951 J7.65 E.0254
G1 X44.505 Y76.904 E.0254
G1 X44.973 Y77.728 E.02563
G1 X45.288 Y78.608 E.02524
G1 X45.448 Y79.531 E.02532
G1 X45.448 Y80.469 E.02532
G1 X45.288 Y81.392 E.02532
G1 X44.973 Y82.272 E.02524
G1 X44.505 Y83.096 E.02563
G1 X43.907 Y83.822 E.0254
G1 X43.791 Y83.922 E.00416
G1 X43.528 Y83.677 F36000
G1 F6000
G1 X42.989 Y84.142 E.01923
G1 X42.235 Y84.592 E.02371
G1 X41.416 Y84.906 E.0237
G3 X39.01 Y85.009 I-1.435 J-5.363 E.06559
G1 X38.167 Y84.766 E.0237
G1 X37.378 Y84.383 E.0237
G1 X36.666 Y83.87 E.02371
G1 X36.053 Y83.242 E.02371
G1 X35.556 Y82.519 E.02371
G1 X35.188 Y81.718 E.02383
G1 X34.966 Y80.874 E.02358
G1 X34.89 Y80 E.02371
G1 X34.965 Y79.128 E.02365
G1 X35.188 Y78.282 E.02362
G1 X35.556 Y77.481 E.02383
G1 X36.053 Y76.758 E.02371
G1 X36.666 Y76.13 E.02371
G1 X37.378 Y75.617 E.02371
G1 X38.167 Y75.234 E.0237
G1 X39.01 Y74.991 E.0237
G1 X39.679 Y74.905 E.01821
G3 X41.416 Y75.094 I.315 J5.189 E.04745
G1 X42.235 Y75.408 E.0237
G1 X42.989 Y75.858 E.02371
G1 X43.654 Y76.431 E.02371
G3 X44.211 Y77.108 I-8.45 J7.517 E.02372
G1 X44.647 Y77.877 E.02386
G1 X44.941 Y78.699 E.02361
G1 X45.091 Y79.562 E.02366
G1 X45.091 Y80.438 E.02366
G1 X44.941 Y81.301 E.02366
