; HEADER_BLOCK_START
; generated by OrcaSlicer 2.3.1 on 2025-11-24 at 17:31:04
; total layer number: 120
; filament_density: 1.04
; filament_diameter: 1.75
; max_z_height: 24.00
; HEADER_BLOCK_END

; THUMBNAIL_BLOCK_START

;
; THUMBNAIL_BLOCK_END

; THUMBNAIL_BLOCK_START

;
; THUMBNAIL_BLOCK_END

; external perimeters extrusion width = 0.40mm
; perimeters extrusion width = 0.40mm
; infill extrusion width = 0.40mm
; solid infill extrusion width = 0.40mm
; top infill extrusion width = 0.40mm
; first layer extrusion width = 0.40mm

; external perimeters extrusion width = 0.40mm
; perimeters extrusion width = 0.40mm
; infill extrusion width = 0.40mm
; solid infill extrusion width = 0.40mm
; top infill extrusion width = 0.40mm
; first layer extrusion width = 0.40mm

; external perimeters extrusion width = 0.40mm
; perimeters extrusion width = 0.40mm
; infill extrusion width = 0.40mm
; solid infill extrusion width = 0.40mm
; top infill extrusion width = 0.40mm
; first layer extrusion width = 0.40mm

; external perimeters extrusion width = 0.40mm
; perimeters extrusion width = 0.40mm
; infill extrusion width = 0.40mm
; solid infill extrusion width = 0.40mm
; top infill extrusion width = 0.40mm
; first layer extrusion width = 0.40mm

; EXECUTABLE_BLOCK_START


; Pre-Processed for Cancel-Object support by preprocess_cancellation v0.2.0
; 1 known objects
EXCLUDE_OBJECT_DEFINE NAME=Body1_id_15_copy_0 CENTER=53.439,61.155 POLYGON=[[33.325,42.7],[33.325,77.3],[86.675,77.3],[86.675,42.7]]
M73 P0 R30
;TYPE:Custom
PRINT_START EXTRUDER_TEMP=250 BED_TEMP=110
G90
G21
M83 ; use relative distances for extrusion
; Filament gcode
SET_PRESSURE_ADVANCE ADVANCE=0.04; Override pressure advance value
M106 S0
;LAYER_CHANGE
;Z:0.2
;HEIGHT:0.2
;BEFORE_LAYER_CHANGE
;0.2
G92 E0

G1 E-.8 F1800
;AFTER_LAYER_CHANGE
;0.2
;_SET_FAN_SPEED_CHANGING_LAYER
SET_VELOCITY_LIMIT ACCEL=10000 ACCEL_TO_DECEL=10000
SET_VELOCITY_LIMIT SQUARE_CORNER_VELOCITY=9
; printing object Body1 id:15 copy 0
EXCLUDE_OBJECT_START NAME=Body1_id_15_copy_0
G1 Z.6 F36000
G1 X38.705 Y48.891
G1 Z.6
G1 Z.2
G1 E.8 F1800
;TYPE:Outer wall
;WIDTH:0.4
G1 F6000
G1 X38.858 Y49.262 E.01086
G1 X38.917 Y49.404 E.00415
G1 X38.996 Y50 E.01624
G1 X38.917 Y50.596 E.01624
G1 X38.687 Y51.152 E.01624
G1 X38.321 Y51.628 E.01624
G1 X37.844 Y51.994 E.01624
G1 X37.431 Y52.166 E.01209
G1 X37.289 Y52.225 E.00415
G1 X36.693 Y52.303 E.01624
G1 X36.097 Y52.225 E.01624
G1 X35.541 Y51.994 E.01624
G1 X35.064 Y51.628 E.01624
G1 X34.698 Y51.152 E.01624
G1 X34.468 Y50.596 E.01624
G1 X34.39 Y50 E.01624
G1 X34.468 Y49.404 E.01624
G1 X34.639 Y48.991 E.01209
G1 X34.698 Y48.848 E.00415
G1 X35.064 Y48.372 E.01624
G1 X35.541 Y48.006 E.01624
G1 X36.097 Y47.775 E.01624
G1 X36.54 Y47.717 E.01209
G1 X36.693 Y47.697 E.00415
G1 X37.289 Y47.775 E.01624
G1 X37.844 Y48.006 E.01624
G1 X38.321 Y48.372 E.01624
G1 X38.687 Y48.848 E.01624
G1 X38.689 Y48.854 E.00015
G1 E-.56 F1800
;WIPE_START
G1 F6000
G1 X38.858 Y49.262 E-.10606
G1 X38.917 Y49.404 E-.0369
G1 X38.97 Y49.805 E-.09704
;WIPE_END
G1 Z.6 F36000
G1 X45.472 Y50.171 Z.6
G1 Z.2
G1 E.8 F1800
;TYPE:Inner wall
G1 F6000
G1 X45.472 Y55.779 E.15151
G1 X35.064 Y55.779 E.2812
G1 X35.064 Y52.956 E.07626
G1 X35.817 Y53.268 E.02202
G1 X36.693 Y53.384 E.02387
G1 X37.568 Y53.268 E.02386
G1 X38.385 Y52.93 E.02387
G1 X39.085 Y52.393 E.02387
G1 X39.623 Y51.692 E.02387
G1 X39.961 Y50.876 E.02387
G1 X40.076 Y50 E.02386
G1 X39.961 Y49.124 E.02386
G1 X39.623 Y48.308 E.02387
G1 X39.085 Y47.608 E.02386
G1 X38.385 Y47.07 E.02387
G1 X37.568 Y46.732 E.02387
G1 X36.693 Y46.617 E.02386
G1 X35.817 Y46.732 E.02386
G1 X35.064 Y47.044 E.02202
G1 X35.064 Y44.971 E.056
G1 X45.472 Y44.971 E.2812
G1 X45.472 Y50.131 E.13942
G1 X45.829 Y49.814 F36000
G1 F6000
G1 X46.729 Y49.814 E.02432
G1 X46.729 Y50.186 E.01004
G1 X45.829 Y50.186 E.02432
G1 X45.829 Y56.136 E.16076
G1 X34.707 Y56.136 E.3005
G1 X34.707 Y52.254 E.10487
G1 X35.181 Y52.618 E.01615
G1 X35.91 Y52.92 E.02133
G1 X36.693 Y53.023 E.02132
G1 X37.475 Y52.92 E.02132
G1 X38.204 Y52.618 E.02133
G1 X38.831 Y52.138 E.02132
G1 X39.311 Y51.512 E.02132
G1 X39.613 Y50.782 E.02132
G1 X39.716 Y50 E.02132
G1 X39.613 Y49.218 E.02132
G1 X39.311 Y48.488 E.02133
G1 X38.831 Y47.862 E.02132
G1 X38.204 Y47.382 E.02133
G1 X37.475 Y47.08 E.02132
G1 X36.693 Y46.977 E.02132
G1 X35.91 Y47.08 E.02132
G1 X35.181 Y47.382 E.02133
G1 X34.707 Y47.746 E.01615
G1 X34.707 Y44.614 E.08461
G1 X45.381 Y44.614 E.28842
G1 X45.829 Y44.28 E.01508
G1 X45.829 Y49.774 E.14844
G1 X46.186 Y49.457 F36000
G1 F6000
G1 X47.086 Y49.457 E.02432
G1 X47.086 Y50.543 E.02934
G1 X46.186 Y50.543 E.02432
G1 X46.186 Y56.493 E.16076
G1 X34.35 Y56.493 E.31979
G1 X34.35 Y51.523 E.13429
G1 X34.495 Y51.473 E.00415
G1 X34.81 Y51.883 E.01395
G1 X35.361 Y52.306 E.01878
G1 X36.004 Y52.572 E.01878
G1 X36.693 Y52.663 E.01878
G1 X37.382 Y52.572 E.01878
G1 X38.024 Y52.306 E.01878
G1 X38.576 Y51.883 E.01878
G1 X38.999 Y51.332 E.01878
G1 X39.265 Y50.689 E.01878
G1 X39.356 Y50 E.01878
G1 X39.265 Y49.311 E.01878
G1 X39.188 Y49.125 E.00542
G1 X38.999 Y48.668 E.01336
G1 X38.576 Y48.117 E.01878
G1 X38.024 Y47.694 E.01879
G1 X37.382 Y47.428 E.01878
G1 X36.693 Y47.337 E.01878
G1 X36.004 Y47.428 E.01878
G1 X35.361 Y47.694 E.01879
G1 X34.81 Y48.117 E.01878
G1 X34.495 Y48.527 E.01395
G1 X34.35 Y48.477 E.00415
G1 X34.35 Y43.979 E.12155
G1 X34.723 Y44.257 E.01258
G1 X45.263 Y44.257 E.28478
G1 X46.186 Y43.568 E.03113
G1 X46.186 Y49.417 E.15805
G1 X46.543 Y49.1 F36000
;TYPE:Outer wall
G1 F6000
G1 X47.443 Y49.1 E.02432
G1 X47.443 Y50.9 E.04863
G1 X46.543 Y50.9 E.02432
G1 X46.543 Y56.727 E.15744
G3 X46.42 Y56.85 I-.116 J.007 E.00531
G1 X34.116 Y56.85 E.33245
G3 X33.993 Y56.727 I-.007 J-.116 E.00531
G1 X33.993 Y43.265 E.36374
G2 X34.841 Y43.9 I17.903 J-23.014 E.02863
G1 X45.144 Y43.9 E.27837
G2 X46.14 Y43.15 I-20.105 J-27.734 E.03369
G3 X46.446 Y43.153 I.14 J1.161 E.00828
G3 X46.543 Y43.273 I-.014 J.111 E.0046
G1 X46.543 Y49.06 E.15636
G1 E-.56 F1800
;WIPE_START
G1 F6000
G1 X47.443 Y49.1 E-.21621
G1 X47.443 Y49.199 E-.02379
;WIPE_END
G1 Z.6 F36000
G1 X45.364 Y45.244 Z.6
G1 Z.2
G1 E.8 F1800
;TYPE:Bottom surface
;WIDTH:0.409436
G1 F12600
G1 X35.332 Y45.244 E.27824
G1 X35.332 Y45.61 E.01016
G1 X45.204 Y45.61 E.27378
G1 X45.204 Y45.977 E.01016
G1 X35.332 Y45.977 E.27378
G1 X35.332 Y46.343 E.01016
G1 X45.204 Y46.343 E.27378
G1 X45.204 Y46.71 E.01016
G1 X38.215 Y46.71 E.19381
G1 X38.52 Y46.836 E.00913
G1 X38.833 Y47.076 E.01096
G1 X45.204 Y47.076 E.17668
G1 X45.204 Y47.443 E.01016
G1 X39.297 Y47.443 E.16383
G1 X39.578 Y47.809 E.01281
G1 X45.204 Y47.809 E.15603
G1 X45.204 Y48.176 E.01016
G1 X39.858 Y48.176 E.14825
G1 X40.01 Y48.542 E.011
G1 X45.204 Y48.542 E.14404
G1 X45.204 Y48.909 E.01016
G1 X40.162 Y48.909 E.13983
G3 X40.251 Y49.275 I-.639 J.35 E.01058
G1 X45.204 Y49.275 E.13735
G1 X45.204 Y49.642 E.01016
G1 X40.299 Y49.642 E.13602
G1 X40.345 Y50.009 E.01024
G1 X45.204 Y50.009 E.13474
G1 X45.204 Y50.375 E.01016
G1 X40.297 Y50.375 E.13608
G1 X40.249 Y50.742 E.01025
G1 X45.204 Y50.742 E.13742
G1 X45.204 Y51.108 E.01016
G1 X40.155 Y51.108 E.14003
G1 X40.003 Y51.475 E.011
G1 X45.204 Y51.475 E.14424
G1 X45.204 Y51.841 E.01016
G1 X39.846 Y51.841 E.14859
G1 X39.565 Y52.208 E.01281
G1 X45.204 Y52.208 E.15639
G1 X45.204 Y52.574 E.01016
G1 X39.283 Y52.574 E.16419
G1 X38.811 Y52.941 E.01659
G1 X45.204 Y52.941 E.1773
G1 X45.204 Y53.307 E.01016
G1 X38.174 Y53.307 E.19495
G1 X37.638 Y53.529 E.01609
G1 X36.693 Y53.654 E.02645
G1 X35.747 Y53.529 E.02645
G1 X35.332 Y53.357 E.01247
G1 X35.332 Y53.674 E.00878
G1 X45.204 Y53.674 E.27378
G1 X45.204 Y54.04 E.01016
G1 X35.332 Y54.04 E.27378
G1 X35.332 Y54.407 E.01016
G1 X45.204 Y54.407 E.27378
G1 X45.204 Y54.773 E.01016
G1 X35.332 Y54.773 E.27378
G1 X35.332 Y55.14 E.01016
G1 X45.204 Y55.14 E.27378
G1 X45.204 Y55.506 E.01016
G1 X35.171 Y55.506 E.27824
G1 E-.65714 F1800
;WIPE_START
G1 F12600
G1 X36.171 Y55.506 E-.14286
;WIPE_END
G1 Z.6 F36000
G1 X34.367 Y51.328 Z.6
G1 Z.2
G1 E.8 F1800
;TYPE:Gap infill
;WIDTH:0.344729
G1 F6000
G1 X34.334 Y51.163 E.00385
;WIDTH:0.295025
G1 X34.301 Y50.998 E.00322
;WIDTH:0.245321
G1 X34.268 Y50.832 E.00258
;WIDTH:0.195618
G1 X34.235 Y50.667 E.00195
;WIDTH:0.168598
G1 X34.233 Y50.651 E.00016
;WIDTH:0.147551
G1 X34.213 Y50.351 E.00238
;WIDTH:0.128674
G1 X34.194 Y50.051 E.00195
G1 X34.194 Y49.949 F36000
;WIDTH:0.128675
G1 F6000
G1 X34.213 Y49.649 E.00195
;WIDTH:0.147552
G1 X34.233 Y49.349 E.00238
;WIDTH:0.168597
G1 X34.235 Y49.333 E.00016
;WIDTH:0.195618
G1 X34.268 Y49.168 E.00195
;WIDTH:0.245321
G1 X34.301 Y49.002 E.00258
;WIDTH:0.295024
G1 X34.334 Y48.837 E.00322
;WIDTH:0.344728
G1 X34.367 Y48.672 E.00385
; stop printing object Body1 id:15 copy 0
EXCLUDE_OBJECT_END NAME=Body1_id_15_copy_0
; printing object Body1 id:15 copy 0
EXCLUDE_OBJECT_START NAME=Body1_id_15_copy_0
G1 E-.74943 F1800
;WIPE_START
G1 F6000
G1 X34.334 Y48.837 E-.05057
;WIPE_END
G1 Z.6 F36000
G1 X46.181 Y71.592 Z.6
G1 Z.2
G1 E.8 F1800
;TYPE:Outer wall
;WIDTH:0.4
G1 F6000
G1 X46.153 Y71.628 E.00123
G1 X45.677 Y71.994 E.01624
G1 X45.263 Y72.166 E.01209
G1 X45.121 Y72.225 E.00415
G1 X44.525 Y72.303 E.01624
G1 X43.929 Y72.225 E.01624
G1 X43.373 Y71.994 E.01624
G1 X42.897 Y71.628 E.01624
G1 X42.531 Y71.152 E.01624
G1 X42.3 Y70.596 E.01624
G1 X42.222 Y70 E.01624
G1 X42.3 Y69.404 E.01624
G1 X42.531 Y68.848 E.01624
G1 X42.897 Y68.372 E.01624
G1 X43.373 Y68.006 E.01624
G1 X43.929 Y67.775 E.01624
G1 X44.373 Y67.717 E.01209
G1 X44.525 Y67.697 E.00415
G1 X45.121 Y67.775 E.01624
G1 X45.676 Y68.006 E.01624
G1 X46.153 Y68.372 E.01624
G1 X46.519 Y68.848 E.01624
G1 X46.75 Y69.404 E.01624
G1 X46.828 Y70 E.01624
G1 X46.75 Y70.596 E.01624
G1 X46.519 Y71.152 E.01624
G1 X46.206 Y71.561 E.01393
G1 E-.56 F1800
;WIPE_START
G1 F6000
G1 X46.153 Y71.628 E-.02053
G1 X45.677 Y71.994 E-.14429
G1 X45.387 Y72.114 E-.07518
;WIPE_END
G1 Z.6 F36000
G1 X46.154 Y72.956 Z.6
G1 Z.2
G1 E.8 F1800
;TYPE:Inner wall
G1 F6000
G1 X46.154 Y75.779 E.07626
G1 X35.746 Y75.779 E.2812
G1 X35.746 Y64.971 E.29201
G1 X46.154 Y64.971 E.2812
G1 X46.154 Y67.044 E.056
G1 X45.401 Y66.732 E.02202
G1 X44.525 Y66.617 E.02386
G1 X43.649 Y66.732 E.02387
G1 X42.833 Y67.07 E.02387
G1 X42.132 Y67.608 E.02387
G1 X41.595 Y68.308 E.02386
G1 X41.257 Y69.124 E.02387
G1 X41.141 Y70 E.02386
G1 X41.257 Y70.876 E.02387
G1 X41.595 Y71.692 E.02386
G1 X42.132 Y72.393 E.02387
G1 X42.833 Y72.93 E.02386
G1 X43.649 Y73.268 E.02387
G1 X44.525 Y73.384 E.02387
G1 X45.401 Y73.268 E.02386
G1 X46.117 Y72.972 E.02094
G1 E-.56 F1800
;WIPE_START
G1 F6000
G1 X46.13 Y73.972 E-.24
;WIPE_END
G1 Z.6 F36000
G1 X35.389 Y69.814 Z.6
G1 Z.2
G1 E.8 F1800
G1 F6000
G1 X35.389 Y64.28 E.14953
G1 X35.836 Y64.614 E.01508
G1 X46.511 Y64.614 E.28842
G1 X46.511 Y67.746 E.08461
G1 X46.037 Y67.382 E.01615
G1 X45.307 Y67.08 E.02133
G1 X44.525 Y66.977 E.02132
G1 X43.742 Y67.08 E.02132
G1 X43.013 Y67.382 E.02132
G1 X42.387 Y67.862 E.02133
G1 X41.907 Y68.488 E.02132
G1 X41.605 Y69.218 E.02132
G1 X41.502 Y70 E.02132
G1 X41.605 Y70.782 E.02132
G1 X41.907 Y71.512 E.02132
G1 X42.387 Y72.138 E.02133
G1 X43.013 Y72.618 E.02132
G1 X43.742 Y72.92 E.02132
G1 X44.525 Y73.023 E.02133
G1 X45.307 Y72.92 E.02132
G1 X46.037 Y72.618 E.02133
G1 X46.511 Y72.254 E.01615
G1 X46.511 Y76.136 E.10487
G1 X35.389 Y76.136 E.3005
G1 X35.389 Y70.186 E.16076
G1 X34.489 Y70.186 E.02432
G1 X34.489 Y69.814 E.01004
G1 X35.349 Y69.814 E.02324
G1 X35.032 Y69.457 F36000
G1 F6000
G1 X35.032 Y63.568 E.15913
G1 X35.955 Y64.257 E.03113
G1 X46.495 Y64.257 E.28478
G1 X46.868 Y63.979 E.01258
G1 X46.868 Y68.477 E.12155
G1 X46.723 Y68.527 E.00415
G1 X46.408 Y68.117 E.01395
G1 X45.857 Y67.694 E.01878
G1 X45.214 Y67.428 E.01878
G1 X44.525 Y67.337 E.01878
G1 X43.836 Y67.428 E.01878
G1 X43.193 Y67.694 E.01878
G1 X42.642 Y68.117 E.01878
G1 X42.219 Y68.668 E.01878
G1 X41.953 Y69.311 E.01878
G1 X41.862 Y70 E.01878
G1 X41.953 Y70.689 E.01878
G1 X42.219 Y71.332 E.01878
G1 X42.642 Y71.883 E.01878
G1 X43.193 Y72.306 E.01878
G1 X43.836 Y72.572 E.01878
G1 X44.525 Y72.663 E.01878
G1 X45.214 Y72.572 E.01878
G1 X45.857 Y72.306 E.01878
G1 X46.408 Y71.883 E.01878
G1 X46.723 Y71.473 E.01395
G1 X46.868 Y71.523 E.00415
G1 X46.868 Y76.493 E.13429
G1 X35.032 Y76.493 E.31979
G1 X35.032 Y70.543 E.16076
G1 X34.132 Y70.543 E.02432
G1 X34.132 Y69.457 E.02934
G1 X34.992 Y69.457 E.02324
G1 X34.675 Y69.1 F36000
;TYPE:Outer wall
G1 F6000
G1 X34.675 Y63.273 E.15744
G3 X34.798 Y63.15 I.116 J-.007 E.00531
G1 X35.014 Y63.15 E.00584
G1 X35.078 Y63.15 E.00172
G2 X36.074 Y63.9 I21.097 J-26.977 E.03369
G1 X46.376 Y63.9 E.27837
G2 X47.224 Y63.265 I-15.973 J-22.2 E.02863
G1 X47.225 Y76.727 E.36374
G3 X47.102 Y76.85 I-.116 J.007 E.00531
G1 X34.798 Y76.85 E.33245
G3 X34.675 Y76.727 I-.007 J-.116 E.00531
G1 X34.675 Y70.9 E.15744
G1 X33.775 Y70.9 E.02432
G1 X33.775 Y69.1 E.04863
G1 X34.635 Y69.1 E.02324
G1 E-.56 F1800
;WIPE_START
G1 F6000
G1 X34.642 Y68.1 E-.24
;WIPE_END
G1 Z.6 F36000
G1 X35.853 Y65.244 Z.6
G1 Z.2
G1 E.8 F1800
;TYPE:Bottom surface
;WIDTH:0.409436
G1 F12600
G1 X45.886 Y65.244 E.27823
G1 X45.886 Y65.61 E.01016
G1 X36.014 Y65.61 E.27378
G1 X36.014 Y65.977 E.01016
G1 X45.886 Y65.977 E.27378
G1 X45.886 Y66.343 E.01016
G1 X36.014 Y66.343 E.27378
G1 X36.014 Y66.71 E.01016
G1 X43.002 Y66.71 E.19381
G1 X42.698 Y66.836 E.00913
G1 X42.385 Y67.076 E.01096
G1 X36.014 Y67.076 E.17668
G1 X36.014 Y67.443 E.01016
G1 X41.921 Y67.443 E.16382
G1 X41.64 Y67.809 E.01281
G1 X36.014 Y67.809 E.15602
G1 X36.014 Y68.176 E.01016
G1 X41.36 Y68.176 E.14825
G1 X41.208 Y68.542 E.011
G1 X36.014 Y68.542 E.14404
G1 X36.014 Y68.909 E.01016
G1 X41.056 Y68.909 E.13983
G2 X40.967 Y69.275 I.639 J.35 E.01058
G1 X36.014 Y69.275 E.13735
G1 X36.014 Y69.642 E.01016
G1 X40.918 Y69.642 E.13602
G1 X40.872 Y70.009 E.01024
G1 X36.014 Y70.009 E.13474
G1 X36.014 Y70.375 E.01016
G1 X40.921 Y70.375 E.13608
G1 X40.969 Y70.742 E.01025
G1 X36.014 Y70.742 E.13742
G1 X36.014 Y71.108 E.01016
G1 X41.063 Y71.108 E.14003
G1 X41.215 Y71.475 E.011
G1 X36.014 Y71.475 E.14424
G1 X36.014 Y71.841 E.01016
G1 X41.372 Y71.841 E.14859
G1 X41.653 Y72.208 E.01281
G1 X36.014 Y72.208 E.15639
G1 X36.014 Y72.574 E.01016
G1 X41.934 Y72.574 E.16419
G1 X42.407 Y72.941 E.01659
G1 X36.014 Y72.941 E.17729
G1 X36.014 Y73.307 E.01016
G1 X43.043 Y73.307 E.19495
G1 X43.579 Y73.529 E.01609
G1 X44.525 Y73.654 E.02645
G1 X45.471 Y73.529 E.02645
G1 X45.886 Y73.357 E.01247
G1 X45.886 Y73.674 E.00878
G1 X36.014 Y73.674 E.27378
G1 X36.014 Y74.04 E.01016
G1 X45.886 Y74.04 E.27378
G1 X45.886 Y74.407 E.01016
G1 X36.014 Y74.407 E.27378
G1 X36.014 Y74.773 E.01016
G1 X45.886 Y74.773 E.27378
G1 X45.886 Y75.14 E.01016
G1 X36.014 Y75.14 E.27378
G1 X36.014 Y75.506 E.01016
G1 X46.047 Y75.506 E.27823
G1 E-.65714 F1800
;WIPE_START
G1 F12600
G1 X45.047 Y75.506 E-.14286
;WIPE_END
G1 Z.6 F36000
G1 X46.851 Y71.328 Z.6
G1 Z.2
G1 E.8 F1800
;TYPE:Gap infill
;WIDTH:0.344727
G1 F6000
G1 X46.884 Y71.163 E.00385
;WIDTH:0.295022
G1 X46.917 Y70.998 E.00322
;WIDTH:0.245317
G1 X46.95 Y70.832 E.00258
;WIDTH:0.195613
G1 X46.983 Y70.667 E.00195
;WIDTH:0.168593
G1 X46.985 Y70.651 E.00016
;WIDTH:0.147547
G1 X47.004 Y70.351 E.00238
;WIDTH:0.128672
G1 X47.024 Y70.051 E.00195
G1 X47.024 Y69.949 F36000
;WIDTH:0.109797
G1 F6000
G1 X47.004 Y69.649 E.00152
;WIDTH:0.148646
G2 X46.983 Y69.333 I-2.405 J.007 E.00254
;WIDTH:0.195613
G1 X46.95 Y69.168 E.00195
;WIDTH:0.245317
G1 X46.917 Y69.002 E.00258
;WIDTH:0.295021
G1 X46.884 Y68.837 E.00322
;WIDTH:0.319873
G1 X46.851 Y68.672 E.00353
; stop printing object Body1 id:15 copy 0
EXCLUDE_OBJECT_END NAME=Body1_id_15_copy_0
; printing object Body1 id:15 copy 0
EXCLUDE_OBJECT_START NAME=Body1_id_15_copy_0
G1 E-.74943 F1800
;WIPE_START
G1 F6000
G1 X46.884 Y68.837 E-.05057
;WIPE_END
G1 Z.6 F36000
G1 X64.911 Y58.834 Z.6
G1 Z.2
G1 E.8 F1800
;TYPE:Inner wall
;WIDTH:0.4
G1 F6000
G1 X65.654 Y59.263 E.02318
G1 X65.654 Y59.737 E.01279
G1 X64.754 Y60.256 E.02808
G1 X64.754 Y75.779 E.4194
G1 X64.338 Y75.779 E.01123
G1 X54.596 Y70.154 E.30394
G1 X54.596 Y53.721 E.44401
G1 X64.754 Y53.721 E.27445
G1 X64.754 Y58.744 E.1357
G1 X64.876 Y58.814 E.00381
G1 X65.215 Y58.598 F36000
G1 F6000
G1 X66.011 Y59.057 E.02482
