; HEADER_BLOCK_START
; generated by OrcaSlicer 2.3.1 on 2025-11-23 at 12:40:38
; total layer number: 100
; filament_density: 1.04
; filament_diameter: 1.75
; max_z_height: 20.00
; HEADER_BLOCK_END

; THUMBNAIL_BLOCK_START

;
; THUMBNAIL_BLOCK_END

; THUMBNAIL_BLOCK_START

;
; THUMBNAIL_BLOCK_END

; external perimeters extrusion width = 0.40mm
; perimeters extrusion width = 0.40mm
; infill extrusion width = 0.40mm
; solid infill extrusion width = 0.40mm
; top infill extrusion width = 0.40mm
; first layer extrusion width = 0.40mm

; EXECUTABLE_BLOCK_START


; Pre-Processed for Cancel-Object support by preprocess_cancellation v0.2.0
; 1 known objects
EXCLUDE_OBJECT_DEFINE NAME=Body1_stl_id_15_copy_0 CENTER=59.571,62.613 POLYGON=[[0.179,19.712],[0.179,100.107],[119.821,100.107],[119.821,19.712]]
M73 P0 R23
;TYPE:Custom
PRINT_START EXTRUDER_TEMP=250 BED_TEMP=110
G90
G21
M83 ; use relative distances for extrusion
; Filament gcode
SET_PRESSURE_ADVANCE ADVANCE=0.04; Override pressure advance value
M106 S0
;LAYER_CHANGE
;Z:0.2
;HEIGHT:0.2
;BEFORE_LAYER_CHANGE
;0.2
G92 E0

G1 E-.8 F1800
;AFTER_LAYER_CHANGE
;0.2
;_SET_FAN_SPEED_CHANGING_LAYER
SET_VELOCITY_LIMIT ACCEL=10000 ACCEL_TO_DECEL=10000
SET_VELOCITY_LIMIT SQUARE_CORNER_VELOCITY=9
; printing object Body1.stl id:15 copy 0
EXCLUDE_OBJECT_START NAME=Body1_stl_id_15_copy_0
G1 Z.6 F36000
G1 X4.21 Y19.927
G1 Z.6
G1 Z.2
G1 E.8 F1800
;TYPE:Brim
;WIDTH:0.4
G1 F6000
G1 X4.827 Y19.824 E.01691
G1 X5.418 Y19.755 E.01607
G1 X6.154 Y19.712 E.01991
G1 X113.846 Y19.712 E2.90974
G1 X114.556 Y19.752 E.0192
G1 X115.124 Y19.816 E.01544
G1 X115.898 Y19.952 E.02123
G1 X116.473 Y20.12 E.0162
G1 X117.035 Y20.315 E.01607
G1 X117.76 Y20.617 E.02123
G1 X118.308 Y20.921 E.01691
G1 X118.812 Y21.235 E.01606
G1 X119.452 Y21.691 E.02123
G1 X119.821 Y22.022 E.01341
G1 X119.821 Y99.041 E2.08096
G1 X119.206 Y99.411 E.01941
G1 X118.493 Y99.724 E.02104
G1 X117.746 Y99.946 E.02105
G1 X116.977 Y100.074 E.02108
G1 X116.335 Y100.107 E.01734
G1 X3.666 Y100.107 E3.04424
G1 X2.882 Y100.058 E.0212
G1 X2.117 Y99.913 E.02105
G1 X1.376 Y99.674 E.02105
G1 X.669 Y99.344 E.02107
G1 X.179 Y99.042 E.01557
G1 X.179 Y22.025 E2.08094
G1 X.635 Y21.622 E.01645
G1 X1.125 Y21.277 E.0162
G1 X1.627 Y20.959 E.01607
G1 X2.316 Y20.58 E.02123
G1 X2.895 Y20.342 E.01691
G1 X3.455 Y20.143 E.01606
G1 X4.172 Y19.938 E.02015
G1 X4.27 Y20.281 F36000
G1 F6000
G1 X4.283 Y20.278 E.00038
G1 X4.875 Y20.178 E.01621
G1 X5.452 Y20.11 E.01571
G1 X6.167 Y20.069 E.01935
G1 X113.839 Y20.069 E2.90919
G1 X114.523 Y20.107 E.0185
G1 X115.069 Y20.169 E.01486
G1 X115.811 Y20.299 E.02033
G1 X116.362 Y20.46 E.01552
G1 X116.911 Y20.65 E.01569
G1 X117.599 Y20.936 E.02013
G1 X118.129 Y21.23 E.01636
G1 X118.617 Y21.534 E.01554
G1 X119.224 Y21.966 E.02013
G1 X119.429 Y22.15 E.00744
G1 X119.464 Y22.23 E.00236
G1 X119.464 Y98.778 E2.06827
G1 X119.412 Y98.87 E.00285
G1 X119.035 Y99.096 E.01188
G1 X118.376 Y99.385 E.01946
G1 X117.672 Y99.596 E.01984
G1 X116.944 Y99.718 E.01994
G1 X116.324 Y99.75 E.01679
G1 X3.68 Y99.75 E3.04352
G1 X2.934 Y99.703 E.0202
G1 X2.199 Y99.564 E.0202
G1 X1.5 Y99.338 E.01984
G1 X.844 Y99.032 E.01956
G1 X.587 Y98.874 E.00817
G1 X.536 Y98.783 E.00282
G1 X.536 Y22.234 E2.06828
G1 X.572 Y22.154 E.00238
G1 X.852 Y21.907 E.01009
G1 X1.322 Y21.575 E.01552
G1 X1.812 Y21.264 E.01569
G1 X2.465 Y20.905 E.02013
G1 X3.02 Y20.676 E.01622
G1 X3.567 Y20.482 E.01568
G1 X4.232 Y20.292 E.01868
G1 X4.33 Y20.636 F36000
G1 F6000
G1 X4.357 Y20.628 E.00076
G1 X4.923 Y20.532 E.01552
G1 X5.487 Y20.466 E.01534
G1 X6.181 Y20.426 E.01879
G1 X113.826 Y20.426 E2.90848
G1 X114.49 Y20.463 E.01796
G1 X115.015 Y20.522 E.01428
G1 X115.724 Y20.647 E.01944
G1 X116.251 Y20.8 E.01485
G1 X116.781 Y20.983 E.01514
G1 X117.438 Y21.256 E.01922
G1 X117.95 Y21.539 E.01581
G1 X118.422 Y21.834 E.01504
G1 X119.063 Y22.303 E.02146
G1 X119.107 Y22.389 E.00262
G1 X119.107 Y98.576 E2.05848
G1 X119.055 Y98.667 E.00286
G1 X118.865 Y98.78 E.00598
G1 X118.258 Y99.047 E.0179
G1 X117.597 Y99.245 E.01864
G1 X116.911 Y99.361 E.0188
G1 X116.312 Y99.393 E.01623
G1 X3.694 Y99.393 E3.04281
G1 X2.972 Y99.347 E.01957
G1 X2.281 Y99.216 E.01899
G1 X1.624 Y99.002 E.01866
G1 X.953 Y98.679 E.02011
G1 X.893 Y98.583 E.00308
G1 X.893 Y22.395 E2.05852
G1 X.929 Y22.315 E.00238
M73 P0 R22
G1 X1.069 Y22.191 E.00506
G1 X1.518 Y21.874 E.01485
G1 X1.997 Y21.57 E.01532
G1 X2.615 Y21.231 E.01905
G1 X3.145 Y21.011 E.01552
G1 X3.679 Y20.822 E.0153
G1 X4.291 Y20.647 E.01721
G1 X4.389 Y20.99 F36000
G1 F6000
G1 X4.43 Y20.978 E.00115
G1 X4.971 Y20.886 E.01482
G1 X5.521 Y20.822 E.01496
G1 X6.194 Y20.783 E.01823
G1 X113.813 Y20.783 E2.90776
G1 X114.457 Y20.819 E.01742
G1 X114.961 Y20.875 E.0137
G1 X115.637 Y20.994 E.01854
G1 X116.141 Y21.139 E.01417
G1 X116.651 Y21.315 E.01458
G1 X117.277 Y21.576 E.01832
G1 X117.771 Y21.849 E.01526
G1 X118.225 Y22.132 E.01447
G1 X118.706 Y22.484 E.0161
G1 X118.75 Y22.571 E.00262
G1 X118.75 Y98.371 E2.04805
G1 X118.686 Y98.469 E.00316
M73 P1 R22
G1 X118.128 Y98.713 E.01646
G1 X117.523 Y98.895 E.01709
G1 X116.878 Y99.004 E.01766
G1 X116.299 Y99.036 E.01566
G1 X3.709 Y99.036 E3.04208
G1 X3.023 Y98.993 E.01857
G1 X2.377 Y98.87 E.01777
G1 X1.764 Y98.672 E.0174
G1 X1.31 Y98.455 E.01359
G1 X1.25 Y98.358 E.00308
G1 X1.25 Y22.556 E2.0481
G1 X1.295 Y22.469 E.00266
G1 X1.715 Y22.172 E.01388
G1 X2.182 Y21.876 E.01494
G1 X2.764 Y21.556 E.01797
G1 X3.271 Y21.345 E.01482
G1 X3.791 Y21.161 E.01491
G1 X4.351 Y21.001 E.01573
G1 X4.449 Y21.344 F36000
G1 F6000
G1 X4.504 Y21.329 E.00155
G1 X5.019 Y21.24 E.01411
G1 X5.555 Y21.177 E.01458
G1 X6.208 Y21.14 E.01766
G1 X113.8 Y21.14 E2.90706
G1 X114.424 Y21.175 E.01688
G1 X114.907 Y21.229 E.01312
G1 X115.551 Y21.341 E.01766
G1 X116.03 Y21.479 E.01348
G1 X116.521 Y21.648 E.01402
G1 X117.116 Y21.896 E.01742
G1 X117.593 Y22.158 E.0147
G1 X118.022 Y22.426 E.01367
G1 X118.349 Y22.665 E.01096
G1 X118.393 Y22.752 E.00262
G1 X118.393 Y98.137 E2.03685
G1 X118.329 Y98.235 E.00317
G1 X117.999 Y98.379 E.00974
G1 X117.434 Y98.548 E.01591
G1 X116.844 Y98.648 E.01617
G1 X116.287 Y98.679 E.01509
G1 X3.724 Y98.679 E3.04135
G1 X3.074 Y98.638 E.01758
G1 X2.472 Y98.525 E.01656
G1 X1.904 Y98.342 E.01613
G1 X1.668 Y98.23 E.00705
G1 X1.607 Y98.133 E.00309
G1 X1.607 Y22.741 E2.03703
G1 X1.652 Y22.654 E.00266
G1 X1.911 Y22.471 E.00857
G1 X2.366 Y22.182 E.01456
G1 X2.914 Y21.881 E.01689
G1 X3.396 Y21.68 E.01411
G1 X3.903 Y21.501 E.01452
G1 X4.411 Y21.355 E.01426
G1 E-.56 F1800
;WIPE_START
G1 F6000
G1 X4.504 Y21.329 E-.02335
G1 X5.019 Y21.24 E-.12536
G1 X5.397 Y21.196 E-.09128
;WIPE_END
G1 Z.6 F36000
G1 X2.011 Y95.106 Z.6
G1 Z.2
G1 E.8 F1800
G1 F6000
G1 X2.144 Y95.117 E.0036
G1 X2.419 Y95.373 E.01016
G1 X2.625 Y95.51 E.00669
G1 X3.159 Y95.735 E.01566
G1 X3.702 Y95.822 E.01485
G1 X116.299 Y95.822 E3.04228
G1 X116.73 Y95.765 E.01174
G1 X117.235 Y95.586 E.01447
G1 X117.676 Y95.292 E.01433
G1 X117.851 Y95.107 E.00688
G1 X117.946 Y95.075 E.00271
G1 X118.036 Y95.18 E.00375
G1 X118.036 Y97.903 E.07357
G1 X117.962 Y98.005 E.00341
G1 X117.347 Y98.2 E.01743
G1 X116.811 Y98.291 E.01469
G1 X116.274 Y98.321 E.01452
G1 X3.738 Y98.321 E3.04062
G1 X3.125 Y98.283 E.01659
G1 X2.567 Y98.179 E.01535
G1 X2.038 Y98.009 E.015
G1 X1.964 Y97.907 E.00341
G1 X1.964 Y95.195 E.07328
G1 X1.992 Y95.142 E.00163
G1 X2.368 Y95.84 F36000
G1 F6000
G1 X2.468 Y95.83 E.00272
G1 X3.114 Y96.089 E.01882
G1 X3.71 Y96.179 E.01628
G1 X116.292 Y96.179 E3.04186
G1 X116.86 Y96.098 E.01549
G1 X117.345 Y95.926 E.01392
G1 X117.519 Y95.826 E.00541
G1 X117.619 Y95.823 E.00271
G1 X117.679 Y95.919 E.00306
G1 X117.679 Y97.642 E.04655
G1 X117.604 Y97.744 E.00342
G1 X117.255 Y97.854 E.00989
G1 X116.765 Y97.936 E.01344
G1 X116.261 Y97.964 E.01363
G1 X3.752 Y97.964 E3.03988
G1 X3.176 Y97.929 E.01561
G1 X2.661 Y97.834 E.01414
G1 X2.395 Y97.749 E.00754
G1 X2.321 Y97.647 E.00341
G1 X2.321 Y95.929 E.04642
G1 X2.349 Y95.876 E.00163
G1 X2.725 Y96.369 F36000
G1 F6000
G1 X2.825 Y96.358 E.00272
G1 X2.97 Y96.416 E.00422
G1 X3.719 Y96.536 E.02048
G1 X116.285 Y96.536 E3.04143
G1 X116.901 Y96.453 E.01682
G1 X117.182 Y96.362 E.00796
G1 X117.281 Y96.38 E.00271
G1 X117.322 Y96.464 E.00253
G1 X117.322 Y97.38 E.02474
G1 X117.235 Y97.485 E.0037
G1 X116.733 Y97.58 E.01379
G1 X116.248 Y97.607 E.01312
G1 X3.767 Y97.607 E3.03914
G1 X3.226 Y97.574 E.01465
G1 X2.766 Y97.49 E.01264
G1 X2.678 Y97.385 E.0037
G1 X2.678 Y96.457 E.02505
G1 X2.706 Y96.404 E.00163
G1 X3.082 Y96.825 F36000
G1 F6000
G1 X3.159 Y96.808 E.00213
G1 X3.654 Y96.887 E.01353
G1 X116.278 Y96.893 E3.043
G1 X116.844 Y96.821 E.01543
M73 P2 R22
G1 X116.938 Y96.856 E.00271
G1 X116.965 Y96.927 E.00205
G1 X116.965 Y97.084 E.00424
G1 X116.878 Y97.189 E.0037
G1 X116.683 Y97.225 E.00536
G1 X116.235 Y97.25 E.01211
G1 X3.781 Y97.25 E3.0384
G1 X3.275 Y97.219 E.01369
G1 X3.123 Y97.192 E.00418
G1 X3.035 Y97.087 E.00371
G1 X3.035 Y96.914 E.00467
G1 X3.064 Y96.861 E.00163
G1 E-.56 F1800
;WIPE_START
G1 F6000
G1 X3.159 Y96.808 E-.02619
G1 X3.654 Y96.887 E-.12017
G1 X4.044 Y96.887 E-.09363
;WIPE_END
G1 Z.6 F36000
G1 X3.315 Y95.4 Z.6
G1 Z.2
G1 E.8 F1800
G1 F6000
G1 X3.208 Y95.381 E.00292
G1 X2.765 Y95.182 E.01314
G1 X2.624 Y95.08 E.0047
G1 X2.357 Y94.827 E.00993
G1 X2.251 Y94.685 E.00479
G1 X2.108 Y94.437 E.00774
G1 X1.927 Y93.908 E.01508
G1 X1.853 Y93.316 E.01614
G1 X1.853 Y28.683 E1.74632
G1 X1.942 Y27.85 E.02262
G1 X2.181 Y27.047 E.02264
G1 X2.64 Y26.203 E.02597
G1 X3.073 Y25.683 E.01828
G1 X3.708 Y25.137 E.02261
G1 X4.46 Y24.718 E.02326
G1 X5.266 Y24.46 E.02287
G1 X6.183 Y24.353 E.02495
G1 X113.811 Y24.353 E2.90801
G1 X114.961 Y24.517 E.03137
G1 X115.949 Y24.921 E.02886
G1 X116.71 Y25.463 E.02523
G1 X117.198 Y25.981 E.01922
G1 X117.59 Y26.566 E.01904
G1 X117.981 Y27.535 E.02822
G1 X118.147 Y28.689 E.03151
G1 X118.147 Y93.309 E1.74596
G1 X118.04 Y94.043 E.02004
G1 X117.851 Y94.526 E.01402
G1 X117.794 Y94.621 E.00299
G1 X117.477 Y94.995 E.01323
G1 X117.119 Y95.248 E.01185
G1 X116.69 Y95.41 E.01241
G1 X116.307 Y95.465 E.01046
G1 X3.693 Y95.465 E3.0427
G1 X3.354 Y95.406 E.0093
G1 X3.408 Y95.064 F36000
G1 F6000
G1 X3.355 Y95.056 E.00146
G1 X2.971 Y94.891 E.01128
G1 X2.871 Y94.822 E.00329
G1 X2.64 Y94.609 E.00849
G1 X2.563 Y94.512 E.00333
G1 X2.412 Y94.25 E.0082
G1 X2.264 Y93.79 E.01303
G1 X2.21 Y93.322 E.01273
G1 X2.21 Y28.677 E1.74666
G1 X2.298 Y27.88 E.02167
G1 X2.525 Y27.143 E.02084
G1 X2.957 Y26.368 E.02396
G1 X3.304 Y25.955 E.01457
G1 X3.872 Y25.454 E.02047
G1 X4.643 Y25.025 E.02384
G1 X5.38 Y24.798 E.02084
G1 X6.177 Y24.71 E.02167
G1 X113.818 Y24.71 E2.90837
G1 X114.824 Y24.847 E.02742
G1 X115.735 Y25.207 E.02649
G1 X116.446 Y25.704 E.02342
G1 X116.896 Y26.173 E.01757
G1 X117.3 Y26.775 E.01958
G1 X117.653 Y27.676 E.02617
G1 X117.79 Y28.682 E.02741
G1 X117.79 Y93.317 E1.74637
G1 X117.685 Y94 E.01869
G1 X117.52 Y94.393 E.01152
G1 X117.27 Y94.705 E.0108
G1 X116.995 Y94.913 E.00931
G1 X116.644 Y95.056 E.01023
G1 X116.314 Y95.108 E.00903
G1 X3.686 Y95.108 E3.04311
G1 X3.448 Y95.07 E.00651
G1 X3.51 Y94.721 F36000
G1 F6000
G1 X3.406 Y94.702 E.00284
G1 X3.119 Y94.566 E.00859
G1 X2.877 Y94.341 E.00893
G1 X2.716 Y94.062 E.00872
G1 X2.604 Y93.682 E.01068
G1 X2.567 Y93.328 E.00961
G1 X2.567 Y28.671 E1.74698
G1 X2.636 Y27.995 E.01837
G1 X2.87 Y27.237 E.02142
G1 X3.271 Y26.538 E.02179
G1 X3.539 Y26.224 E.01115
G1 X4.04 Y25.769 E.0183
G1 X4.737 Y25.37 E.0217
G1 X5.495 Y25.136 E.02142
G1 X6.171 Y25.067 E.01837
G1 X113.826 Y25.067 E2.90872
G1 X114.78 Y25.201 E.02605
G1 X115.525 Y25.496 E.02165
G1 X116.181 Y25.944 E.02145
G1 X116.645 Y26.427 E.0181
G1 X117.007 Y26.978 E.01782
G1 X117.299 Y27.72 E.02153
G1 X117.433 Y28.674 E.02605
G1 X117.433 Y93.325 E1.74679
G1 X117.352 Y93.873 E.01497
G1 X117.28 Y94.077 E.00586
G1 X117.197 Y94.241 E.00496
G1 X116.992 Y94.481 E.00852
G1 X116.86 Y94.583 E.00452
G1 X116.592 Y94.703 E.00792
G1 X116.322 Y94.751 E.0074
G1 X3.678 Y94.751 E3.04356
G1 X3.549 Y94.728 E.00352
G1 X3.601 Y94.384 F36000
G1 F6000
G1 X3.551 Y94.376 E.00137
G1 X3.352 Y94.295 E.00581
G1 X3.181 Y94.155 E.00597
G1 X3.059 Y93.964 E.00612
G1 X2.96 Y93.651 E.00886
G1 X2.924 Y93.334 E.00862
G1 X2.924 Y28.666 E1.74728
G1 X2.992 Y28.022 E.01749
M73 P3 R22
G1 X3.213 Y27.336 E.01946
G1 X3.582 Y26.712 E.0196
G1 X3.779 Y26.488 E.00806
G1 X4.213 Y26.081 E.01607
G1 X4.836 Y25.713 E.01956
G1 X5.522 Y25.492 E.01946
G1 X6.166 Y25.424 E.01749
G1 X113.833 Y25.424 E2.90907
G1 X114.643 Y25.531 E.02207
G1 X115.319 Y25.788 E.01953
G1 X115.92 Y26.187 E.01951
G1 X116.341 Y26.614 E.0162
G1 X116.714 Y27.183 E.01839
G1 X116.969 Y27.857 E.01946
G1 X117.076 Y28.667 E.02208
G1 X117.076 Y93.333 E1.7472
G1 X117.018 Y93.745 E.01125
G1 X116.941 Y93.966 E.00632
G1 X116.879 Y94.078 E.00346
G1 X116.727 Y94.242 E.00605
G1 X116.653 Y94.293 E.00242
G1 X116.449 Y94.376 E.00594
G1 X116.332 Y94.394 E.0032
G1 X3.668 Y94.394 E3.04407
G1 X3.641 Y94.389 E.00074
G1 X3.66 Y94.037 F36000
G1 F6000
G1 X3.559 Y94.005 E.00286
G1 X3.466 Y93.941 E.00306
G1 X3.399 Y93.856 E.00292
G1 X3.316 Y93.617 E.00685
G1 X3.281 Y93.34 E.00754
G1 X3.281 Y28.66 E1.74759
G1 X3.348 Y28.05 E.01657
G1 X3.554 Y27.441 E.01739
G1 X3.891 Y26.891 E.01741
G1 X4.026 Y26.746 E.00535
G1 X4.391 Y26.391 E.01377
G1 X4.941 Y26.054 E.01741
G1 X5.55 Y25.848 E.01739
G1 X6.16 Y25.781 E.01657
G1 X113.84 Y25.781 E2.90941
G1 X114.511 Y25.863 E.01827
G1 X115.117 Y26.082 E.01741
G1 X115.658 Y26.43 E.01739
G1 X116.094 Y26.873 E.01679
G1 X116.418 Y27.383 E.01633
G1 X116.637 Y27.989 E.01741
G1 X116.719 Y28.66 E.01827
G1 X116.719 Y93.34 E1.74759
G1 X116.684 Y93.617 E.00754
G1 X116.601 Y93.856 E.00685
G1 X116.534 Y93.941 E.00292
G1 X116.441 Y94.005 E.00306
G1 X116.34 Y94.037 E.00286
G1 X3.7 Y94.037 E3.04343
G1 E-.56 F1800
;WIPE_START
G1 F6000
G1 X3.559 Y94.005 E-.03466
G1 X3.466 Y93.941 E-.02715
G1 X3.399 Y93.856 E-.02591
G1 X3.316 Y93.617 E-.06082
G1 X3.281 Y93.34 E-.06696
G1 X3.281 Y93.238 E-.02449
;WIPE_END
G1 Z.6 F36000
G1 X2.079 Y26.384 Z.6
G1 Z.2
G1 E.8 F1800
G1 F6000
G1 X1.987 Y26.344 E.00271
G1 X1.964 Y26.277 E.00191
G1 X1.964 Y22.926 E.09055
G1 X2.013 Y22.836 E.00277
G1 X2.544 Y22.492 E.0171
G1 X3.064 Y22.206 E.01604
G1 X3.527 Y22.012 E.01356
G1 X4.015 Y21.84 E.01397
G1 X4.578 Y21.679 E.01583
G1 X5.067 Y21.594 E.0134
G1 X5.589 Y21.533 E.0142
G1 X6.215 Y21.497 E.01693
G1 X113.787 Y21.497 E2.90652
G1 X114.392 Y21.531 E.01635
G1 X114.86 Y21.583 E.01273
G1 X115.465 Y21.689 E.0166
G1 X115.925 Y21.821 E.01295
G1 X116.397 Y21.983 E.01348
G1 X116.966 Y22.221 E.01666
G1 X117.416 Y22.469 E.01389
G1 X117.988 Y22.844 E.01846
G1 X118.036 Y22.933 E.00275
G1 X118.036 Y26.238 E.0893
G1 X117.989 Y26.327 E.00271
G1 X117.889 Y26.338 E.00271
G1 X117.841 Y26.299 E.00168
G1 X117.452 Y25.73 E.01861
G1 X116.977 Y25.226 E.01872
G1 X116.166 Y24.637 E.02707
G1 X115.102 Y24.189 E.0312
G1 X113.804 Y23.996 E.03545
G1 X6.19 Y23.996 E2.90764
G1 X5.147 Y24.123 E.02837
G1 X4.277 Y24.411 E.02477
G1 X3.543 Y24.82 E.0227
G1 X2.793 Y25.461 E.02666
G1 X2.372 Y25.967 E.01778
G1 X2.164 Y26.331 E.01132
G1 X2.113 Y26.363 E.00163
G1 E-.56 F1800
;WIPE_START
G1 F6000
G1 X1.987 Y26.344 E-.03054
G1 X1.964 Y26.277 E-.01693
G1 X1.964 Y25.475 E-.19253
;WIPE_END
G1 Z.6 F36000
G1 X2.401 Y25.278 Z.6
G1 Z.2
G1 E.8 F1800
G1 F6000
G1 X2.321 Y25.174 E.00353
G1 X2.321 Y23.12 E.05549
G1 X2.37 Y23.03 E.00277
G1 X2.731 Y22.797 E.01161
G1 X3.215 Y22.531 E.01492
G1 X3.659 Y22.345 E.01301
G1 X4.127 Y22.179 E.01341
G1 X4.653 Y22.029 E.01478
G1 X5.115 Y21.948 E.01269
G1 X5.623 Y21.889 E.01381
G1 X6.222 Y21.855 E.01621
G1 X113.781 Y21.855 E2.90614
G1 X114.359 Y21.886 E.01565
G1 X114.806 Y21.936 E.01215
G1 X115.393 Y22.04 E.01611
G1 X116.264 Y22.315 E.02469
G1 X116.805 Y22.541 E.01584
G1 X117.228 Y22.773 E.01304
G1 X117.631 Y23.036 E.01299
G1 X117.679 Y23.126 E.00275
G1 X117.679 Y25.181 E.05552
G1 X117.632 Y25.269 E.00271
G1 X117.495 Y25.256 E.00371
G1 X117.179 Y24.932 E.01222
G1 X116.294 Y24.304 E.02934
G1 X115.148 Y23.835 E.03346
G1 X113.796 Y23.639 E.03689
G1 X6.196 Y23.639 E2.90726
G1 X5.114 Y23.767 E.02943
G1 X4.174 Y24.069 E.02669
G1 X3.304 Y24.555 E.02693
G1 X2.498 Y25.255 E.02882
G1 X2.44 Y25.269 E.00163
G1 X2.755 Y24.493 F36000
G1 F6000
G1 X2.678 Y24.391 E.00347
