; HEADER_BLOCK_START
; generated by OrcaSlicer 2.3.2-rc2 on 2026-03-08 at 21:59:52
; total layer number: 154
; filament_density: 1.04
; filament_diameter: 1.75
; max_z_height: 30.80
; filament: 1
; HEADER_BLOCK_END

; THUMBNAIL_BLOCK_START

;
; THUMBNAIL_BLOCK_END

; THUMBNAIL_BLOCK_START

;
; THUMBNAIL_BLOCK_END

; external perimeters extrusion width = 0.40mm
; perimeters extrusion width = 0.40mm
; infill extrusion width = 0.40mm
; solid infill extrusion width = 0.40mm
; top infill extrusion width = 0.40mm
; first layer extrusion width = 0.40mm

; EXECUTABLE_BLOCK_START


; Pre-Processed for Cancel-Object support by preprocess_cancellation v0.2.0
; 1 known objects
EXCLUDE_OBJECT_DEFINE NAME=Body1_stl_id_0_copy_0 CENTER=59.918,58.664 POLYGON=[[10.051,44.806],[10.051,75.186],[110.049,75.186],[110.049,44.806]]
M73 P0 R26
;TYPE:Custom
PRINT_START EXTRUDER_TEMP=255 BED_TEMP=105
G90
G21
M83 ; use relative distances for extrusion
; Filament gcode
SET_PRESSURE_ADVANCE ADVANCE=0.04; Override pressure advance value
M106 S0
;LAYER_CHANGE
;Z:0.2
;HEIGHT:0.2
;BEFORE_LAYER_CHANGE
;0.2
G92 E0

G1 E-.8 F1800
;AFTER_LAYER_CHANGE
;0.2
;_SET_FAN_SPEED_CHANGING_LAYER
SET_VELOCITY_LIMIT ACCEL=10000 ACCEL_TO_DECEL=10000
SET_VELOCITY_LIMIT SQUARE_CORNER_VELOCITY=9
; printing object Body1.stl id:0 copy 0
EXCLUDE_OBJECT_START NAME=Body1_stl_id_0_copy_0
G1 Z.6 F36000
G1 X15.039 Y45.188
G1 Z.6
G1 Z.2
G1 E.8 F1800
;TYPE:Brim
;WIDTH:0.4
G1 F6000
G1 X16.054 Y44.976 E.02801
G1 X16.993 Y44.906 E.02544
G1 X35.58 Y44.905 E.50219
G1 X36.371 Y44.955 E.02142
G1 X37.304 Y45.122 E.0256
G1 X38.206 Y45.425 E.02572
G1 X38.912 Y45.754 E.02103
G1 X39.78 Y46.322 E.02804
G1 X40.494 Y46.936 E.02544
G1 X50.012 Y56.452 E.36365
G1 X50.138 Y56.505 E.00369
G1 X69.721 Y56.505 E.52911
G1 X69.847 Y56.452 E.00369
G1 X79.426 Y46.873 E.36603
G1 X80.024 Y46.346 E.02153
G1 X80.823 Y45.789 E.02633
G1 X81.519 Y45.434 E.0211
G1 X82.442 Y45.088 E.02663
G1 X83.483 Y44.874 E.02872
G1 X84.408 Y44.806 E.02506
G1 X103.007 Y44.806 E.50254
G1 X103.83 Y44.859 E.02228
G1 X104.774 Y45.033 E.02594
G1 X105.684 Y45.343 E.02596
G1 X106.39 Y45.674 E.02107
G1 X107.112 Y46.137 E.02318
G1 X107.873 Y46.762 E.02662
G1 X108.58 Y47.558 E.02874
G1 X109.024 Y48.196 E.02102
G1 X109.501 Y49.148 E.02877
G1 X109.766 Y49.88 E.02102
G1 X109.98 Y50.922 E.02875
G1 X110.048 Y51.844 E.02498
G1 X110.049 Y53.844 E.05403
G1 X109.974 Y54.835 E.02685
G1 X109.828 Y55.601 E.02107
G1 X109.586 Y56.346 E.02114
G1 X109.178 Y57.244 E.02666
G1 X108.716 Y57.966 E.02315
G1 X108.091 Y58.727 E.02662
G1 X107.296 Y59.433 E.02874
G1 X106.656 Y59.879 E.02105
G1 X105.895 Y60.273 E.02318
G1 X104.972 Y60.619 E.02662
G1 X103.931 Y60.833 E.02872
G1 X103.007 Y60.902 E.02505
G1 X91.719 Y60.902 E.30498
G1 X91.597 Y60.95 E.00355
G1 X91.179 Y61.83 E.02631
G1 X90.714 Y62.555 E.02328
G1 X89.989 Y63.418 E.03046
G1 X80.135 Y73.273 E.37653
G1 X79.53 Y73.806 E.02178
G1 X78.888 Y74.249 E.02108
G1 X78.232 Y74.595 E.02005
G1 X77.506 Y74.88 E.02107
G1 X76.674 Y75.086 E.02316
G1 X75.824 Y75.186 E.02313
G1 X74.967 Y75.17 E.02315
G1 X74.121 Y75.047 E.02311
G1 X73.224 Y74.784 E.02524
G1 X72.511 Y74.472 E.02103
G1 X71.777 Y74.03 E.02316
G1 X71.105 Y73.5 E.02313
G1 X70.871 Y73.257 E.00911
G1 X70.742 Y73.202 E.00378
G1 X49.116 Y73.202 E.58432
G1 X48.991 Y73.254 E.00366
G1 X48.731 Y73.51 E.00985
G1 X48.115 Y73.986 E.02104
G1 X47.374 Y74.417 E.02316
G1 X46.609 Y74.74 E.02242
G1 X45.782 Y74.964 E.02315
G1 X44.96 Y75.078 E.02242
G1 X44.104 Y75.081 E.02315
G1 X43.28 Y74.978 E.02242
G1 X42.452 Y74.759 E.02315
G1 X41.683 Y74.446 E.02242
G1 X40.939 Y74.02 E.02315
G1 X40.275 Y73.518 E.0225
G1 X39.948 Y73.213 E.01209
G1 X30.091 Y63.357 E.37663
G1 X29.566 Y62.762 E.02143
G1 X29.024 Y61.984 E.02563
G1 X28.673 Y61.297 E.02086
G1 X28.522 Y60.915 E.01108
G1 X28.432 Y60.82 E.00355
G1 X28.356 Y60.802 E.00211
G1 X17.007 Y60.802 E.30665
G1 X16.048 Y60.732 E.02597
G1 X15.282 Y60.586 E.02108
G1 X14.548 Y60.348 E.02085
G1 X13.672 Y59.952 E.02596
G1 X12.95 Y59.492 E.02315
G1 X12.207 Y58.883 E.02594
G1 X11.628 Y58.252 E.02315
G1 X11.069 Y57.472 E.02591
G1 X10.601 Y56.546 E.02804
G1 X10.335 Y55.815 E.02102
G1 X10.122 Y54.799 E.02805
G1 X10.052 Y53.863 E.02538
G1 X10.051 Y51.862 E.05406
G1 X10.101 Y51.068 E.02149
G1 X10.268 Y50.136 E.0256
G1 X10.571 Y49.233 E.02572
G1 X10.901 Y48.527 E.02106
G1 X11.361 Y47.803 E.02318
G1 X11.97 Y47.061 E.02594
G1 X12.602 Y46.482 E.02315
G1 X13.382 Y45.922 E.02594
G1 X14.142 Y45.527 E.02315
G1 X15.002 Y45.202 E.02483
G1 X15.128 Y45.537 F36000
G1 F6000
G1 X15.132 Y45.535 E.00011
G1 X16.111 Y45.33 E.02704
G1 X17.011 Y45.263 E.02436
G1 X35.565 Y45.262 E.50133
G1 X36.334 Y45.311 E.02082
G1 X37.207 Y45.467 E.02396
G1 X38.068 Y45.755 E.02452
G1 X38.744 Y46.071 E.02017
G1 X39.559 Y46.604 E.02632
G1 X40.248 Y47.195 E.02453
G1 X49.752 Y56.697 E.36312
G1 X49.885 Y56.786 E.00432
G1 X49.991 Y56.831 E.00312
G1 X50.148 Y56.862 E.00432
G1 X69.71 Y56.862 E.52854
G1 X69.867 Y56.831 E.00432
G1 X69.974 Y56.786 E.00312
G1 X70.107 Y56.697 E.00432
G1 X79.673 Y47.131 E.36553
G1 X80.25 Y46.624 E.02075
G1 X81.014 Y46.093 E.02515
G1 X81.669 Y45.76 E.01986
G1 X82.533 Y45.435 E.02494
G1 X83.525 Y45.23 E.02738
G1 X84.425 Y45.163 E.02437
G1 X102.992 Y45.163 E.50167
G1 X103.792 Y45.216 E.02166
G1 X104.691 Y45.382 E.02471
G1 X105.544 Y45.673 E.02435
G1 X106.21 Y45.985 E.01987
G1 X106.896 Y46.423 E.022
G1 X107.631 Y47.027 E.02568
G1 X108.295 Y47.774 E.02701
G1 X108.72 Y48.386 E.02013
G1 X109.175 Y49.295 E.02747
G1 X109.423 Y49.985 E.01979
G1 X109.626 Y50.979 E.02741
G1 X109.691 Y51.862 E.02392
G1 X109.692 Y53.827 E.0531
G1 X109.618 Y54.794 E.02621
G1 X109.479 Y55.519 E.01994
G1 X109.254 Y56.211 E.01965
G1 X108.867 Y57.066 E.02538
G1 X108.423 Y57.76 E.02226
G1 X107.838 Y58.472 E.02489
G1 X107.069 Y59.156 E.02781
G1 X106.465 Y59.575 E.01987
G1 X105.755 Y59.943 E.02162
G1 X104.865 Y60.277 E.02568
G1 X103.875 Y60.479 E.0273
G1 X102.99 Y60.545 E.02399
G1 X91.729 Y60.545 E.30424
G1 X91.478 Y60.614 E.00705
G1 X91.329 Y60.717 E.00489
G1 X91.272 Y60.804 E.0028
G1 X90.869 Y61.65 E.02532
G1 X90.43 Y62.337 E.02204
G1 X89.722 Y63.18 E.02973
G1 X79.888 Y73.015 E.37578
G1 X79.305 Y73.527 E.02099
G1 X78.708 Y73.94 E.01958
G1 X78.078 Y74.272 E.01926
G1 X77.39 Y74.54 E.01993
G1 X76.616 Y74.732 E.02155
G1 X75.813 Y74.828 E.02184
G1 X75.003 Y74.814 E.0219
G1 X74.205 Y74.699 E.0218
G1 X73.341 Y74.445 E.02434
G1 X72.669 Y74.151 E.0198
G1 X71.986 Y73.739 E.02155
G1 X71.351 Y73.239 E.02184
G1 X71.136 Y73.017 E.00835
G1 X71.001 Y72.924 E.00443
G1 X70.892 Y72.878 E.00319
G1 X70.731 Y72.845 E.00443
G1 X49.126 Y72.845 E.58375
G1 X48.971 Y72.876 E.00429
G1 X48.865 Y72.92 E.0031
G1 X48.732 Y73.007 E.00429
G1 X48.491 Y73.245 E.00916
G1 X47.921 Y73.685 E.01946
G1 X47.22 Y74.093 E.02192
G1 X46.486 Y74.403 E.02154
G1 X45.717 Y74.612 E.02151
G1 X44.928 Y74.721 E.02154
G1 X44.118 Y74.723 E.02187
G1 X43.341 Y74.625 E.02117
G1 X42.572 Y74.421 E.02151
G1 X41.833 Y74.121 E.02153
G1 X41.143 Y73.725 E.02151
G1 X40.51 Y73.247 E.02143
G1 X40.194 Y72.955 E.01162
G1 X30.349 Y63.11 E.37619
G1 X29.844 Y62.536 E.02064
G1 X29.335 Y61.806 E.02406
G1 X29.001 Y61.154 E.01979
G1 X28.858 Y60.794 E.01048
G1 X28.704 Y60.587 E.00696
G1 X28.498 Y60.469 E.00642
G1 X28.348 Y60.445 E.00411
G1 X17.024 Y60.445 E.30596
G1 X16.101 Y60.377 E.025
G1 X15.364 Y60.237 E.02027
G1 X14.671 Y60.012 E.01969
G1 X13.85 Y59.641 E.02436
G1 X13.165 Y59.206 E.02192
G1 X12.459 Y58.628 E.02464
G1 X11.91 Y58.031 E.02192
G1 X11.372 Y57.279 E.02499
G1 X10.932 Y56.41 E.02632
G1 X10.678 Y55.71 E.02013
G1 X10.476 Y54.742 E.0267
G1 X10.409 Y53.845 E.0243
G1 X10.408 Y51.876 E.05319
G1 X10.457 Y51.105 E.02088
G1 X10.617 Y50.217 E.02438
G1 X10.901 Y49.372 E.0241
G1 X11.218 Y48.693 E.02024
G1 X11.655 Y48.008 E.02195
G1 X12.236 Y47.302 E.02471
G1 X12.833 Y46.756 E.02185
G1 X13.563 Y46.232 E.0243
G1 X14.294 Y45.851 E.02226
G1 X15.091 Y45.551 E.023
G1 X15.217 Y45.885 F36000
G1 F6000
G1 X15.224 Y45.882 E.00023
G1 X16.169 Y45.684 E.02607
G1 X17.028 Y45.62 E.02328
G1 X35.551 Y45.619 E.50046
G1 X36.297 Y45.667 E.02022
G1 X37.111 Y45.813 E.02233
G1 X37.929 Y46.085 E.02331
G1 X38.576 Y46.388 E.0193
G1 X39.339 Y46.886 E.02461
G1 X40.002 Y47.455 E.02361
G1 X49.493 Y56.944 E.36263
G1 X49.681 Y57.079 E.00627
G1 X49.847 Y57.157 E.00495
G1 X50.159 Y57.219 E.00858
G1 X69.699 Y57.219 E.52797
G1 X70.011 Y57.157 E.00858
G1 X70.177 Y57.079 E.00495
G1 X70.365 Y56.944 E.00627
G1 X79.92 Y47.39 E.36508
G1 X80.475 Y46.902 E.01996
G1 X81.204 Y46.397 E.02397
G1 X81.819 Y46.085 E.01863
G1 X82.625 Y45.782 E.02326
G1 X83.568 Y45.585 E.02603
G1 X84.442 Y45.52 E.02368
G1 X102.977 Y45.52 E.50079
G1 X103.754 Y45.572 E.02104
G1 X104.608 Y45.731 E.02348
G1 X105.405 Y46.003 E.02275
G1 X106.032 Y46.295 E.01868
G1 X106.681 Y46.709 E.0208
G1 X107.388 Y47.291 E.02474
G1 X108.009 Y47.991 E.02529
G1 X108.416 Y48.576 E.01924
G1 X108.848 Y49.442 E.02616
G1 X109.079 Y50.089 E.01856
G1 X109.272 Y51.034 E.02608
G1 X109.334 Y51.879 E.02287
G1 X109.335 Y53.809 E.05216
G1 X109.263 Y54.753 E.02557
G1 X109.134 Y55.423 E.01844
G1 X108.923 Y56.076 E.01854
G1 X108.556 Y56.888 E.0241
G1 X108.13 Y57.555 E.02137
G1 X107.585 Y58.217 E.02316
G1 X106.843 Y58.878 E.02687
G1 X106.274 Y59.272 E.01868
G1 X105.615 Y59.613 E.02006
G1 X104.758 Y59.935 E.02474
G1 X103.819 Y60.126 E.02587
G1 X102.973 Y60.187 E.02293
G1 X91.741 Y60.188 E.30346
G1 X91.39 Y60.268 E.00972
G1 X91.266 Y60.326 E.00372
G1 X91.136 Y60.417 E.00427
G1 X90.976 Y60.606 E.0067
G1 X90.559 Y61.471 E.02594
G1 X90.145 Y62.12 E.02079
G1 X89.455 Y62.942 E.029
G1 X79.641 Y72.756 E.37501
G1 X79.079 Y73.249 E.02019
G1 X78.517 Y73.637 E.01845
G1 X77.923 Y73.949 E.01812
G1 X77.275 Y74.201 E.01879
G1 X76.558 Y74.379 E.01996
G1 X75.803 Y74.47 E.02057
G1 X75.039 Y74.457 E.02065
G1 X74.288 Y74.35 E.02047
G1 X73.457 Y74.106 E.02342
G1 X72.828 Y73.829 E.01856
G1 X72.195 Y73.448 E.01996
G1 X71.596 Y72.978 E.02058
G1 X71.398 Y72.775 E.00766
G1 X71.21 Y72.636 E.00632
G1 X70.954 Y72.527 E.00751
G1 X70.723 Y72.488 E.00635
G1 X49.135 Y72.488 E.58328
G1 X48.91 Y72.524 E.00615
G1 X48.659 Y72.628 E.00734
G1 X48.543 Y72.704 E.00376
G1 X48.25 Y72.979 E.01084
G1 X47.726 Y73.384 E.0179
G1 X47.066 Y73.77 E.02067
G1 X46.375 Y74.062 E.02025
G1 X45.652 Y74.259 E.02025
G1 X44.91 Y74.363 E.02025
G1 X44.147 Y74.366 E.02061
G1 X43.416 Y74.274 E.0199
G1 X42.692 Y74.084 E.02025
G1 X41.997 Y73.802 E.02026
G1 X41.346 Y73.43 E.02026
G1 X40.744 Y72.977 E.02036
G1 X40.441 Y72.696 E.01115
G1 X30.607 Y62.863 E.37574
G1 X30.122 Y62.311 E.01986
G1 X29.646 Y61.627 E.02251
G1 X29.329 Y61.011 E.01873
G1 X29.137 Y60.57 E.01299
G1 X28.997 Y60.383 E.00632
G1 X28.872 Y60.272 E.00452
G1 X28.684 Y60.164 E.00586
G1 X28.546 Y60.116 E.00394
G1 X28.34 Y60.088 E.0056
G1 X17.041 Y60.088 E.30531
G1 X16.154 Y60.023 E.02403
G1 X15.447 Y59.888 E.01945
G1 X14.795 Y59.676 E.01852
G1 X14.027 Y59.329 E.02277
G1 X13.38 Y58.919 E.02068
G1 X12.711 Y58.373 E.02335
G1 X12.192 Y57.81 E.02067
G1 X11.674 Y57.086 E.02405
G1 X11.263 Y56.273 E.02461
G1 X11.02 Y55.604 E.01924
G1 X10.83 Y54.685 E.02536
G1 X10.766 Y53.828 E.02323
G1 X10.765 Y51.891 E.05233
G1 X10.812 Y51.154 E.01994
G1 X10.967 Y50.299 E.0235
G1 X11.231 Y49.51 E.02247
G1 X11.535 Y48.859 E.01941
G1 X11.949 Y48.213 E.02072
G1 X12.501 Y47.543 E.02348
G1 X13.063 Y47.03 E.02055
G1 X13.745 Y46.541 E.02266
G1 X14.446 Y46.175 E.02137
G1 X15.179 Y45.899 E.02117
G1 X15.305 Y46.233 F36000
G1 F6000
G1 X15.317 Y46.229 E.00034
G1 X16.212 Y46.039 E.02472
G1 X17.045 Y45.977 E.02258
G1 X35.543 Y45.976 E.49978
G1 X36.26 Y46.023 E.01943
G1 X37.015 Y46.158 E.02072
G1 X37.791 Y46.415 E.02209
G1 X38.408 Y46.704 E.01842
G1 X39.129 Y47.177 E.02328
G1 X39.762 Y47.72 E.02254
G1 X49.235 Y57.191 E.36194
G1 X49.467 Y57.365 E.00781
G1 X49.687 Y57.476 E.00667
G1 X50.17 Y57.576 E.01333
G1 X69.688 Y57.576 E.52737
G1 X70.171 Y57.476 E.01333
G1 X70.392 Y57.365 E.00667
G1 X70.623 Y57.191 E.00781
G1 X80.167 Y47.648 E.36465
G1 X80.701 Y47.181 E.01917
G1 X81.394 Y46.701 E.02279
G1 X81.969 Y46.41 E.01739
G1 X82.717 Y46.129 E.0216
G1 X83.611 Y45.941 E.02469
G1 X84.459 Y45.877 E.02298
G1 X102.961 Y45.877 E.4999
G1 X103.715 Y45.928 E.02042
G1 X104.525 Y46.08 E.02225
G1 X105.266 Y46.333 E.02116
G1 X105.853 Y46.606 E.0175
G1 X106.465 Y46.995 E.0196
G1 X107.133 Y47.544 E.02335
G1 X107.724 Y48.208 E.02402
G1 X108.111 Y48.765 E.01835
G1 X108.521 Y49.588 E.02485
G1 X108.736 Y50.193 E.01732
G1 X108.918 Y51.09 E.02475
G1 X108.977 Y51.896 E.02182
G1 X108.978 Y53.792 E.05122
G1 X108.907 Y54.711 E.02492
G1 X108.785 Y55.34 E.01731
G1 X108.591 Y55.941 E.01706
G1 X108.244 Y56.711 E.02281
G1 X107.836 Y57.35 E.02047
G1 X107.321 Y57.975 E.02189
G1 X106.616 Y58.601 E.02548
G1 X106.084 Y58.969 E.01748
G1 X105.476 Y59.283 E.0185
G1 X104.65 Y59.592 E.0238
G1 X103.764 Y59.772 E.02445
G1 X102.956 Y59.83 E.02189
G1 X91.752 Y59.831 E.30271
G1 X91.319 Y59.918 E.01194
G1 X91.119 Y60.001 E.00584
G1 X90.94 Y60.118 E.00579
G1 X90.707 Y60.371 E.00931
G1 X90.249 Y61.291 E.02775
G1 X89.86 Y61.902 E.01957
G1 X89.188 Y62.704 E.02826
G1 X79.394 Y72.498 E.37424
G1 X78.854 Y72.97 E.01938
G1 X78.327 Y73.334 E.01731
G1 X77.77 Y73.625 E.01699
G1 X77.16 Y73.862 E.01765
G1 X76.5 Y74.025 E.01838
G1 X75.791 Y74.111 E.01929
G1 X75.074 Y74.101 E.01939
G1 X74.372 Y74.001 E.01914
G1 X73.573 Y73.767 E.0225
G1 X72.986 Y73.508 E.01732
G1 X72.404 Y73.157 E.01838
G1 X71.841 Y72.716 E.01933
G1 X71.606 Y72.485 E.00889
G1 X71.342 Y72.304 E.00866
G1 X71.003 Y72.173 E.0098
G1 X70.715 Y72.131 E.00787
G1 X49.144 Y72.131 E.58281
G1 X48.765 Y72.198 E.01041
G1 X48.456 Y72.334 E.00913
G1 X48.293 Y72.449 E.00539
G1 X48.014 Y72.71 E.01032
G1 X47.532 Y73.083 E.01648
G1 X46.899 Y73.453 E.0198
G1 X46.265 Y73.721 E.0186
G1 X45.587 Y73.907 E.01899
G1 X44.892 Y74.005 E.01897
G1 X44.176 Y74.008 E.01935
G1 X43.491 Y73.924 E.01863
G1 X42.811 Y73.746 E.019
G1 X42.16 Y73.483 E.01898
G1 X41.548 Y73.135 E.01901
G1 X40.977 Y72.706 E.0193
G1 X40.69 Y72.44 E.01057
G1 X30.87 Y62.621 E.37521
G1 X30.4 Y62.085 E.01926
G1 X29.957 Y61.448 E.02097
G1 X29.653 Y60.861 E.01787
G1 X29.417 Y60.349 E.01523
G1 X29.228 Y60.111 E.00823
G1 X29.041 Y59.957 E.00652
G1 X28.868 Y59.858 E.0054
G1 X28.673 Y59.782 E.00566
G1 X28.332 Y59.731 E.00929
G1 X17.058 Y59.731 E.30463
G1 X16.207 Y59.669 E.02306
G1 X15.529 Y59.54 E.01864
G1 X14.918 Y59.34 E.01736
G1 X14.204 Y59.017 E.0212
G1 X13.595 Y58.633 E.01945
G1 X12.962 Y58.117 E.02205
G1 X12.474 Y57.589 E.01942
G1 X11.985 Y56.907 E.02267
G1 X11.595 Y56.137 E.02333
G1 X11.363 Y55.499 E.01834
G1 X11.184 Y54.628 E.02402
G1 X11.123 Y53.81 E.02216
G1 X11.122 Y51.906 E.05147
G1 X11.166 Y51.204 E.019
G1 X11.316 Y50.38 E.02261
G1 X11.562 Y49.649 E.02085
G1 X11.846 Y49.038 E.01819
G1 X12.242 Y48.419 E.01986
G1 X12.756 Y47.795 E.02183
G1 X13.293 Y47.304 E.01967
G1 X13.939 Y46.842 E.02144
G1 X14.598 Y46.5 E.02007
G1 X15.268 Y46.247 E.01934
G1 X15.394 Y46.581 F36000
G1 F6000
G1 X15.41 Y46.575 E.00047
G1 X16.255 Y46.395 E.02336
G1 X17.063 Y46.334 E.02187
G1 X35.534 Y46.333 E.49909
G1 X36.223 Y46.379 E.01864
G1 X36.919 Y46.504 E.01912
G1 X37.653 Y46.746 E.02086
G1 X38.24 Y47.021 E.01754
G1 X38.919 Y47.467 E.02195
G1 X39.522 Y47.985 E.02147
G1 X48.977 Y57.438 E.36125
G1 X49.312 Y57.686 E.01127
G1 X49.625 Y57.827 E.00927
G1 X50.18 Y57.933 E.01527
G1 X69.678 Y57.933 E.52682
G1 X70.238 Y57.826 E.01539
G1 X70.337 Y57.792 E.00284
G1 X70.612 Y57.645 E.00842
G1 X70.88 Y57.439 E.00915
G1 X80.408 Y47.912 E.36405
G1 X80.916 Y47.467 E.01823
G1 X81.584 Y47.005 E.02194
G1 X82.118 Y46.735 E.01617
G1 X82.809 Y46.475 E.01996
G1 X83.655 Y46.297 E.02335
G1 X84.477 Y46.234 E.02228
G1 X102.946 Y46.234 E.499
G1 X103.676 Y46.284 E.01979
G1 X104.441 Y46.428 E.02102
G1 X105.127 Y46.662 E.01959
G1 X105.675 Y46.917 E.01632
G1 X106.25 Y47.281 E.01839
G1 X106.89 Y47.808 E.02241
G1 X107.439 Y48.424 E.02228
G1 X107.807 Y48.955 E.01744
G1 X108.194 Y49.735 E.02353
G1 X108.393 Y50.296 E.01609
G1 X108.562 Y51.132 E.02306
G1 X108.619 Y51.905 E.02094
G1 X108.621 Y53.774 E.0505
G1 X108.551 Y54.669 E.02427
G1 X108.44 Y55.245 E.01583
G1 X108.259 Y55.807 E.01596
G1 X107.932 Y56.533 E.02153
G1 X107.543 Y57.144 E.01957
