; HEADER_BLOCK_START
; generated by OrcaSlicer 2.3.2-rc2 on 2026-03-13 at 13:57:11
; total layer number: 48
; filament_density: 1.04
; filament_diameter: 1.75
; max_z_height: 9.60
; filament: 1
; HEADER_BLOCK_END

; THUMBNAIL_BLOCK_START

;
; THUMBNAIL_BLOCK_END

; THUMBNAIL_BLOCK_START

;
; THUMBNAIL_BLOCK_END

; external perimeters extrusion width = 0.40mm
; perimeters extrusion width = 0.40mm
; infill extrusion width = 0.40mm
; solid infill extrusion width = 0.40mm
; top infill extrusion width = 0.40mm
; first layer extrusion width = 0.40mm

; EXECUTABLE_BLOCK_START


; Pre-Processed for Cancel-Object support by preprocess_cancellation v0.2.0
; 1 known objects
EXCLUDE_OBJECT_DEFINE NAME=Body1_stl_id_87_copy_0 CENTER=50.843,59.690 POLYGON=[[20.246,25.393],[20.246,90.523],[90.571,90.523],[90.571,25.393]]
M73 P0 R27
;TYPE:Custom
PRINT_START EXTRUDER_TEMP=255 BED_TEMP=105
G90
G21
M83 ; use relative distances for extrusion
; Filament gcode
SET_PRESSURE_ADVANCE ADVANCE=0.04; Override pressure advance value
M106 S0
;LAYER_CHANGE
;Z:0.2
;HEIGHT:0.2
;BEFORE_LAYER_CHANGE
;0.2
G92 E0

G1 E-.8 F1800
;AFTER_LAYER_CHANGE
;0.2
;_SET_FAN_SPEED_CHANGING_LAYER
SET_VELOCITY_LIMIT ACCEL=10000 ACCEL_TO_DECEL=10000
SET_VELOCITY_LIMIT SQUARE_CORNER_VELOCITY=9
; printing object Body1.stl id:87 copy 0
EXCLUDE_OBJECT_START NAME=Body1_stl_id_87_copy_0
G1 Z.6 F36000
G1 X27.214 Y67.413
G1 Z.6
G1 Z.2
G1 E.8 F1800
;TYPE:Inner wall
;WIDTH:0.4
G1 F6000
G1 X26.949 Y67.489 E.00746
G1 X26.121 Y67.567 E.02248
G1 X25.292 Y67.489 E.02248
G1 X24.497 Y67.26 E.02237
G3 X23.747 Y66.878 I6.234 J-13.183 E.02275
G3 X22.108 Y65.024 I2.644 J-3.987 E.06761
G3 X23.279 Y59.722 I4.019 J-1.893 E.15784
G1 X23.747 Y59.369 E.01582
G3 X24.497 Y58.987 I6.983 J12.8 E.02275
G1 X25.29 Y58.758 E.02231
G1 X25.54 Y58.734 E.0068
G1 X26.121 Y58.68 E.01574
G3 X26.949 Y58.758 I-6.346 J71.64 E.02248
G3 X27.751 Y58.991 I-6.315 J23.264 E.02256
G3 X28.962 Y59.722 I-1.775 J4.308 E.03838
G1 X29.155 Y59.88 E.00673
G3 X30.417 Y64.24 I-3.085 J3.255 E.12858
G3 X28.962 Y66.525 I-4.32 J-1.144 E.07436
G1 X28.495 Y66.878 E.01582
G3 X27.744 Y67.26 I-6.984 J-12.801 E.02275
G1 X27.252 Y67.402 E.01384
G1 X27.115 Y67.07 F36000
G1 F6000
G1 X26.882 Y67.137 E.00655
G1 X26.121 Y67.209 E.02066
G1 X25.359 Y67.137 E.02066
G1 X24.627 Y66.925 E.02059
G3 X23.333 Y66.107 I1.897 J-4.432 E.04154
G3 X23.5 Y60.003 I2.81 J-2.978 E.18623
G1 X23.94 Y59.671 E.01487
G3 X24.627 Y59.322 I6.393 J11.731 E.02084
G1 X25.358 Y59.11 E.02055
G1 X25.574 Y59.089 E.00588
G1 X26.121 Y59.038 E.01482
G3 X26.882 Y59.11 I-5.828 J65.871 E.02066
G3 X28.111 Y59.569 I-.858 J4.175 E.03559
G1 X28.302 Y59.671 E.00584
G3 X29.808 Y64.875 I-2.222 J3.463 E.15978
G3 X28.111 Y66.678 I-3.719 J-1.8 E.06794
G1 X27.614 Y66.925 E.015
G1 X27.153 Y67.059 E.01296
G1 X27.016 Y66.727 F36000
;TYPE:Outer wall
G1 F6000
G1 X26.815 Y66.785 E.00564
G1 X26.121 Y66.85 E.01885
G1 X25.426 Y66.785 E.01885
G1 X24.757 Y66.591 E.01881
G3 X22.759 Y61.521 I1.4 J-3.481 E.16481
G3 X24.757 Y59.656 I3.438 J1.679 E.07554
G1 X25.425 Y59.462 E.01879
G1 X25.608 Y59.444 E.00497
G3 X26.633 Y59.444 I.512 J2.74 E.02784
G1 X26.815 Y59.462 E.00495
G3 X28.109 Y59.973 I-.974 J4.366 E.03773
G3 X28.109 Y66.274 I-2.014 J3.151 E.2025
G3 X27.484 Y66.591 I-5.802 J-10.66 E.01894
G1 X27.054 Y66.716 E.01209
G1 E-.56 F1800
;WIPE_START
G1 F6000
G1 X26.815 Y66.785 E-.05972
G1 X26.121 Y66.85 E-.1674
G1 X26.067 Y66.845 E-.01288
;WIPE_END
G1 Z.6 F36000
G1 X27.154 Y87.43 Z.6
G1 Z.2
G1 E.8 F1800
;TYPE:Inner wall
G1 F6000
G1 X26.949 Y87.489 E.00577
G1 X26.121 Y87.567 E.02248
G1 X25.292 Y87.489 E.02248
G1 X24.497 Y87.26 E.02237
G3 X23.747 Y86.878 I6.234 J-13.185 E.02275
G3 X22.108 Y85.024 I2.644 J-3.987 E.06761
G3 X23.279 Y79.722 I4.018 J-1.893 E.15784
G1 X23.747 Y79.369 E.01582
G3 X24.497 Y78.987 I6.983 J12.801 E.02275
G1 X25.29 Y78.758 E.02231
G1 X25.54 Y78.734 E.00679
G1 X26.121 Y78.68 E.01574
G3 X26.949 Y78.758 I-6.35 J71.693 E.02248
G3 X27.751 Y78.991 I-6.315 J23.265 E.02256
G3 X28.962 Y79.722 I-1.775 J4.308 E.03838
G1 X29.155 Y79.88 E.00673
G3 X30.417 Y84.24 I-3.085 J3.255 E.12858
G3 X28.962 Y86.525 I-4.32 J-1.144 E.07436
G1 X28.495 Y86.878 E.01582
G3 X27.744 Y87.26 I-6.981 J-12.795 E.02275
G1 X27.192 Y87.419 E.01553
G1 X27.055 Y87.087 F36000
G1 F6000
G1 X26.882 Y87.137 E.00486
G1 X26.121 Y87.209 E.02066
G1 X25.359 Y87.137 E.02066
G1 X24.627 Y86.925 E.02059
G3 X23.333 Y86.107 I1.897 J-4.432 E.04154
G3 X23.5 Y80.003 I2.81 J-2.978 E.18623
G1 X23.94 Y79.671 E.01487
G3 X24.627 Y79.322 I6.393 J11.731 E.02084
G1 X25.358 Y79.11 E.02055
G1 X25.574 Y79.089 E.00588
G1 X26.121 Y79.038 E.01482
G3 X26.882 Y79.11 I-5.835 J65.945 E.02066
G3 X28.111 Y79.569 I-.858 J4.175 E.03559
G1 X28.302 Y79.671 E.00584
G3 X29.808 Y84.875 I-2.222 J3.463 E.15978
G3 X28.111 Y86.678 I-3.719 J-1.8 E.06794
G1 X27.614 Y86.925 E.015
G1 X27.093 Y87.076 E.01465
G1 X26.956 Y86.744 F36000
;TYPE:Outer wall
G1 F6000
G1 X26.815 Y86.785 E.00395
G1 X26.121 Y86.85 E.01885
G1 X25.426 Y86.785 E.01885
G1 X24.757 Y86.591 E.01881
G3 X22.759 Y81.521 I1.4 J-3.481 E.16481
G3 X24.757 Y79.656 I3.438 J1.679 E.07554
G1 X25.425 Y79.462 E.01879
G1 X25.608 Y79.444 E.00497
G3 X26.633 Y79.444 I.512 J2.74 E.02784
G1 X26.815 Y79.462 E.00495
G3 X28.109 Y79.973 I-.974 J4.366 E.03773
G3 X28.109 Y86.274 I-2.014 J3.151 E.2025
G3 X27.484 Y86.591 I-5.801 J-10.659 E.01894
G1 X26.994 Y86.733 E.01378
G1 E-.56 F1800
;WIPE_START
G1 F6000
G1 X26.815 Y86.785 E-.04469
G1 X26.121 Y86.85 E-.1674
G1 X26.005 Y86.839 E-.02791
;WIPE_END
G1 Z.6 F36000
G1 X79.983 Y67.913 Z.6
G1 Z.2
G1 E.8 F1800
;TYPE:Inner wall
G1 F6000
G1 X79.226 Y67.842 E.02054
G1 X78.367 Y67.594 E.02416
G3 X77.554 Y67.18 I6.761 J-14.285 E.02465
G3 X76.243 Y65.95 I3.087 J-4.603 E.04878
G3 X75.477 Y61.922 I4.006 J-2.848 E.11426
G3 X77.058 Y59.441 I4.67 J1.232 E.08077
G1 X77.554 Y59.067 E.01677
G3 X78.367 Y58.653 I7.573 J13.87 E.02465
G1 X79.223 Y58.406 E.02407
G1 X79.507 Y58.378 E.00771
G1 X80.121 Y58.321 E.01666
G3 X81.016 Y58.406 I-6.868 J77.46 E.02429
G3 X81.883 Y58.658 I-6.837 J25.163 E.0244
G3 X82.688 Y59.067 I-6.692 J14.136 E.0244
G3 X83.998 Y60.297 I-3.087 J4.603 E.04878
G3 X84.764 Y64.325 I-4.006 J2.848 E.11426
G3 X83.183 Y66.806 I-4.67 J-1.232 E.08077
G1 X82.688 Y67.18 E.01677
G3 X81.875 Y67.594 I-7.573 J-13.868 E.02465
G1 X81.016 Y67.842 E.02416
G1 X80.121 Y67.926 E.02429
G1 X80.022 Y67.917 E.00267
G1 X80.016 Y67.558 F36000
G1 F6000
G1 X79.292 Y67.489 E.01963
G1 X78.497 Y67.26 E.02237
G3 X77.747 Y66.878 I6.234 J-13.183 E.02275
G3 X76.108 Y65.024 I2.644 J-3.987 E.06761
G3 X77.279 Y59.722 I4.019 J-1.893 E.15784
G1 X77.747 Y59.369 E.01582
G3 X78.497 Y58.987 I6.983 J12.8 E.02275
G1 X79.29 Y58.758 E.02231
G1 X79.541 Y58.734 E.0068
G1 X80.121 Y58.68 E.01574
G3 X80.949 Y58.758 I-6.346 J71.641 E.02248
G3 X81.751 Y58.991 I-6.313 J23.257 E.02256
G3 X82.962 Y59.722 I-1.775 J4.308 E.03838
G1 X83.155 Y59.88 E.00673
G3 X84.417 Y64.24 I-3.085 J3.255 E.12858
G3 X82.962 Y66.525 I-4.32 J-1.144 E.07436
G1 X82.495 Y66.878 E.01582
G3 X81.744 Y67.26 I-6.982 J-12.798 E.02275
G1 X80.949 Y67.489 E.02237
G1 X80.121 Y67.567 E.02248
G1 X80.056 Y67.561 E.00176
G1 X80.049 Y67.202 F36000
G1 F6000
G1 X79.359 Y67.137 E.01873
G1 X78.627 Y66.925 E.02059
G3 X77.333 Y66.107 I1.897 J-4.432 E.04154
G3 X77.5 Y60.003 I2.81 J-2.978 E.18623
G1 X77.94 Y59.671 E.01487
G3 X78.627 Y59.322 I6.393 J11.731 E.02084
G1 X79.358 Y59.11 E.02055
G1 X79.574 Y59.089 E.00588
G1 X80.121 Y59.038 E.01482
G3 X80.882 Y59.11 I-5.828 J65.867 E.02066
G3 X82.111 Y59.569 I-.858 J4.175 E.03559
G1 X82.302 Y59.671 E.00584
G3 X83.808 Y64.875 I-2.222 J3.463 E.15978
G3 X82.111 Y66.678 I-3.719 J-1.8 E.06794
G1 X81.614 Y66.925 E.015
G1 X80.882 Y67.137 E.02059
G1 X80.121 Y67.209 E.02066
G1 X80.089 Y67.206 E.00085
G1 X80.083 Y66.846 F36000
;TYPE:Outer wall
G1 F6000
G1 X79.426 Y66.785 E.01782
G1 X78.757 Y66.591 E.01881
G3 X76.759 Y61.521 I1.4 J-3.481 E.16481
G3 X78.757 Y59.656 I3.438 J1.679 E.07554
G1 X79.425 Y59.462 E.01879
G1 X79.608 Y59.444 E.00497
G3 X80.633 Y59.444 I.512 J2.74 E.02784
G1 X80.815 Y59.462 E.00495
G3 X82.109 Y59.973 I-.974 J4.366 E.03773
G3 X82.109 Y66.274 I-2.014 J3.151 E.2025
G3 X81.484 Y66.591 I-5.801 J-10.659 E.01894
G1 X80.815 Y66.785 E.01881
G1 X80.123 Y66.85 E.01879
G1 E-.56 F1800
;WIPE_START
G1 F6000
G1 X79.426 Y66.785 E-.16787
G1 X79.138 Y66.701 E-.07213
;WIPE_END
G1 Z.6 F36000
G1 X43.292 Y46.045 Z.6
G1 Z.2
G1 E.8 F1800
;TYPE:Inner wall
G1 F6000
G1 X43.492 Y45.785 E.00885
G1 X43.66 Y45.379 E.01188
G1 X43.705 Y45.037 E.00934
G1 X43.705 Y39.526 E.14888
G1 X43.662 Y39.197 E.00898
G1 X43.499 Y38.803 E.01152
G2 X43.102 Y38.345 I-1.936 J1.276 E.01641
G1 X43.142 Y37.36 E.02662
G1 X43.142 Y34.052 E.08938
G1 X44.242 Y34.051 E.02972
G1 X44.242 Y28.272 E.15614
G1 X66.662 Y30.233 E.60808
G1 X66.751 Y30.278 E.0027
G1 X68.763 Y32.473 E.08046
G1 X68.799 Y32.566 E.0027
G1 X68.799 Y38.453 E.15905
G1 X68.442 Y47.32 E.23977
G1 X87.036 Y48.07 E.5028
G1 X89.021 Y50.137 E.07744
G1 X89.049 Y50.207 E.00204
G1 X89.049 Y67.06 E.45537
G1 X88.979 Y67.287 E.00642
G1 X86.924 Y70.248 E.09737
G1 X86.737 Y70.394 E.00642
G1 X72.957 Y75.545 E.39748
G1 X72.328 Y75.722 E.01766
G1 X32.049 Y83.503 E1.10842
G1 X32.049 Y86.981 E.09398
G1 X32.029 Y87.031 E.00147
G1 X30.079 Y88.981 E.07452
G1 X30.028 Y89.002 E.00147
G1 X23.565 Y89.002 E.17462
G1 X23.018 Y88.926 E.01493
G1 X21.467 Y88.483 E.04358
G1 X21.467 Y84.841 E.09842
G1 X21.642 Y84.808 E.00481
G2 X22.243 Y85.95 I4.324 J-1.548 E.03498
G2 X22.84 Y86.627 I6.806 J-5.403 E.0244
G2 X23.554 Y87.18 I7.194 J-8.543 E.0244
G2 X24.367 Y87.594 I7.575 J-13.872 E.02465
G1 X25.226 Y87.842 E.02416
G1 X26.121 Y87.926 E.02429
G1 X27.016 Y87.842 E.02429
G1 X27.875 Y87.594 E.02416
G2 X28.688 Y87.18 I-6.758 J-14.279 E.02465
G2 X29.998 Y85.95 I-3.087 J-4.603 E.04878
G2 X30.764 Y81.922 I-4.006 J-2.848 E.11426
G2 X29.183 Y79.441 I-4.67 J1.232 E.08077
G1 X28.688 Y79.067 E.01677
G2 X27.883 Y78.658 I-7.498 J13.73 E.0244
G2 X27.016 Y78.406 I-7.705 J24.915 E.0244
G2 X26.121 Y78.321 I-7.757 J77.313 E.02429
G2 X25.223 Y78.406 I6.894 J77.749 E.02437
G1 X24.367 Y78.653 E.02407
G2 X23.554 Y79.067 I6.76 J14.283 E.02465
G2 X22.243 Y80.297 I3.087 J4.603 E.04878
G2 X21.642 Y81.439 I3.723 J2.689 E.03498
G1 X21.467 Y81.406 E.00481
G1 X21.467 Y64.841 E.44759
G1 X21.642 Y64.808 E.00481
G2 X22.243 Y65.95 I4.324 J-1.548 E.03498
G2 X22.84 Y66.627 I6.804 J-5.401 E.0244
G2 X23.554 Y67.18 I7.192 J-8.541 E.0244
G2 X24.367 Y67.594 I7.574 J-13.871 E.02465
G1 X25.226 Y67.842 E.02416
G1 X26.121 Y67.926 E.02429
G1 X27.016 Y67.842 E.02429
G1 X27.875 Y67.594 E.02416
G2 X28.688 Y67.18 I-6.761 J-14.285 E.02465
G2 X29.998 Y65.95 I-3.087 J-4.603 E.04878
G2 X30.764 Y61.922 I-4.006 J-2.848 E.11426
G2 X29.183 Y59.441 I-4.67 J1.232 E.08077
G1 X28.688 Y59.067 E.01677
G2 X27.883 Y58.658 I-7.497 J13.727 E.0244
G2 X27.016 Y58.406 I-7.705 J24.915 E.0244
G2 X26.121 Y58.321 I-7.763 J77.373 E.02429
G2 X25.223 Y58.406 I6.888 J77.682 E.02437
G1 X24.367 Y58.653 E.02407
G2 X23.554 Y59.067 I6.76 J14.284 E.02465
G2 X22.243 Y60.297 I3.087 J4.603 E.04878
G2 X21.642 Y61.439 I3.723 J2.69 E.03498
G1 X21.467 Y61.406 E.00481
G1 X21.467 Y46.229 E.41009
G1 X21.692 Y46.401 E.00767
G1 X22.098 Y46.57 E.01187
G1 X22.441 Y46.615 E.00934
G1 X27.951 Y46.615 E.14888
G1 X28.281 Y46.571 E.00898
G1 X28.675 Y46.408 E.01152
G1 X28.938 Y46.206 E.00898
G1 X29.688 Y45.456 E.02864
G1 X35.098 Y45.674 E.1463
G1 X35.629 Y46.206 E.0203
G1 X35.893 Y46.408 E.00898
G1 X36.287 Y46.571 E.01152
G1 X36.617 Y46.615 E.00898
G1 X42.127 Y46.615 E.14888
G1 X42.47 Y46.57 E.00934
G1 X42.876 Y46.401 E.01187
G1 X43.224 Y46.134 E.01187
G1 X43.268 Y46.077 E.00194
G1 X43.015 Y45.821 F36000
G1 F6000
G1 X43.17 Y45.599 E.0073
G2 X43.348 Y45.013 I-1.171 J-.676 E.0167
G1 X43.348 Y39.55 E.14762
G1 X43.314 Y39.29 E.00708
G1 X43.187 Y38.983 E.00898
G2 X42.739 Y38.487 I-2.107 J1.451 E.0181
G1 X42.785 Y37.353 E.03066
G1 X42.785 Y33.696 E.09882
G1 X43.885 Y33.694 E.02972
G1 X43.885 Y27.882 E.15704
G1 X66.76 Y29.884 E.62042
G1 X66.969 Y29.987 E.00632
G1 X69.072 Y32.281 E.08408
G1 X69.157 Y32.499 E.00632
G1 X69.157 Y38.46 E.16106
G1 X68.813 Y46.977 E.23032
G1 X87.114 Y47.715 E.49487
G1 X87.249 Y47.777 E.00402
G1 X89.327 Y49.939 E.08103
G1 X89.407 Y50.138 E.00577
G1 X89.407 Y67.115 E.45871
G1 X89.303 Y67.446 E.00936
G1 X87.187 Y70.496 E.10032
G1 X86.913 Y70.709 E.00936
G1 X73.068 Y75.885 E.39935
G1 X72.411 Y76.07 E.01846
G1 X32.407 Y83.798 E1.10086
G1 X32.407 Y87.052 E.08793
G1 X32.331 Y87.234 E.00531
G1 X30.281 Y89.284 E.07835
G1 X30.099 Y89.359 E.00531
G1 X23.541 Y89.359 E.17721
G1 X22.944 Y89.276 E.01628
G1 X21.11 Y88.753 E.05154
G1 X21.11 Y45.385 E1.17176
G1 X21.282 Y45.35 E.00475
G1 X21.388 Y45.605 E.00745
G2 X22.464 Y46.258 I1.129 J-.649 E.03549
G1 X27.928 Y46.258 E.14762
G1 X28.187 Y46.223 E.00708
G1 X28.495 Y46.096 E.00898
G1 X28.702 Y45.937 E.00708
G1 X29.546 Y45.093 E.03223
G1 X35.252 Y45.323 E.15429
G1 X35.865 Y45.937 E.02344
G1 X36.073 Y46.096 E.00708
G1 X36.38 Y46.223 E.00898
G1 X36.64 Y46.258 E.00708
G1 X42.104 Y46.258 E.14762
G1 X42.376 Y46.222 E.00743
G2 X42.962 Y45.872 I-.378 J-1.299 E.01864
G1 X42.986 Y45.849 E.0009
G1 X42.686 Y45.647 F36000
G1 F6000
G1 X42.715 Y45.625 E.00098
G2 X42.991 Y44.99 I-.666 J-.666 E.01916
G1 X42.991 Y39.573 E.14635
G2 X42.758 Y39.011 I-.956 J.067 E.01673
G1 X42.376 Y38.629 E.0146
G1 X42.428 Y37.346 E.03469
G1 X42.428 Y33.339 E.10826
G1 X43.528 Y33.338 E.02972
G1 X43.528 Y27.493 E.15793
G1 X66.858 Y29.534 E.63276
G1 X67.187 Y29.696 E.00994
G1 X69.38 Y32.089 E.0877
G1 X69.514 Y32.432 E.00994
G1 X69.514 Y38.467 E.16306
G1 X69.184 Y46.635 E.22086
G1 X87.197 Y47.361 E.48709
G1 X87.459 Y47.479 E.00776
G1 X89.632 Y49.742 E.08476
G1 X89.764 Y50.069 E.00951
G1 X89.764 Y67.17 E.46205
G1 X89.627 Y67.605 E.01231
G1 X87.449 Y70.745 E.10327
G1 X87.089 Y71.025 E.01231
G1 X73.179 Y76.225 E.40123
G1 X72.493 Y76.418 E.01927
G1 X32.764 Y84.092 E1.0933
G1 X32.764 Y87.123 E.08189
G1 X32.634 Y87.436 E.00915
G1 X30.483 Y89.587 E.08219
G1 X30.17 Y89.716 E.00915
G1 X23.516 Y89.716 E.1798
G1 X22.87 Y89.626 E.01762
G1 X20.753 Y89.022 E.05949
G1 X20.753 Y25.901 E1.70548
G1 X21.577 Y25.901 E.02226
G1 X21.577 Y44.99 E.51577
G2 X22.488 Y45.901 I.942 J-.031 E.03831
G1 X27.904 Y45.901 E.14635
G2 X28.466 Y45.668 I-.067 J-.956 E.01673
G1 X29.404 Y44.73 E.03583
G1 X35.406 Y44.972 E.16229
G1 X36.101 Y45.668 E.02658
G2 X36.664 Y45.901 I.629 J-.723 E.01673
G1 X42.08 Y45.901 E.14635
G2 X42.515 Y45.778 I-.031 J-.942 E.01234
G1 X42.654 Y45.671 E.00473
G1 X42.465 Y45.364 F36000
;TYPE:Outer wall
G1 F6000
G1 X42.556 Y45.245 E.00405
G2 X42.634 Y44.966 I-.514 J-.294 E.00789
G1 X42.634 Y39.597 E.14509
G2 X42.489 Y39.247 I-.585 J.038 E.01041
G1 X42.013 Y38.771 E.01819
G1 X42.071 Y37.339 E.03872
G1 X42.071 Y32.983 E.1177
G1 X43.171 Y32.981 E.02972
G1 X43.171 Y27.103 E.15882
G1 X66.955 Y29.184 E.6451
G1 X67.405 Y29.406 E.01356
G1 X69.689 Y31.897 E.09132
G1 X69.871 Y32.365 E.01356
G1 X69.871 Y38.474 E.16507
G1 X69.555 Y46.292 E.21141
G1 X87.281 Y47.007 E.47931
G1 X87.669 Y47.182 E.0115
G1 X89.938 Y49.544 E.0885
G1 X90.121 Y49.999 E.01325
G1 X90.121 Y67.224 E.4654
G1 X89.952 Y67.763 E.01526
G1 X87.711 Y70.993 E.10622
G1 X87.265 Y71.34 E.01526
G1 X73.29 Y76.564 E.40311
G1 X72.575 Y76.765 E.02007
G1 X33.121 Y84.387 E1.08574
G1 X33.121 Y87.194 E.07585
G1 X32.937 Y87.638 E.01298
G1 X30.685 Y89.89 E.08603
G1 X30.241 Y90.073 E.01298
G1 X23.491 Y90.073 E.18239
G1 X22.796 Y89.976 E.01896
G1 X20.396 Y89.291 E.06744
G1 X20.396 Y25.543 E1.72241
G1 X21.934 Y25.543 E.04156
G1 X21.934 Y44.966 E.52479
G2 X22.511 Y45.543 I.592 J-.015 E.02432
G1 X27.881 Y45.543 E.14509
G2 X28.231 Y45.399 I-.038 J-.585 E.01041
G1 X29.262 Y44.367 E.03942
G1 X35.56 Y44.621 E.17029
G1 X36.337 Y45.399 E.02971
G2 X36.687 Y45.543 I.387 J-.441 E.01041
G1 X42.057 Y45.543 E.14509
G2 X42.437 Y45.392 I-.015 J-.592 E.01129
G1 E-.56 F1800
;WIPE_START
G1 F6000
G1 X42.556 Y45.245 E-.04546
G1 X42.616 Y45.1 E-.03778
G1 X42.634 Y44.966 E-.03223
G1 X42.634 Y44.448 E-.12454
;WIPE_END
G1 Z.6 F36000
G1 X44.349 Y28.907 Z.6
G1 Z.2
M73 P1 R27
G1 E.8 F1800
;TYPE:Bottom surface
;WIDTH:0.401166
G1 F12600
G1 X48.425 Y28.907 E.1105
