; HEADER_BLOCK_START
; generated by OrcaSlicer 2.3.1 on 2025-12-25 at 20:14:54
; total layer number: 175
; filament_density: 1.04
; filament_diameter: 1.75
; max_z_height: 35.00
; HEADER_BLOCK_END

; THUMBNAIL_BLOCK_START

;
; THUMBNAIL_BLOCK_END

; THUMBNAIL_BLOCK_START

;
; THUMBNAIL_BLOCK_END

; external perimeters extrusion width = 0.40mm
; perimeters extrusion width = 0.40mm
; infill extrusion width = 0.40mm
; solid infill extrusion width = 0.40mm
; top infill extrusion width = 0.40mm
; first layer extrusion width = 0.40mm

; EXECUTABLE_BLOCK_START


; Pre-Processed for Cancel-Object support by preprocess_cancellation v0.2.0
; 1 known objects
EXCLUDE_OBJECT_DEFINE NAME=Body5_stl_id_15_copy_0 CENTER=58.937,64.172 POLYGON=[[0.179,3.871],[0.179,114.806],[119.821,114.806],[119.821,3.871]]
M73 P0 R28
;TYPE:Custom
PRINT_START EXTRUDER_TEMP=250 BED_TEMP=110
G90
G21
M83 ; use relative distances for extrusion
; Filament gcode
SET_PRESSURE_ADVANCE ADVANCE=0.04; Override pressure advance value
M106 S0
;LAYER_CHANGE
;Z:0.2
;HEIGHT:0.2
;BEFORE_LAYER_CHANGE
;0.2
G92 E0

G1 E-.8 F1800
;AFTER_LAYER_CHANGE
;0.2
;_SET_FAN_SPEED_CHANGING_LAYER
SET_VELOCITY_LIMIT ACCEL=10000 ACCEL_TO_DECEL=10000
SET_VELOCITY_LIMIT SQUARE_CORNER_VELOCITY=9
; printing object Body5.stl id:15 copy 0
EXCLUDE_OBJECT_START NAME=Body5_stl_id_15_copy_0
G1 Z.6 F36000
G1 X3.062 Y23.257
G1 Z.6
G1 Z.2
G1 E.8 F1800
;TYPE:Brim
;WIDTH:0.4
G1 F6000
G1 X3.164 Y23.243 E.00278
G1 X4.293 Y23.392 E.03077
G1 X5.345 Y23.828 E.03077
G1 X6.025 Y24.35 E.02317
G1 X3.038 Y27.338 E.11416
G1 X2.981 Y27.426 E.00283
G1 X2.965 Y27.562 E.00369
G1 X3.038 Y27.732 E.00499
G1 X6.105 Y30.799 E.11722
G1 X5.345 Y31.383 E.0259
G1 X4.293 Y31.819 E.03077
G1 X3.164 Y31.967 E.03077
G1 X2.035 Y31.819 E.03077
G1 X.983 Y31.383 E.03077
G1 X.179 Y30.766 E.02739
G1 X.179 Y24.445 E.17078
G1 X.983 Y23.828 E.02739
G1 X2.035 Y23.392 E.03077
G1 X3.022 Y23.262 E.02691
G1 X3.069 Y23.616 F36000
G1 F6000
G1 X3.15 Y23.605 E.00221
G1 X4.186 Y23.738 E.02821
G1 X5.152 Y24.134 E.02821
G1 X5.388 Y24.311 E.00797
G1 X5.43 Y24.402 E.00271
G1 X5.398 Y24.472 E.00206
G1 X2.791 Y27.079 E.09963
G1 X2.686 Y27.225 E.00486
G1 X2.625 Y27.398 E.00496
G1 X2.612 Y27.508 E.00298
G1 X2.642 Y27.714 E.00563
G1 X2.705 Y27.862 E.00434
G1 X2.792 Y27.991 E.00423
G1 X5.479 Y30.678 E.10264
G1 X5.508 Y30.774 E.00271
G1 X5.468 Y30.838 E.00206
G1 X5.152 Y31.076 E.0107
G1 X4.186 Y31.473 E.02821
G1 X3.178 Y31.605 E.02746
G1 X2.142 Y31.473 E.02821
G1 X1.152 Y31.062 E.02896
G1 X.578 Y30.622 E.01956
G1 X.536 Y30.537 E.00256
G1 X.536 Y24.674 E.15841
G1 X.578 Y24.589 E.00256
G1 X1.152 Y24.148 E.01956
G1 X2.142 Y23.738 E.02896
G1 X3.029 Y23.621 E.02417
G1 X3.075 Y23.979 F36000
G1 F6000
G1 X3.164 Y23.967 E.00244
G1 X4.08 Y24.084 E.02493
G1 X4.785 Y24.37 E.02057
G1 X4.85 Y24.447 E.00271
G1 X4.821 Y24.545 E.00275
G1 X2.499 Y26.875 E.08889
G1 X2.346 Y27.116 E.00771
G1 X2.291 Y27.269 E.00439
G1 X2.26 Y27.563 E.00799
G1 X2.317 Y27.862 E.00821
G1 X2.413 Y28.066 E.0061
G1 X2.546 Y28.25 E.00612
G1 X4.921 Y30.625 E.09075
G1 X4.95 Y30.721 E.00271
G1 X4.886 Y30.8 E.00275
G1 X4.079 Y31.126 E.02351
G1 X3.163 Y31.243 E.02495
G1 X2.249 Y31.126 E.02491
G1 X1.345 Y30.756 E.0264
G1 X.935 Y30.446 E.0139
G1 X.893 Y30.361 E.00256
G1 X.893 Y24.85 E.1489
G1 X.935 Y24.765 E.00256
M73 P0 R27
G1 X1.345 Y24.455 E.0139
G1 X2.249 Y24.084 E.02641
G1 X3.035 Y23.984 E.0214
G1 X3.081 Y24.341 F36000
G1 F6000
G1 X3.178 Y24.329 E.00264
G1 X3.975 Y24.431 E.02171
G1 X4.152 Y24.499 E.00513
G1 X4.217 Y24.576 E.00271
G1 X4.188 Y24.674 E.00275
G1 X2.191 Y26.694 E.07676
G1 X2.049 Y26.917 E.00714
G1 X1.958 Y27.142 E.00654
G1 X1.906 Y27.519 E.0103
G1 X1.911 Y27.637 E.0032
G1 X1.998 Y28.021 E.01065
G1 X2.129 Y28.283 E.00792
G1 X2.252 Y28.453 E.00566
G1 X4.287 Y30.496 E.07793
G1 X4.317 Y30.592 E.00271
G1 X4.252 Y30.671 E.00276
G1 X3.974 Y30.78 E.00805
G1 X3.15 Y30.882 E.02244
G1 X2.328 Y30.773 E.02241
G1 X1.536 Y30.448 E.02312
G1 X1.292 Y30.268 E.00819
G1 X1.25 Y30.183 E.00258
G1 X1.25 Y25.028 E.13929
G1 X1.292 Y24.942 E.00258
G1 X1.536 Y24.762 E.00819
G1 X2.328 Y24.438 E.02313
G1 X3.041 Y24.346 E.01942
G1 E-.56 F1800
;WIPE_START
G1 F6000
G1 X3.178 Y24.329 E-.03306
G1 X3.975 Y24.431 E-.19282
G1 X4.03 Y24.452 E-.01412
;WIPE_END
G1 Z.6 F36000
G1 X1.754 Y28.392 Z.6
G1 Z.2
G1 E.8 F1800
G1 F6000
G1 X1.806 Y28.436 E.00183
G1 X2.004 Y28.71 E.00915
G1 X3.582 Y30.294 E.06042
G1 X3.611 Y30.39 E.00271
G1 X3.519 Y30.476 E.0034
G1 X3.138 Y30.52 E.01038
G1 X2.434 Y30.427 E.01918
G1 X1.725 Y30.14 E.02068
G1 X1.65 Y30.089 E.00243
G1 X1.607 Y30.003 E.00261
G1 X1.607 Y28.491 E.04084
G1 X1.654 Y28.403 E.00271
G1 X1.714 Y28.396 E.00163
G1 X2.011 Y29.346 F36000
G1 F6000
G1 X2.147 Y29.359 E.00369
G1 X2.692 Y29.907 E.02088
G1 X2.722 Y30.003 E.00271
G1 X2.658 Y30.081 E.00271
G1 X2.513 Y30.073 E.00392
G1 X2.031 Y29.878 E.01406
G1 X1.964 Y29.779 E.00324
G1 X1.964 Y29.435 E.0093
G1 X1.992 Y29.382 E.00163
G1 E-.56 F1800
;WIPE_START
G1 F6000
G1 X2.147 Y29.359 E-.03751
G1 X2.692 Y29.907 E-.18547
G1 X2.713 Y29.975 E-.01702
;WIPE_END
G1 Z.6 F36000
G1 X1.713 Y26.686 Z.6
G1 Z.2
G1 E.8 F1800
G1 F6000
G1 X1.625 Y26.638 E.00271
G1 X1.607 Y26.579 E.00167
G1 X1.607 Y25.208 E.03705
G1 X1.65 Y25.122 E.00261
G1 X1.725 Y25.071 E.00243
G1 X2.407 Y24.791 E.01992
G1 X3.191 Y24.691 E.02137
G1 X3.4 Y24.717 E.0057
G1 X3.482 Y24.775 E.00271
G1 X3.463 Y24.899 E.00338
G1 X1.943 Y26.436 E.05841
G1 X1.802 Y26.64 E.0067
G1 X1.748 Y26.668 E.00163
G1 X2.051 Y25.752 F36000
G1 F6000
G1 X1.964 Y25.647 E.0037
G1 X1.964 Y25.431 E.00584
G1 X2.03 Y25.331 E.00323
G1 X2.39 Y25.184 E.01049
G1 X2.49 Y25.194 E.00271
G1 X2.537 Y25.282 E.00271
G1 X2.507 Y25.359 E.00222
G1 X2.147 Y25.722 E.01381
G1 X2.09 Y25.74 E.00163
G1 E-.56 F1800
;WIPE_START
G1 F6000
G1 X1.964 Y25.647 E-.03756
G1 X1.964 Y25.431 E-.05188
G1 X2.03 Y25.331 E-.02865
G1 X2.39 Y25.184 E-.09319
G1 X2.49 Y25.194 E-.0241
G1 X2.499 Y25.211 E-.00461
;WIPE_END
G1 Z.6 F36000
G1 X19.28 Y11.094 Z.6
G1 Z.2
G1 E.8 F1800
G1 F6000
G1 X18.758 Y10.414 E.02318
G1 X18.322 Y9.362 E.03077
G1 X18.174 Y8.233 E.03077
G1 X18.322 Y7.104 E.03077
G1 X18.758 Y6.052 E.03077
G1 X19.451 Y5.149 E.03077
G1 X20.355 Y4.455 E.03077
G1 X21.407 Y4.02 E.03077
G1 X22.536 Y3.871 E.03077
G1 X23.665 Y4.02 E.03077
G1 X24.717 Y4.455 E.03077
G1 X25.62 Y5.149 E.03077
G1 X26.313 Y6.052 E.03077
G1 X26.749 Y7.104 E.03077
G1 X26.898 Y8.233 E.03077
G1 X26.749 Y9.362 E.03077
G1 X26.313 Y10.413 E.03075
G1 X25.709 Y11.191 E.02661
G1 X24.949 Y10.395 E.02973
G1 X22.662 Y8.107 E.08741
G1 X22.574 Y8.05 E.00283
G1 X22.438 Y8.035 E.00369
G1 X22.268 Y8.107 E.00499
G1 X19.309 Y11.066 E.11308
G1 X19.306 Y10.497 F36000
G1 F6000
G1 X19.241 Y10.457 E.00206
G1 X19.065 Y10.221 E.00797
G1 X18.676 Y9.282 E.02746
G1 X18.536 Y8.247 E.02821
G1 X18.668 Y7.211 E.02821
G1 X19.079 Y6.221 E.02896
G1 X19.717 Y5.395 E.02821
G1 X20.548 Y4.762 E.02821
G1 X21.514 Y4.366 E.02821
G1 X22.522 Y4.233 E.02746
G1 X23.557 Y4.366 E.02821
G1 X24.548 Y4.776 E.02896
G1 X25.374 Y5.414 E.02821
G1 X26.007 Y6.245 E.02821
G1 X26.403 Y7.211 E.02821
G1 X26.536 Y8.247 E.02821
G1 X26.396 Y9.282 E.02821
G1 X25.993 Y10.244 E.02817
G1 X25.757 Y10.547 E.01038
G1 X25.666 Y10.588 E.00271
G1 X25.597 Y10.556 E.00205
G1 X22.921 Y7.86 E.10264
G1 X22.775 Y7.755 E.00485
G1 X22.602 Y7.694 E.00497
G1 X22.492 Y7.681 E.00298
G1 X22.286 Y7.711 E.00563
G1 X22.138 Y7.774 E.00434
G1 X22.008 Y7.862 E.00423
G1 X19.402 Y10.468 E.09958
G1 X19.344 Y10.485 E.00163
G1 X19.379 Y9.92 F36000
G1 F6000
G1 X19.3 Y9.856 E.00274
G1 X19.021 Y9.174 E.01989
G1 X18.898 Y8.26 E.02493
G1 X19.015 Y7.318 E.02564
G1 X19.385 Y6.415 E.02637
G1 X19.962 Y5.661 E.02565
G1 X20.716 Y5.083 E.02566
G1 X21.594 Y4.719 E.02568
G1 X22.509 Y4.595 E.02495
G1 X23.451 Y4.712 E.02565
G1 X24.378 Y5.096 E.02713
G1 X25.127 Y5.679 E.02564
G1 X25.7 Y6.437 E.02566
G1 X26.049 Y7.29 E.02491
G1 X26.174 Y8.232 E.02566
G1 X26.05 Y9.173 E.02566
G1 X25.722 Y9.966 E.02317
G1 X25.645 Y10.03 E.00271
G1 X25.547 Y10 E.00274
G1 X23.179 Y7.614 E.09083
G1 X22.988 Y7.469 E.00648
G1 X22.887 Y7.417 E.00308
G1 X22.73 Y7.361 E.00451
G1 X22.54 Y7.328 E.00521
G1 X22.239 Y7.358 E.00818
G1 X22.142 Y7.385 E.00272
G1 X21.933 Y7.482 E.00622
G1 X21.75 Y7.615 E.00612
G1 X19.475 Y9.89 E.08694
G1 X19.417 Y9.908 E.00163
G1 X19.506 Y9.287 F36000
G1 F6000
G1 X19.427 Y9.223 E.00275
G1 X19.367 Y9.068 E.00449
G1 X19.26 Y8.271 E.02171
G1 X19.361 Y7.423 E.02308
G1 X19.692 Y6.607 E.02379
G1 X20.209 Y5.927 E.02308
G1 X20.885 Y5.403 E.02311
G1 X21.675 Y5.072 E.02315
G1 X22.497 Y4.957 E.02243
G1 X23.344 Y5.059 E.02306
G1 X24.209 Y5.417 E.02528
G1 X24.879 Y5.944 E.02304
G1 X25.392 Y6.628 E.02312
G1 X25.703 Y7.397 E.0224
G1 X25.812 Y8.218 E.02238
G1 X25.704 Y9.066 E.02311
G1 X25.598 Y9.333 E.00775
G1 X25.52 Y9.397 E.00271
G1 X25.423 Y9.367 E.00275
G1 X23.389 Y7.325 E.07788
G1 X23.211 Y7.19 E.00605
G1 X23.001 Y7.078 E.00642
G1 X22.785 Y7.008 E.00613
G1 X22.494 Y6.974 E.00793
G1 X22.211 Y7.002 E.00767
G1 X22.051 Y7.04 E.00445
G1 X21.79 Y7.155 E.00772
G1 X21.546 Y7.322 E.00799
G1 X19.602 Y9.258 E.07412
G1 X19.544 Y9.276 E.00163
G1 X19.732 Y8.558 F36000
G1 F6000
G1 X19.646 Y8.467 E.00336
G1 X19.621 Y8.255 E.00576
G1 X19.716 Y7.5 E.02056
G1 X20.014 Y6.774 E.0212
G1 X20.476 Y6.172 E.02051
G1 X21.079 Y5.709 E.02055
G1 X21.757 Y5.424 E.01987
G1 X22.486 Y5.319 E.01991
G1 X23.238 Y5.406 E.02045
G1 X24.038 Y5.737 E.02339
G1 X24.63 Y6.206 E.02041
G1 X25.07 Y6.794 E.01984
G1 X25.357 Y7.502 E.02063
G1 X25.45 Y8.232 E.0199
G1 X25.404 Y8.597 E.00993
G1 X25.346 Y8.679 E.00271
G1 X25.221 Y8.659 E.0034
G1 X23.647 Y7.078 E.0603
G1 X23.433 Y6.91 E.00735
G1 X23.104 Y6.736 E.01004
G1 X22.818 Y6.652 E.00806
G1 X22.546 Y6.62 E.00741
G1 X22.183 Y6.646 E.00982
G1 X21.9 Y6.716 E.00789
G1 X21.58 Y6.865 E.00952
G1 X21.352 Y7.022 E.0075
G1 X19.828 Y8.529 E.0579
G1 X19.77 Y8.546 E.00163
G1 E-.56 F1800
;WIPE_START
G1 F6000
G1 X19.646 Y8.467 E-.03523
G1 X19.621 Y8.255 E-.0512
G1 X19.701 Y7.62 E-.15357
;WIPE_END
G1 Z.6 F36000
G1 X20.203 Y7.59 Z.6
G1 Z.2
G1 E.8 F1800
G1 F6000
G1 X20.125 Y7.526 E.00271
G1 X20.125 Y7.444 E.00222
G1 X20.335 Y6.942 E.01469
G1 X20.741 Y6.418 E.01793
G1 X21.249 Y6.029 E.01728
G1 X21.867 Y5.769 E.01811
G1 X22.506 Y5.68 E.01742
G1 X23.133 Y5.753 E.01706
G1 X23.841 Y6.042 E.02067
G1 X24.38 Y6.469 E.01857
G1 X24.762 Y6.984 E.01734
G1 X25.003 Y7.58 E.01738
G1 X25.019 Y7.678 E.00269
G1 X24.984 Y7.772 E.00271
G1 X24.886 Y7.795 E.00271
G1 X24.837 Y7.767 E.00152
G1 X23.904 Y6.83 E.03574
G1 X23.66 Y6.635 E.00845
G1 X23.195 Y6.391 E.01419
G1 X22.926 Y6.312 E.00755
G1 X22.596 Y6.267 E.00901
G1 X22.088 Y6.301 E.01375
G1 X21.74 Y6.397 E.00975
G1 X21.437 Y6.538 E.00903
G1 X21.094 Y6.775 E.01128
G1 X20.299 Y7.561 E.0302
G1 X20.241 Y7.578 E.00163
G1 E-.56 F1800
;WIPE_START
G1 F6000
G1 X20.125 Y7.526 E-.03054
G1 X20.125 Y7.444 E-.01975
G1 X20.335 Y6.942 E-.1305
G1 X20.486 Y6.748 E-.05922
;WIPE_END
G1 Z.6 F36000
G1 X28.786 Y14.923 Z.6
G1 Z.2
G1 E.8 F1800
G1 F6000
G1 X29.363 Y14.684 E.01688
G1 X30.492 Y14.535 E.03077
G1 X31.621 Y14.684 E.03077
G1 X32.673 Y15.12 E.03077
G1 X33.577 Y15.813 E.03077
G1 X34.27 Y16.716 E.03077
G1 X34.706 Y17.768 E.03077
G1 X34.854 Y18.897 E.03077
G1 X34.706 Y20.026 E.03077
G1 X34.27 Y21.078 E.03077
G1 X33.577 Y21.982 E.03077
G1 X32.673 Y22.675 E.03077
G1 X31.621 Y23.11 E.03077
G1 X30.492 Y23.259 E.03077
G1 X29.363 Y23.11 E.03077
G1 X28.311 Y22.675 E.03077
G1 X27.458 Y22.02 E.02905
G1 X28.257 Y21.375 E.02774
G1 X28.807 Y20.987 E.01819
G1 X29.377 Y20.627 E.0182
G1 X30.243 Y20.131 E.02699
G1 X30.394 Y19.984 E.00568
G1 X30.518 Y19.801 E.00596
G1 X30.606 Y19.595 E.00604
G1 X30.654 Y19.398 E.00549
G1 X30.677 Y18.993 E.01096
G1 X30.609 Y18.489 E.01374
G1 X30.432 Y17.882 E.01709
G1 X30.232 Y17.382 E.01453
G1 X29.974 Y16.844 E.01614
G1 X29.668 Y16.285 E.0172
G1 X29.31 Y15.697 E.0186
G1 X28.809 Y14.956 E.02418
G1 X29.392 Y15.092 F36000
G1 F6000
G1 X29.476 Y15.029 E.00284
G1 X30.478 Y14.897 E.0273
G1 X31.514 Y15.03 E.02821
G1 X32.504 Y15.44 E.02896
G1 X33.311 Y16.059 E.02746
G1 X33.949 Y16.885 E.02821
G1 X34.36 Y17.875 E.02896
G1 X34.492 Y18.883 E.02746
G1 X34.36 Y19.919 E.02821
G1 X33.949 Y20.909 E.02896
G1 X33.331 Y21.716 E.02746
G1 X32.504 Y22.354 E.02821
G1 X31.514 Y22.764 E.02896
G1 X30.506 Y22.897 E.02746
G1 X29.471 Y22.764 E.02821
G1 X28.504 Y22.368 E.02821
G1 X28.143 Y22.096 E.01222
G1 X28.102 Y22.004 E.00271
G1 X28.141 Y21.927 E.00234
G1 X28.47 Y21.662 E.0114
G1 X29.004 Y21.286 E.01766
G1 X29.563 Y20.932 E.01788
G1 X30.411 Y20.446 E.02641
G1 X30.638 Y20.243 E.00823
G1 X30.808 Y20.009 E.00782
G1 X30.954 Y19.673 E.0099
G1 X31.011 Y19.41 E.00726
G1 X31.033 Y19.023 E.01046
G1 X30.949 Y18.382 E.01748
G1 X30.777 Y17.787 E.01673
G1 X30.565 Y17.253 E.01553
G1 X30.297 Y16.692 E.0168
G1 X29.982 Y16.117 E.01771
G1 X29.4 Y15.192 E.02952
G1 X29.395 Y15.132 E.00163
G1 X29.992 Y15.373 F36000
G1 F6000
G1 X30.076 Y15.31 E.00284
G1 X30.493 Y15.259 E.01135
G1 X31.407 Y15.376 E.02491
G1 X32.335 Y15.761 E.02715
G1 X33.065 Y16.325 E.02492
G1 X33.629 Y17.054 E.02491
G1 X34.014 Y17.983 E.02715
G1 X34.13 Y18.898 E.02492
G1 X34.013 Y19.812 E.02491
G1 X33.629 Y20.74 E.02715
G1 X33.065 Y21.47 E.02492
G1 X32.335 Y22.034 E.02491
G1 X31.407 Y22.418 E.02715
G1 X30.492 Y22.535 E.02492
G1 X29.577 Y22.418 E.02493
G1 X28.768 Y22.09 E.02357
G1 X28.704 Y22.013 E.00271
G1 X28.747 Y21.904 E.00318
G1 X29.205 Y21.581 E.01513
G1 X29.745 Y21.239 E.01728
G1 X30.58 Y20.761 E.02599
G1 X30.868 Y20.516 E.01022
G1 X31.14 Y20.141 E.01251
G1 X31.305 Y19.74 E.01172
G1 X31.368 Y19.424 E.00871
G1 X31.386 Y18.968 E.0123
G1 X31.305 Y18.344 E.01702
G1 X31.107 Y17.651 E.01947
G1 X30.886 Y17.095 E.01615
G1 X30.62 Y16.54 E.01663
G1 X30.297 Y15.948 E.01822
G1 X29.999 Y15.474 E.01514
G1 X29.995 Y15.413 E.00163
G1 X30.626 Y15.707 F36000
G1 F6000
G1 X30.735 Y15.65 E.00332
G1 X31.3 Y15.723 E.0154
G1 X32.166 Y16.081 E.02532
G1 X32.8 Y16.571 E.02164
G1 X33.309 Y17.224 E.02236
G1 X33.667 Y18.089 E.02532
G1 X33.769 Y18.884 E.02164
G1 X33.667 Y19.705 E.02236
G1 X33.308 Y20.571 E.02532
G1 X32.818 Y21.205 E.02164
G1 X32.166 Y21.713 E.02236
G1 X31.3 Y22.072 E.02532
G1 X30.478 Y22.174 E.02237
G1 X29.682 Y22.071 E.0217
G1 X29.515 Y22.008 E.00482
G1 X29.45 Y21.931 E.00271
G1 X29.498 Y21.818 E.00331
G1 X29.931 Y21.544 E.01386
G1 X30.75 Y21.075 E.02547
G1 X31.091 Y20.795 E.01193
G1 X31.422 Y20.359 E.0148
G1 X31.657 Y19.799 E.01639
G1 X31.725 Y19.43 E.01015
G1 X31.742 Y18.992 E.01186
G1 X31.646 Y18.238 E.02053
G1 X31.452 Y17.558 E.01911
G1 X31.219 Y16.966 E.01717
G1 X30.943 Y16.389 E.01729
G1 X30.627 Y15.808 E.01787
G1 X30.627 Y15.747 E.00163
G1 X31.307 Y16.211 F36000
G1 F6000
G1 X31.44 Y16.167 E.0038
G1 X31.972 Y16.387 E.01556
G1 X32.554 Y16.837 E.01987
G1 X33.003 Y17.419 E.01986
G1 X33.321 Y18.196 E.0227
G1 X33.407 Y18.898 E.01911
G1 X33.32 Y19.599 E.01908
G1 X33.002 Y20.377 E.02271
G1 X32.553 Y20.959 E.01987
G1 X31.971 Y21.408 E.01986
G1 X31.222 Y21.718 E.02191
G1 X30.624 Y21.796 E.01627
G1 X30.531 Y21.76 E.00271
G1 X30.508 Y21.662 E.00271
G1 X30.557 Y21.597 E.0022
G1 X30.981 Y21.347 E.01331
G1 X31.381 Y21.003 E.01425
G1 X31.756 Y20.486 E.01724
G1 X32.01 Y19.854 E.01841
G1 X32.082 Y19.437 E.01143
G1 X32.099 Y19.014 E.01143
G1 X32.001 Y18.2 E.02216
G1 X31.782 Y17.422 E.02185
G1 X31.552 Y16.839 E.01693
G1 X31.302 Y16.312 E.01576
G1 X31.305 Y16.251 E.00163
G1 E-.56 F1800
;WIPE_START
G1 F6000
G1 X31.44 Y16.167 E-.03823
G1 X31.972 Y16.387 E-.13821
G1 X32.182 Y16.549 E-.06356
;WIPE_END
G1 Z.6 F36000
G1 X32.074 Y17.059 Z.6
G1 Z.2
G1 E.8 F1800
G1 F6000
G1 X32.164 Y17.013 E.00271
G1 X32.228 Y17.036 E.00182
G1 X32.308 Y17.102 E.00281
G1 X32.696 Y17.612 E.01731
G1 X32.967 Y18.274 E.01933
G1 X33.046 Y18.911 E.01734
G1 X32.966 Y19.521 E.01662
G1 X32.696 Y20.184 E.01934
G1 X32.273 Y20.72 E.01845
G1 X32.181 Y20.76 E.00271
G1 X32.096 Y20.706 E.00271
G1 X32.089 Y20.614 E.00248
G1 X32.363 Y19.905 E.02055
G1 X32.439 Y19.445 E.0126
G1 X32.455 Y19.037 E.01103
G1 X32.342 Y18.095 E.02563
G1 X32.127 Y17.329 E.0215
G1 X32.062 Y17.158 E.00494
G1 X32.069 Y17.098 E.00163
G1 E-.56 F1800
;WIPE_START
G1 F6000
G1 X32.164 Y17.013 E-.03054
G1 X32.228 Y17.036 E-.01617
G1 X32.308 Y17.102 E-.02498
