; HEADER_BLOCK_START
; generated by OrcaSlicer 2.3.1 on 2025-12-24 at 23:07:20
; total layer number: 208
; filament_density: 1.04
; filament_diameter: 1.75
; max_z_height: 41.60
; HEADER_BLOCK_END

; THUMBNAIL_BLOCK_START

;
; THUMBNAIL_BLOCK_END

; THUMBNAIL_BLOCK_START

;
; THUMBNAIL_BLOCK_END

; external perimeters extrusion width = 0.40mm
; perimeters extrusion width = 0.40mm
; infill extrusion width = 0.40mm
; solid infill extrusion width = 0.40mm
; top infill extrusion width = 0.40mm
; first layer extrusion width = 0.40mm

; EXECUTABLE_BLOCK_START


; Pre-Processed for Cancel-Object support by preprocess_cancellation v0.2.0
; 1 known objects
EXCLUDE_OBJECT_DEFINE NAME=Body3_stl_id_0_copy_0 CENTER=57.892,59.781 POLYGON=[[34.7,16.1],[34.7,103.9],[85.3,103.9],[85.3,16.1]]
M73 P0 R30
;TYPE:Custom
PRINT_START EXTRUDER_TEMP=250 BED_TEMP=110
G90
G21
M83 ; use relative distances for extrusion
; Filament gcode
SET_PRESSURE_ADVANCE ADVANCE=0.04; Override pressure advance value
M106 S0
;LAYER_CHANGE
;Z:0.2
;HEIGHT:0.2
;BEFORE_LAYER_CHANGE
;0.2
G92 E0

G1 E-.8 F1800
;AFTER_LAYER_CHANGE
;0.2
;_SET_FAN_SPEED_CHANGING_LAYER
SET_VELOCITY_LIMIT ACCEL=10000 ACCEL_TO_DECEL=10000
SET_VELOCITY_LIMIT SQUARE_CORNER_VELOCITY=9
; printing object Body3.stl id:0 copy 0
EXCLUDE_OBJECT_START NAME=Body3_stl_id_0_copy_0
G1 Z.6 F36000
G1 X49.859 Y55.645
G1 Z.6
G1 Z.2
G1 E.8 F1800
;TYPE:Inner wall
;WIDTH:0.4
G1 F6000
G1 X49.872 Y55.644 E.00034
G1 X50 Y55.629 E.00349
G1 X50.84 Y55.722 E.02283
G1 X51.64 Y55.994 E.02284
G1 X52.362 Y56.434 E.02284
G1 X52.971 Y57.019 E.02284
G1 X53.439 Y57.724 E.02284
G1 X53.742 Y58.512 E.02284
G1 X53.868 Y59.348 E.02284
G2 X53.868 Y60.652 I4.617 J.652 E.03534
G1 X53.742 Y61.488 E.02284
G1 X53.439 Y62.276 E.02284
G1 X52.971 Y62.981 E.02284
G1 X52.362 Y63.566 E.02284
G1 X51.64 Y64.006 E.02284
G1 X50.84 Y64.278 E.02284
G1 X50 Y64.371 E.02284
G1 X49.16 Y64.278 E.02284
G1 X48.36 Y64.006 E.02284
G1 X47.638 Y63.566 E.02284
G1 X47.029 Y62.981 E.02284
G1 X46.561 Y62.276 E.02283
G1 X46.258 Y61.488 E.02284
G1 X46.132 Y60.652 E.02284
G2 X46.132 Y59.348 I-4.617 J-.652 E.03534
G1 X46.258 Y58.512 E.02284
G1 X46.561 Y57.724 E.02284
G1 X47.029 Y57.019 E.02284
G1 X47.638 Y56.434 E.02284
G1 X48.36 Y55.994 E.02284
G1 X49.16 Y55.722 E.02284
G1 X49.82 Y55.649 E.01793
G1 X49.898 Y56 F36000
G1 F6000
G1 X49.911 Y55.998 E.00034
G1 X50 Y55.989 E.00243
G1 X50.762 Y56.072 E.02072
G1 X51.488 Y56.32 E.02072
G1 X52.143 Y56.718 E.02072
G1 X52.695 Y57.25 E.02072
G1 X53.12 Y57.888 E.02072
G1 X53.395 Y58.604 E.02072
G1 X53.509 Y59.362 E.02072
G2 X53.509 Y60.638 I4.517 J.638 E.03458
G1 X53.395 Y61.396 E.02072
G1 X53.12 Y62.112 E.02072
G1 X52.695 Y62.75 E.02072
G1 X52.143 Y63.282 E.02072
G1 X51.488 Y63.68 E.02072
G1 X50.762 Y63.928 E.02072
G1 X50 Y64.011 E.02072
G1 X49.238 Y63.928 E.02072
G1 X48.512 Y63.68 E.02072
G1 X47.857 Y63.282 E.02072
G1 X47.369 Y62.813 E.01829
G1 X47.305 Y62.75 E.00243
G1 X46.88 Y62.112 E.02072
G1 X46.605 Y61.396 E.02072
G1 X46.491 Y60.638 E.02072
G2 X46.491 Y59.362 I-4.517 J-.638 E.03458
G1 X46.605 Y58.604 E.02072
G1 X46.88 Y57.888 E.02072
G1 X47.305 Y57.25 E.02072
G1 X47.857 Y56.718 E.02072
G1 X48.512 Y56.32 E.02072
G1 X49.238 Y56.072 E.02072
G1 X49.858 Y56.004 E.01687
G1 X49.963 Y56.355 F36000
;TYPE:Outer wall
G1 F6000
G1 X50.684 Y56.423 E.01957
G1 X51.336 Y56.645 E.0186
G1 X51.924 Y57.003 E.0186
G1 X52.42 Y57.48 E.0186
G1 X52.8 Y58.053 E.0186
G1 X53.048 Y58.696 E.0186
G1 X53.15 Y59.376 E.0186
G2 X53.15 Y60.624 I4.417 J.624 E.03381
G1 X53.048 Y61.304 E.0186
G1 X52.8 Y61.947 E.0186
G1 X52.42 Y62.52 E.0186
G1 X51.924 Y62.997 E.0186
G1 X51.336 Y63.355 E.0186
G1 X50.684 Y63.577 E.0186
G1 X50 Y63.652 E.0186
G1 X49.316 Y63.577 E.0186
G1 X48.664 Y63.355 E.0186
G1 X48.076 Y62.997 E.0186
G1 X47.617 Y62.555 E.01723
G1 X47.2 Y61.947 E.01994
G1 X46.952 Y61.304 E.0186
G1 X46.85 Y60.624 E.0186
G2 X46.85 Y59.376 I-4.417 J-.624 E.03381
G1 X46.952 Y58.696 E.0186
G1 X47.2 Y58.053 E.0186
G1 X47.58 Y57.48 E.0186
G1 X48.076 Y57.003 E.0186
G1 X48.664 Y56.645 E.0186
G1 X49.316 Y56.423 E.0186
G1 X49.923 Y56.356 E.01651
G1 E-.56 F1800
;WIPE_START
G1 F6000
G1 X50.684 Y56.423 E-.18331
G1 X50.908 Y56.499 E-.05669
;WIPE_END
G1 Z.6 F36000
G1 X46.255 Y30.063 Z.6
G1 Z.2
G1 E.8 F1800
;TYPE:Inner wall
G1 F6000
G1 X46.491 Y29.367 E.01984
G1 X46.924 Y28.651 E.02261
G1 X47.501 Y28.045 E.02261
G1 X48.195 Y27.577 E.02261
G1 X48.972 Y27.269 E.02258
G1 X49.377 Y27.203 E.01111
G1 X49.784 Y27.136 E.01114
G1 X50.633 Y27.182 E.02297
G1 X51.44 Y27.408 E.02264
G1 X52.179 Y27.801 E.02261
G1 X52.815 Y28.344 E.02258
G1 X53.312 Y28.999 E.02222
G1 X53.665 Y29.756 E.02258
G1 X53.847 Y30.574 E.02264
G1 X53.847 Y31.426 E.023
G1 X53.665 Y32.244 E.02264
G1 X53.312 Y33.002 E.02261
G1 X52.804 Y33.668 E.02261
G1 X52.165 Y34.208 E.02261
G1 X51.425 Y34.598 E.02261
G1 X50.618 Y34.82 E.02261
G1 X49.782 Y34.864 E.02261
G1 X49.369 Y34.795 E.01131
G1 X48.957 Y34.727 E.01131
G1 X48.18 Y34.415 E.02261
G1 X47.489 Y33.945 E.02258
G1 X46.924 Y33.348 E.02222
G1 X46.491 Y32.633 E.02258
G1 X46.222 Y31.84 E.02261
G1 X46.13 Y31.007 E.02264
G1 X46.222 Y30.161 E.023
G1 X46.242 Y30.101 E.00172
G1 X46.593 Y30.178 F36000
G1 F6000
G1 X46.817 Y29.519 E.01879
G1 X47.21 Y28.869 E.02051
G1 X47.733 Y28.319 E.02051
G1 X48.362 Y27.895 E.02051
G1 X49.067 Y27.615 E.02049
G1 X49.435 Y27.555 E.01007
G1 X49.804 Y27.495 E.01009
G1 X50.575 Y27.536 E.02086
G1 X51.307 Y27.741 E.02053
G1 X51.977 Y28.098 E.02051
G1 X52.554 Y28.591 E.02049
G1 X53.005 Y29.184 E.02015
G1 X53.325 Y29.872 E.02049
G1 X53.49 Y30.614 E.02053
G1 X53.49 Y31.386 E.02088
G1 X53.325 Y32.128 E.02053
G1 X53.004 Y32.817 E.02051
G1 X52.544 Y33.42 E.02051
G1 X51.964 Y33.91 E.02051
G1 X51.292 Y34.264 E.02051
G1 X50.561 Y34.466 E.02051
G1 X49.802 Y34.505 E.02051
G1 X49.428 Y34.443 E.01026
G1 X49.053 Y34.381 E.01026
G1 X48.349 Y34.098 E.02051
G1 X47.722 Y33.671 E.02049
G1 X47.209 Y33.13 E.02015
G1 X46.817 Y32.481 E.02049
G1 X46.573 Y31.762 E.02051
G1 X46.489 Y31.007 E.02053
G1 X46.573 Y30.239 E.02088
G1 X46.58 Y30.215 E.00066
G1 X46.931 Y30.292 F36000
;TYPE:Outer wall
G1 F6000
G1 X47.142 Y29.67 E.01775
G1 X47.495 Y29.087 E.01841
G1 X47.965 Y28.593 E.01841
G1 X48.53 Y28.212 E.01841
G1 X49.163 Y27.961 E.0184
G1 X49.493 Y27.907 E.00903
G1 X49.823 Y27.853 E.00904
G1 X50.516 Y27.891 E.01875
G1 X51.173 Y28.075 E.01842
G1 X51.774 Y28.395 E.01841
G1 X52.293 Y28.837 E.0184
G1 X52.697 Y29.37 E.01807
G1 X52.985 Y29.987 E.0184
G1 X53.133 Y30.653 E.01842
G1 X53.133 Y31.347 E.01876
G1 X52.985 Y32.013 E.01842
G1 X52.697 Y32.631 E.01841
G1 X52.283 Y33.172 E.01841
G1 X51.763 Y33.612 E.01841
G1 X51.16 Y33.93 E.01841
G1 X50.503 Y34.111 E.01841
G1 X49.823 Y34.147 E.01841
G1 X49.486 Y34.091 E.00921
G1 X49.15 Y34.035 E.00921
G1 X48.518 Y33.781 E.01841
G1 X47.955 Y33.398 E.0184
G1 X47.495 Y32.912 E.01807
G1 X47.142 Y32.33 E.0184
G1 X46.923 Y31.684 E.01841
G1 X46.848 Y31.006 E.01842
G1 X46.922 Y30.331 E.01836
G1 E-.56 F1800
;WIPE_START
G1 F6000
G1 X47.142 Y29.67 E-.16714
G1 X47.3 Y29.411 E-.07286
;WIPE_END
G1 Z.6 F36000
G1 X46.46 Y90.54 Z.6
G1 Z.2
G1 E.8 F1800
;TYPE:Inner wall
G1 F6000
G1 X46.219 Y89.825 E.02039
G1 X46.13 Y88.992 E.02264
G1 X46.222 Y88.16 E.02261
G1 X46.491 Y87.368 E.02258
G1 X46.915 Y86.664 E.02222
G1 X47.488 Y86.056 E.02258
G1 X48.18 Y85.585 E.02261
G1 X48.957 Y85.273 E.02261
G1 X49.369 Y85.205 E.01131
G1 X49.783 Y85.136 E.01134
G1 X50.633 Y85.182 E.023
G1 X51.44 Y85.408 E.02264
G1 X52.179 Y85.801 E.02261
G1 X52.815 Y86.345 E.02261
G1 X53.32 Y87.011 E.02258
G1 X53.665 Y87.757 E.02222
G1 X53.847 Y88.573 E.02258
G1 X53.848 Y89.41 E.02261
G1 X53.67 Y90.228 E.02261
G1 X53.32 Y90.988 E.02261
G1 X52.815 Y91.655 E.02261
G1 X52.179 Y92.199 E.02261
G1 X51.439 Y92.593 E.02264
G1 X50.62 Y92.82 E.02297
G1 X49.798 Y92.865 E.02225
G1 X48.973 Y92.731 E.02258
G1 X48.195 Y92.423 E.02261
G1 X47.501 Y91.955 E.02261
G1 X46.924 Y91.349 E.02261
G1 X46.491 Y90.632 E.02264
G1 X46.472 Y90.578 E.00153
G1 X46.798 Y90.426 F36000
G1 F6000
G1 X46.57 Y89.748 E.01933
G1 X46.489 Y88.992 E.02053
G1 X46.573 Y88.238 E.02051
G1 X46.817 Y87.52 E.02049
G1 X47.201 Y86.881 E.02015
G1 X47.721 Y86.329 E.02049
G1 X48.349 Y85.902 E.02051
G1 X49.053 Y85.619 E.02051
G1 X49.428 Y85.557 E.01026
G1 X49.803 Y85.495 E.01028
G1 X50.575 Y85.536 E.02088
G1 X51.307 Y85.741 E.02053
G1 X51.977 Y86.098 E.02051
G1 X52.554 Y86.591 E.02051
G1 X53.012 Y87.196 E.02049
G1 X53.325 Y87.873 E.02015
G1 X53.49 Y88.613 E.02049
G1 X53.491 Y89.372 E.02051
G1 X53.33 Y90.114 E.02051
G1 X53.012 Y90.804 E.02051
G1 X52.554 Y91.409 E.02051
G1 X51.977 Y91.902 E.02051
G1 X51.306 Y92.259 E.02053
G1 X50.562 Y92.466 E.02086
G1 X49.817 Y92.506 E.02017
G1 X49.068 Y92.385 E.02049
G1 X48.362 Y92.105 E.02051
G1 X47.733 Y91.681 E.02051
G1 X47.21 Y91.131 E.02051
G1 X46.816 Y90.48 E.02053
G1 X46.811 Y90.464 E.00047
G1 X47.136 Y90.312 F36000
;TYPE:Outer wall
G1 F6000
G1 X46.921 Y89.671 E.01827
G1 X46.848 Y88.993 E.01842
G1 X46.923 Y88.316 E.01841
G1 X47.142 Y87.671 E.0184
G1 X47.487 Y87.098 E.01807
G1 X47.954 Y86.602 E.0184
G1 X48.518 Y86.219 E.01841
G1 X49.15 Y85.965 E.01841
G1 X49.486 Y85.909 E.00921
G1 X49.823 Y85.853 E.00922
G1 X50.516 Y85.891 E.01876
G1 X51.173 Y86.075 E.01842
G1 X51.774 Y86.395 E.01841
G1 X52.293 Y86.837 E.01841
G1 X52.704 Y87.381 E.0184
G1 X52.985 Y87.988 E.01807
G1 X53.133 Y88.652 E.0184
G1 X53.134 Y89.334 E.01841
G1 X52.989 Y90 E.01841
G1 X52.704 Y90.619 E.01841
G1 X52.293 Y91.162 E.01841
G1 X51.774 Y91.605 E.01841
G1 X51.173 Y91.926 E.01842
G1 X50.504 Y92.111 E.01875
G1 X49.836 Y92.147 E.01808
G1 X49.163 Y92.039 E.0184
G1 X48.53 Y91.788 E.01841
G1 X47.965 Y91.407 E.01841
G1 X47.495 Y90.913 E.01841
G1 X47.154 Y90.348 E.01783
G1 E-.56 F1800
;WIPE_START
G1 F6000
G1 X46.921 Y89.671 E-.17176
G1 X46.89 Y89.389 E-.06824
;WIPE_END
G1 Z.6 F36000
G1 X83.536 Y40.793 Z.6
G1 Z.2
G1 E.8 F1800
;TYPE:Inner wall
G1 F6000
G1 X83.536 Y79.207 E1.03792
G1 X67.368 Y95.375 E.61778
G1 X66.151 Y96.508 E.04494
G1 X64.87 Y97.54 E.04443
G1 X63.52 Y98.478 E.04443
G1 X62.105 Y99.317 E.04443
G1 X60.635 Y100.053 E.04443
G1 X59.116 Y100.682 E.04443
G1 X57.556 Y101.202 E.04443
G1 X55.962 Y101.608 E.04443
G1 X54.344 Y101.9 E.04443
G1 X52.709 Y102.076 E.04443
G1 X51.047 Y102.136 E.04494
G1 X46.756 Y102.136 E.11594
G1 X45.614 Y101.804 E.03213
G3 X44.341 Y101.293 I21.706 J-55.836 E.03706
G1 X43.276 Y100.747 E.03233
G3 X41.18 Y99.266 I8.623 J-14.433 E.0694
G3 X37.43 Y94.019 I9.169 J-10.517 E.17587
G3 X37.011 Y92.805 I29.446 J-10.845 E.03469
G1 X36.708 Y91.55 E.0349
G1 X36.526 Y90.281 E.03464
G1 X36.464 Y88.975 E.03532
G1 X36.464 Y31.025 E1.56575
G1 X36.526 Y29.719 E.03532
G1 X36.708 Y28.45 E.03464
G1 X37.011 Y27.195 E.0349
G3 X37.464 Y25.9 I56.772 J19.161 E.03706
G1 X37.962 Y24.812 E.03233
G3 X39.401 Y22.583 I14.028 J7.476 E.07178
G1 X40.247 Y21.616 E.03471
G3 X41.18 Y20.734 I11.518 J11.248 E.03471
G3 X42.193 Y19.944 I12.1 J14.47 E.03471
G3 X43.276 Y19.253 I12.781 J18.859 E.03471
G3 X44.419 Y18.669 I13.621 J25.243 E.03468
G1 X45.622 Y18.193 E.03494
G1 X46.751 Y17.864 E.03178
G1 X51.206 Y17.87 E.12037
G1 X52.709 Y17.924 E.04063
G1 X54.344 Y18.1 E.04443
G1 X55.962 Y18.392 E.04443
G1 X57.556 Y18.798 E.04443
G1 X59.116 Y19.318 E.04443
G1 X60.635 Y19.947 E.04443
G1 X62.105 Y20.683 E.04443
G1 X63.52 Y21.522 E.04443
G1 X64.87 Y22.46 E.04443
G1 X66.151 Y23.492 E.04443
G1 X67.368 Y24.625 E.04494
G1 X83.508 Y40.764 E.6167
G1 X83.893 Y40.645 F36000
G1 F6000
G1 X83.893 Y79.355 E1.04592
G1 X67.616 Y95.632 E.62195
G1 X66.385 Y96.779 E.04546
G1 X65.084 Y97.826 E.04512
G1 X63.713 Y98.779 E.04512
G1 X62.277 Y99.631 E.04512
G1 X60.783 Y100.378 E.04512
G1 X59.241 Y101.017 E.04512
G1 X57.656 Y101.545 E.04512
G1 X56.038 Y101.958 E.04512
G1 X54.395 Y102.254 E.04512
G1 X52.735 Y102.433 E.04512
G1 X51.053 Y102.493 E.04546
G1 X46.705 Y102.493 E.11748
G1 X45.5 Y102.143 E.03389
G3 X44.182 Y101.612 I19.462 J-50.241 E.03842
G1 X43.103 Y101.059 E.03276
G3 X41.907 Y100.289 I28.519 J-45.634 E.03843
G1 X40.952 Y99.541 E.03276
G3 X37.642 Y95.346 I9.478 J-10.882 E.14521
G3 X37.097 Y94.147 I22.529 J-10.977 E.0356
G3 X36.667 Y92.902 I30.216 J-11.12 E.03559
G1 X36.357 Y91.617 E.03573
G1 X36.17 Y90.314 E.03555
G1 X36.107 Y88.983 E.03601
G1 X36.107 Y31.017 E1.5662
G1 X36.17 Y29.686 E.03601
G1 X36.357 Y28.383 E.03555
G1 X36.667 Y27.098 E.03573
G3 X37.138 Y25.756 I51.075 J17.165 E.03842
G1 X37.642 Y24.654 E.03276
G3 X39.127 Y22.355 I14.365 J7.648 E.07402
G1 X39.994 Y21.363 E.0356
G3 X40.952 Y20.459 I11.811 J11.545 E.03561
G3 X41.991 Y19.649 I12.405 J14.846 E.0356
G3 X43.103 Y18.941 I13.103 J19.347 E.0356
G3 X44.275 Y18.342 I13.974 J25.913 E.03559
G1 X45.506 Y17.855 E.03576
G3 X46.702 Y17.507 I16.811 J55.6 E.03365
G1 X51.219 Y17.513 E.12205
G1 X52.735 Y17.567 E.04098
G1 X54.395 Y17.746 E.04512
G1 X56.038 Y18.042 E.04512
G1 X57.656 Y18.455 E.04512
G1 X59.241 Y18.983 E.04512
G1 X60.783 Y19.622 E.04512
G1 X62.277 Y20.369 E.04512
G1 X63.713 Y21.221 E.04512
G1 X65.084 Y22.174 E.04512
G1 X66.385 Y23.221 E.04512
G1 X67.616 Y24.368 E.04546
G1 X83.865 Y40.617 E.62087
G1 X84.25 Y40.497 F36000
;TYPE:Outer wall
G1 F6000
G1 X84.25 Y79.503 E1.05391
G1 X67.864 Y95.889 E.62612
G1 X66.619 Y97.049 E.04598
G1 X65.299 Y98.112 E.04581
G1 X63.906 Y99.079 E.04581
G1 X62.448 Y99.944 E.04581
G1 X60.932 Y100.703 E.04581
G1 X59.366 Y101.352 E.04581
G1 X57.757 Y101.887 E.04581
G1 X56.114 Y102.307 E.04581
G1 X54.446 Y102.608 E.04581
G1 X52.76 Y102.789 E.04581
G1 X51.06 Y102.85 E.04598
G1 X46.654 Y102.85 E.11902
G1 X45.387 Y102.482 E.03564
G3 X44.022 Y101.932 I17.884 J-46.321 E.03977
G1 X42.929 Y101.371 E.03319
G3 X41.691 Y100.574 I26.248 J-42.123 E.03978
G1 X40.724 Y99.816 E.03319
G3 X37.322 Y95.505 I9.713 J-11.162 E.14924
G3 X36.763 Y94.276 I23.097 J-11.246 E.03649
G3 X36.323 Y92.999 I30.991 J-11.398 E.03649
G1 X36.006 Y91.684 E.03656
G1 X35.814 Y90.348 E.03647
G1 X35.75 Y88.992 E.03669
G1 X35.75 Y31.008 E1.56666
G1 X35.814 Y29.652 E.03669
G1 X36.006 Y28.316 E.03647
G1 X36.323 Y27.001 E.03656
G3 X36.811 Y25.612 I47.08 J15.76 E.03977
G1 X37.322 Y24.495 E.03319
G3 X38.852 Y22.126 I14.703 J7.819 E.07627
G1 X39.742 Y21.111 E.03649
G3 X40.724 Y20.184 I12.103 J11.84 E.0365
G3 X41.79 Y19.354 I12.709 J15.221 E.0365
G3 X42.929 Y18.629 I13.425 J19.835 E.03649
G3 X44.132 Y18.015 I14.327 J26.583 E.03649
G1 X45.39 Y17.517 E.03657
G3 X46.653 Y17.15 I17.778 J58.89 E.03552
G1 X51.232 Y17.156 E.12372
G1 X52.76 Y17.211 E.04132
G1 X54.446 Y17.392 E.04581
G1 X56.114 Y17.693 E.04581
G1 X57.757 Y18.113 E.04581
G1 X59.365 Y18.648 E.04581
G1 X60.932 Y19.297 E.04581
G1 X62.448 Y20.056 E.04581
G1 X63.906 Y20.921 E.04581
G1 X65.299 Y21.888 E.04581
G1 X66.619 Y22.951 E.04581
G1 X67.864 Y24.111 E.04598
G1 X84.222 Y40.469 E.62504
G1 E-.56 F1800
;WIPE_START
G1 F6000
G1 X84.222 Y41.469 E-.24
;WIPE_END
G1 Z.6 F36000
G1 X53.65 Y18.133 Z.6
G1 Z.2
G1 E.8 F1800
;TYPE:Bottom surface
;WIDTH:0.40076
G1 F12600
G1 X46.788 Y18.133 E.1858
G1 X45.598 Y18.491 E.03364
G1 X55.003 Y18.491 E.25464
G3 X56.669 Y18.848 I-1.668 J11.831 E.04619
G1 X44.694 Y18.848 E.32425
G1 X44.53 Y18.913 E.00479
G1 X43.957 Y19.206 E.01742
G1 X57.933 Y19.206 E.37844
G1 X59.009 Y19.564 E.03068
G1 X43.287 Y19.564 E.42569
G1 X42.725 Y19.922 E.01803
G1 X59.875 Y19.922 E.46435
G3 X60.702 Y20.28 I-2.088 J5.959 E.02441
G1 X42.198 Y20.28 E.50103
G1 X41.739 Y20.638 E.01575
G1 X61.417 Y20.638 E.53281
G3 X62.107 Y20.995 I-2.156 J5.008 E.02108
G1 X41.293 Y20.995 E.56358
G1 X40.915 Y21.353 E.0141
G1 X62.711 Y21.353 E.59016
G1 X63.314 Y21.711 E.01899
G1 X40.536 Y21.711 E.61674
G2 X40.208 Y22.069 I1.656 J1.848 E.01317
G1 X63.838 Y22.069 E.63981
G1 X64.353 Y22.427 E.01699
G1 X39.897 Y22.427 E.66219
G1 X39.586 Y22.785 E.01284
G1 X64.847 Y22.785 E.68397
G1 X65.291 Y23.143 E.01544
G1 X39.327 Y23.143 E.70301
G1 X39.073 Y23.5 E.01188
G1 X65.735 Y23.5 E.72191
G3 X66.151 Y23.858 I-2.293 J3.092 E.01488
G1 X38.821 Y23.858 E.74002
G1 X38.615 Y24.216 E.01118
G1 X66.536 Y24.216 E.75601
G1 X66.92 Y24.574 E.01422
G1 X38.409 Y24.574 E.77199
G1 X38.203 Y24.932 E.01118
G1 X67.296 Y24.932 E.78775
G1 X67.654 Y25.29 E.0137
G1 X38.039 Y25.29 E.80186
G1 X37.876 Y25.647 E.01065
G1 X68.012 Y25.647 E.81596
