; HEADER_BLOCK_START
; generated by OrcaSlicer 2.3.1 on 2026-02-11 at 18:17:41
; total layer number: 135
; filament_density: 1.04
; filament_diameter: 1.75
; max_z_height: 27.00
; HEADER_BLOCK_END

; THUMBNAIL_BLOCK_START

;
; THUMBNAIL_BLOCK_END

; THUMBNAIL_BLOCK_START

;
; THUMBNAIL_BLOCK_END

; external perimeters extrusion width = 0.40mm
; perimeters extrusion width = 0.40mm
; infill extrusion width = 0.40mm
; solid infill extrusion width = 0.40mm
; top infill extrusion width = 0.40mm
; first layer extrusion width = 0.40mm

; EXECUTABLE_BLOCK_START


; Pre-Processed for Cancel-Object support by preprocess_cancellation v0.2.0
; 1 known objects
EXCLUDE_OBJECT_DEFINE NAME=Body1_stl_id_15_copy_0 CENTER=61.128,50.818 POLYGON=[[19.951,18.951],[19.951,101.149],[100.049,101.149],[100.049,18.951]]
M73 P0 R21
;TYPE:Custom
PRINT_START EXTRUDER_TEMP=255 BED_TEMP=105
G90
G21
M83 ; use relative distances for extrusion
; Filament gcode
SET_PRESSURE_ADVANCE ADVANCE=0.04; Override pressure advance value
M106 S0
;LAYER_CHANGE
;Z:0.2
;HEIGHT:0.2
;BEFORE_LAYER_CHANGE
;0.2
G92 E0

G1 E-.8 F1800
;AFTER_LAYER_CHANGE
;0.2
;_SET_FAN_SPEED_CHANGING_LAYER
SET_VELOCITY_LIMIT ACCEL=10000 ACCEL_TO_DECEL=10000
SET_VELOCITY_LIMIT SQUARE_CORNER_VELOCITY=9
; printing object Body1.stl id:15 copy 0
EXCLUDE_OBJECT_START NAME=Body1_stl_id_15_copy_0
G1 Z.6 F36000
G1 X21.696 Y20.934
G1 Z.6
G1 Z.2
G1 E.8 F1800
;TYPE:Brim
;WIDTH:0.4
G1 F6000
G1 X22.264 Y20.401 E.02105
G1 X22.894 Y19.943 E.02105
G1 X23.574 Y19.567 E.02099
G1 X24.574 Y19.195 E.02884
G1 X25.332 Y19.027 E.02098
G1 X26.307 Y18.951 E.02641
G1 X93.694 Y18.951 E1.82075
G1 X94.478 Y19 E.0212
G1 X95.243 Y19.145 E.02105
G1 X95.984 Y19.384 E.02104
G1 X96.726 Y19.733 E.02215
G1 X97.467 Y20.199 E.02365
G1 X98.066 Y20.696 E.02103
G1 X98.599 Y21.264 E.02105
G1 X99.057 Y21.894 E.02105
G1 X99.433 Y22.574 E.021
G1 X99.79 Y23.522 E.02736
G1 X99.973 Y24.333 E.02246
G1 X100.049 Y25.307 E.0264
G1 X100.049 Y94.094 E1.85857
G1 X99.998 Y94.89 E.02153
G1 X99.827 Y95.848 E.0263
G1 X99.51 Y96.784 E.0267
G1 X99.179 Y97.49 E.02106
G1 X98.716 Y98.212 E.02318
G1 X98.09 Y98.974 E.02665
G1 X97.457 Y99.551 E.02315
G1 X96.656 Y100.125 E.02662
G1 X95.705 Y100.601 E.02875
G1 X94.972 Y100.866 E.02105
G1 X94.13 Y101.051 E.02329
G1 X93.007 Y101.148 E.03047
G1 X27.006 Y101.149 E1.78328
G1 X26.21 Y101.098 E.02154
G1 X25.252 Y100.927 E.0263
G1 X24.316 Y100.61 E.0267
G1 X23.61 Y100.279 E.02106
G1 X22.888 Y99.816 E.02318
G1 X22.126 Y99.19 E.02665
G1 X21.549 Y98.557 E.02315
G1 X20.975 Y97.756 E.02662
G1 X20.499 Y96.805 E.02874
G1 X20.234 Y96.072 E.02105
G1 X20.049 Y95.23 E.0233
G1 X19.952 Y94.107 E.03047
G1 X19.951 Y25.306 E1.85894
G1 X20 Y24.523 E.0212
G1 X20.145 Y23.757 E.02105
G1 X20.384 Y23.017 E.02102
G1 X20.779 Y22.19 E.02475
G1 X21.198 Y21.533 E.02106
G1 X21.67 Y20.965 E.01997
G1 X21.945 Y21.192 F36000
G1 F6000
G1 X21.952 Y21.184 E.00029
G1 X22.497 Y20.673 E.0202
G1 X23.092 Y20.241 E.01984
G1 X23.731 Y19.89 E.01971
G1 X24.683 Y19.536 E.02744
G1 X25.392 Y19.38 E.01963
G1 X26.325 Y19.308 E.02527
G1 X93.687 Y19.308 E1.82005
G1 X94.44 Y19.356 E.02038
G1 X95.161 Y19.494 E.01984
G1 X95.859 Y19.72 E.01982
G1 X96.56 Y20.05 E.02093
G1 X97.251 Y20.485 E.02207
G1 X97.826 Y20.961 E.02016
G1 X98.319 Y21.487 E.01948
G1 X98.752 Y22.08 E.01984
G1 X99.111 Y22.732 E.02009
G1 X99.445 Y23.618 E.02558
G1 X99.617 Y24.379 E.02108
G1 X99.691 Y25.317 E.02543
G1 X99.692 Y94.08 E1.85791
G1 X99.642 Y94.853 E.02094
G1 X99.482 Y95.751 E.02464
G1 X99.18 Y96.645 E.02549
G1 X98.862 Y97.323 E.02024
G1 X98.431 Y97.996 E.02162
G1 X97.836 Y98.722 E.02534
G1 X97.227 Y99.277 E.02226
G1 X96.478 Y99.813 E.02489
G1 X95.558 Y100.275 E.02782
G1 X94.866 Y100.524 E.01987
G1 X94.083 Y100.695 E.02166
G1 X92.986 Y100.791 E.02974
G1 X27.02 Y100.792 E1.78234
G1 X26.247 Y100.742 E.02094
G1 X25.349 Y100.582 E.02464
G1 X24.455 Y100.28 E.02548
G1 X23.777 Y99.962 E.02024
G1 X23.104 Y99.53 E.02162
G1 X22.378 Y98.936 E.02534
G1 X21.823 Y98.327 E.02226
G1 X21.287 Y97.578 E.02489
G1 X20.825 Y96.658 E.02781
G1 X20.576 Y95.966 E.01987
G1 X20.405 Y95.183 E.02167
G1 X20.309 Y94.086 E.02974
G1 X20.308 Y25.32 E1.858
G1 X20.356 Y24.561 E.02056
G1 X20.49 Y23.852 E.01948
G1 X20.714 Y23.156 E.01976
G1 X21.095 Y22.359 E.02388
G1 X21.484 Y21.75 E.01951
G1 X21.92 Y21.223 E.01847
G1 X22.195 Y21.451 F36000
G1 F6000
G1 X22.208 Y21.434 E.00058
G1 X22.731 Y20.944 E.01935
G1 X23.289 Y20.54 E.01863
G1 X23.887 Y20.213 E.01843
G1 X24.791 Y19.878 E.02604
G1 X25.452 Y19.734 E.01828
G1 X26.343 Y19.665 E.02414
G1 X93.672 Y19.665 E1.81917
G1 X94.401 Y19.712 E.01975
G1 X95.079 Y19.842 E.01864
G1 X95.733 Y20.055 E.01861
G1 X96.393 Y20.367 E.01972
G1 X97.035 Y20.771 E.02049
G1 X97.585 Y21.227 E.01929
G1 X98.047 Y21.721 E.01828
G1 X98.446 Y22.267 E.01827
G1 X98.788 Y22.889 E.01918
G1 X99.099 Y23.714 E.02382
G1 X99.262 Y24.425 E.01971
G1 X99.334 Y25.327 E.02444
G1 X99.335 Y94.065 E1.85725
G1 X99.286 Y94.816 E.02034
G1 X99.137 Y95.654 E.023
G1 X98.851 Y96.505 E.02427
G1 X98.545 Y97.156 E.01941
G1 X98.145 Y97.781 E.02006
G1 X97.581 Y98.469 E.02404
G1 X96.997 Y99.003 E.02137
G1 X96.3 Y99.502 E.02316
G1 X95.411 Y99.948 E.02688
G1 X94.76 Y100.182 E.01868
G1 X94.036 Y100.34 E.02003
G1 X92.966 Y100.434 E.02901
G1 X27.035 Y100.435 E1.7814
G1 X26.284 Y100.386 E.02034
G1 X25.446 Y100.237 E.023
G1 X24.595 Y99.951 E.02426
G1 X23.944 Y99.645 E.01941
G1 X23.319 Y99.244 E.02006
G1 X22.631 Y98.681 E.02404
G1 X22.097 Y98.097 E.02137
G1 X21.598 Y97.4 E.02316
G1 X21.152 Y96.511 E.02687
G1 X20.919 Y95.86 E.01868
G1 X20.76 Y95.136 E.02004
G1 X20.666 Y94.066 E.02901
G1 X20.665 Y25.335 E1.85706
G1 X20.712 Y24.599 E.01993
G1 X20.839 Y23.934 E.01828
G1 X21.044 Y23.295 E.01813
G1 X21.412 Y22.527 E.02301
G1 X21.777 Y21.955 E.01833
G1 X22.169 Y21.482 E.01662
G1 X22.445 Y21.709 F36000
G1 F6000
G1 X22.465 Y21.685 E.00085
G1 X22.964 Y21.216 E.01849
G1 X23.486 Y20.839 E.0174
G1 X24.043 Y20.536 E.01714
G1 X24.899 Y20.22 E.02465
G1 X25.512 Y20.087 E.01693
G1 X26.361 Y20.022 E.02301
G1 X93.657 Y20.023 E1.81828
G1 X94.363 Y20.069 E.0191
G1 X94.996 Y20.191 E.01743
G1 X95.608 Y20.391 E.01739
G1 X96.227 Y20.685 E.01852
G1 X96.82 Y21.057 E.01891
G1 X97.344 Y21.492 E.01842
G1 X97.767 Y21.944 E.01672
G1 X98.14 Y22.454 E.01706
G1 X98.466 Y23.046 E.01827
G1 X98.754 Y23.81 E.02207
G1 X98.906 Y24.472 E.01834
G1 X98.977 Y25.337 E.02345
G1 X98.978 Y94.05 E1.85657
G1 X98.93 Y94.779 E.01974
G1 X98.791 Y95.557 E.02137
G1 X98.521 Y96.366 E.02304
G1 X98.235 Y96.976 E.0182
G1 X97.858 Y97.565 E.01889
G1 X97.326 Y98.217 E.02274
G1 X96.767 Y98.728 E.02048
G1 X96.122 Y99.19 E.02144
G1 X95.264 Y99.622 E.02594
G1 X94.655 Y99.839 E.01748
G1 X93.989 Y99.985 E.01842
G1 X92.946 Y100.077 E.02828
G1 X27.05 Y100.078 E1.78044
G1 X26.321 Y100.03 E.01974
G1 X25.542 Y99.891 E.02137
G1 X24.734 Y99.621 E.02304
G1 X24.112 Y99.328 E.01858
G1 X23.534 Y98.958 E.01851
G1 X22.883 Y98.426 E.02274
G1 X22.371 Y97.867 E.02047
G1 X21.91 Y97.221 E.02144
G1 X21.478 Y96.364 E.02593
G1 X21.261 Y95.755 E.01748
G1 X21.115 Y95.089 E.01843
G1 X21.023 Y94.046 E.02828
G1 X21.022 Y25.35 E1.85611
G1 X21.069 Y24.637 E.01929
M73 P1 R21
G1 X21.185 Y24.029 E.01674
G1 X21.375 Y23.434 E.01686
G1 X21.728 Y22.695 E.02213
G1 X22.063 Y22.172 E.01679
G1 X22.419 Y21.74 E.01513
G1 X22.695 Y21.967 F36000
G1 F6000
G1 X22.721 Y21.935 E.00114
G1 X23.197 Y21.488 E.01762
G1 X23.683 Y21.139 E.01617
G1 X24.199 Y20.859 E.01585
G1 X25.007 Y20.562 E.02326
G1 X25.571 Y20.441 E.01559
G1 X26.379 Y20.379 E.02189
G1 X93.642 Y20.38 E1.81739
G1 X94.323 Y20.425 E.01846
G1 X94.9 Y20.536 E.01585
G1 X95.469 Y20.721 E.01617
G1 X96.049 Y20.995 E.01735
G1 X96.604 Y21.343 E.01769
G1 X97.104 Y21.757 E.01755
G1 X97.496 Y22.177 E.01551
G1 X97.834 Y22.64 E.0155
G1 X98.143 Y23.203 E.01735
G1 X98.409 Y23.907 E.02033
G1 X98.551 Y24.519 E.01697
G1 X98.619 Y25.347 E.02245
G1 X98.621 Y94.035 E1.85589
G1 X98.574 Y94.742 E.01914
M73 P1 R20
G1 X98.446 Y95.461 E.01975
G1 X98.19 Y96.228 E.02182
G1 X97.917 Y96.81 E.01737
G1 X97.572 Y97.35 E.01734
G1 X97.071 Y97.965 E.02143
G1 X96.546 Y98.446 E.01923
G1 X95.943 Y98.879 E.02006
G1 X95.117 Y99.295 E.02499
G1 X94.549 Y99.497 E.01627
G1 X93.941 Y99.63 E.01682
G1 X92.926 Y99.72 E.02755
G1 X27.065 Y99.721 E1.77949
G1 X26.358 Y99.674 E.01915
G1 X25.639 Y99.546 E.01975
G1 X24.873 Y99.291 E.02181
G1 X24.291 Y99.018 E.01737
G1 X23.75 Y98.672 E.01735
G1 X23.135 Y98.171 E.02144
G1 X22.646 Y97.636 E.01958
G1 X22.221 Y97.043 E.01971
G1 X21.805 Y96.217 E.02499
G1 X21.603 Y95.65 E.01627
G1 X21.47 Y95.041 E.01683
G1 X21.38 Y94.026 E.02754
G1 X21.379 Y25.365 E1.85516
G1 X21.425 Y24.676 E.01865
G1 X21.533 Y24.111 E.01555
G1 X21.705 Y23.573 E.01524
G1 X22.044 Y22.864 E.02125
G1 X22.356 Y22.377 E.01561
G1 X22.669 Y21.998 E.01329
G1 X22.945 Y22.225 F36000
G1 F6000
G1 X22.978 Y22.185 E.0014
G1 X23.43 Y21.761 E.01675
G1 X23.879 Y21.439 E.01492
G1 X24.353 Y21.183 E.01457
G1 X25.113 Y20.904 E.02187
G1 X25.629 Y20.795 E.01424
G1 X26.396 Y20.737 E.02079
G1 X93.627 Y20.737 E1.8165
G1 X94.284 Y20.781 E.01781
G1 X94.816 Y20.884 E.01465
G1 X95.343 Y21.056 E.01496
G1 X95.883 Y21.313 E.01615
G1 X96.388 Y21.629 E.01612
G1 X96.863 Y22.023 E.01666
G1 X97.216 Y22.401 E.01396
G1 X97.528 Y22.827 E.01428
G1 X97.821 Y23.36 E.01643
G1 X98.064 Y24.004 E.0186
G1 X98.195 Y24.566 E.01561
G1 X98.262 Y25.357 E.02144
G1 X98.263 Y94.019 E1.8552
G1 X98.219 Y94.692 E.01822
G1 X98.1 Y95.365 E.01847
G1 X97.86 Y96.089 E.02059
G1 X97.607 Y96.631 E.01616
G1 X97.286 Y97.136 E.01617
G1 X96.815 Y97.713 E.02013
G1 X96.325 Y98.164 E.01799
G1 X95.764 Y98.568 E.01867
G1 X94.97 Y98.968 E.02404
G1 X94.444 Y99.154 E.01506
G1 X93.894 Y99.275 E.01523
G1 X92.905 Y99.363 E.02682
G1 X27.081 Y99.363 E1.77852
G1 X26.407 Y99.319 E.01823
G1 X25.735 Y99.2 E.01847
G1 X25.011 Y98.96 E.02058
G1 X24.47 Y98.707 E.01615
G1 X23.965 Y98.386 E.01618
G1 X23.387 Y97.915 E.02013
G1 X22.928 Y97.416 E.01833
G1 X22.532 Y96.864 E.01833
G1 X22.132 Y96.07 E.02403
G1 X21.946 Y95.545 E.01506
G1 X21.825 Y94.994 E.01524
G1 X21.737 Y94.005 E.02681
G1 X21.737 Y25.38 E1.85419
G1 X21.781 Y24.715 E.01801
G1 X21.879 Y24.205 E.01402
G1 X22.036 Y23.712 E.01398
G1 X22.36 Y23.032 E.02036
G1 X22.642 Y22.594 E.01407
G1 X22.92 Y22.256 E.01182
G1 X23.195 Y22.483 F36000
G1 F6000
G1 X23.235 Y22.435 E.00168
G1 X23.663 Y22.033 E.01587
G1 X24.075 Y21.739 E.01367
G1 X24.508 Y21.506 E.01328
G1 X25.22 Y21.247 E.02049
G1 X25.687 Y21.148 E.0129
G1 X26.414 Y21.094 E.01969
G1 X93.611 Y21.094 E1.8156
G1 X94.245 Y21.137 E.01716
G1 X94.733 Y21.233 E.01345
G1 X95.204 Y21.387 E.01338
G1 X95.705 Y21.624 E.01498
G1 X96.172 Y21.916 E.01489
G1 X96.622 Y22.288 E.01578
G1 X96.944 Y22.634 E.01275
G1 X97.222 Y23.014 E.01272
G1 X97.498 Y23.517 E.01551
G1 X97.719 Y24.101 E.01688
G1 X97.84 Y24.615 E.01425
G1 X97.905 Y25.377 E.02066
G1 X97.906 Y94.004 E1.85426
G1 X97.865 Y94.644 E.01731
G1 X97.754 Y95.27 E.01719
G1 X97.53 Y95.951 E.01937
G1 X97.296 Y96.452 E.01495
G1 X96.999 Y96.921 E.015
G1 X96.559 Y97.462 E.01884
G1 X96.104 Y97.883 E.01675
G1 X95.585 Y98.257 E.01728
G1 X94.823 Y98.641 E.02307
G1 X94.34 Y98.811 E.01384
G1 X93.846 Y98.92 E.01365
G1 X92.885 Y99.006 E.02609
G1 X27.096 Y99.006 E1.77755
G1 X26.456 Y98.965 E.01731
G1 X25.83 Y98.854 E.01719
G1 X25.15 Y98.63 E.01936
G1 X24.648 Y98.396 E.01494
G1 X24.179 Y98.099 E.01501
G1 X23.638 Y97.66 E.01883
G1 X23.21 Y97.195 E.01708
G1 X22.843 Y96.686 E.01695
G1 X22.459 Y95.923 E.02307
G1 X22.289 Y95.44 E.01384
G1 X22.18 Y94.946 E.01366
G1 X22.094 Y93.985 E.02608
G1 X22.094 Y25.395 E1.85322
G1 X22.137 Y24.754 E.01737
G1 X22.224 Y24.3 E.0125
G1 X22.366 Y23.851 E.01272
G1 X22.677 Y23.2 E.01947
G1 X22.935 Y22.799 E.01289
G1 X23.17 Y22.514 E.01
G1 X23.446 Y22.74 F36000
G1 F6000
G1 X23.491 Y22.685 E.00193
G1 X23.896 Y22.306 E.01498
G1 X24.27 Y22.04 E.0124
G1 X24.661 Y21.831 E.01199
G1 X25.326 Y21.589 E.01911
G1 X25.745 Y21.502 E.01156
G1 X26.431 Y21.451 E.01861
G1 X93.595 Y21.451 E1.81471
G1 X94.204 Y21.493 E.0165
G1 X94.636 Y21.578 E.01189
G1 X95.065 Y21.717 E.01218
G1 X95.528 Y21.935 E.01382
G1 X95.957 Y22.202 E.01366
G1 X96.381 Y22.554 E.01489
G1 X96.664 Y22.857 E.01121
G1 X96.916 Y23.2 E.01151
G1 X97.176 Y23.673 E.01458
G1 X97.374 Y24.199 E.01518
G1 X97.484 Y24.663 E.01289
G1 X97.548 Y25.396 E.01988
G1 X97.549 Y93.989 E1.85332
G1 X97.51 Y94.595 E.0164
G1 X97.408 Y95.175 E.01591
G1 X97.199 Y95.813 E.01814
G1 X96.985 Y96.274 E.01374
G1 X96.712 Y96.707 E.01383
G1 X96.303 Y97.211 E.01754
G1 X95.882 Y97.601 E.0155
G1 X95.406 Y97.946 E.01588
G1 X94.676 Y98.315 E.0221
G1 X94.248 Y98.465 E.01226
G1 X93.799 Y98.565 E.01244
G1 X92.864 Y98.648 E.02535
G1 X27.111 Y98.649 E1.77659
G1 X26.505 Y98.61 E.0164
G1 X25.925 Y98.508 E.01591
G1 X25.287 Y98.299 E.01813
G1 X24.826 Y98.085 E.01373
G1 X24.393 Y97.812 E.01383
G1 X23.889 Y97.404 E.01752
G1 X23.491 Y96.973 E.01584
G1 X23.155 Y96.506 E.01556
G1 X22.785 Y95.776 E.0221
G1 X22.635 Y95.348 E.01226
G1 X22.535 Y94.898 E.01245
G1 X22.452 Y93.964 E.02535
G1 X22.451 Y25.411 E1.85223
G1 X22.493 Y24.793 E.01673
G1 X22.573 Y24.381 E.01134
G1 X22.697 Y23.989 E.01111
G1 X22.993 Y23.369 E.01857
G1 X23.22 Y23.015 E.01136
G1 X23.421 Y22.771 E.00854
G1 X23.697 Y22.998 F36000
G1 F6000
G1 X23.748 Y22.935 E.00219
G1 X24.128 Y22.578 E.01408
G1 X24.464 Y22.34 E.01112
G1 X24.814 Y22.155 E.0107
G1 X25.431 Y21.932 E.01773
G1 X25.802 Y21.856 E.01022
G1 X26.449 Y21.808 E.01753
G1 X93.579 Y21.808 E1.8138
G1 X94.164 Y21.849 E.01584
M73 P2 R20
G1 X94.552 Y21.926 E.0107
G1 X94.927 Y22.048 E.01064
G1 X95.351 Y22.246 E.01266
G1 X95.742 Y22.489 E.01241
G1 X96.14 Y22.819 E.01399
G1 X96.392 Y23.09 E.01
G1 X96.61 Y23.387 E.00995
G1 X96.853 Y23.83 E.01366
G1 X97.03 Y24.297 E.01349
G1 X97.129 Y24.713 E.01154
G1 X97.191 Y25.416 E.01909
G1 X97.192 Y93.974 E1.85237
G1 X97.155 Y94.547 E.0155
G1 X97.062 Y95.081 E.01465
G1 X96.869 Y95.676 E.01691
G1 X96.674 Y96.097 E.01253
G1 X96.425 Y96.493 E.01265
G1 X96.047 Y96.961 E.01625
G1 X95.66 Y97.32 E.01426
G1 X95.227 Y97.635 E.01448
G1 X94.529 Y97.988 E.02112
G1 X94.144 Y98.123 E.01103
G1 X93.75 Y98.209 E.01088
G1 X92.843 Y98.291 E.02462
G1 X27.126 Y98.292 E1.77562
G1 X26.553 Y98.255 E.0155
G1 X26.019 Y98.162 E.01464
G1 X25.425 Y97.969 E.0169
G1 X25.004 Y97.774 E.01253
G1 X24.607 Y97.525 E.01266
G1 X24.14 Y97.147 E.01623
G1 X23.773 Y96.752 E.01459
G1 X23.465 Y96.327 E.01416
G1 X23.112 Y95.629 E.02113
G1 X22.978 Y95.244 E.01103
G1 X22.891 Y94.85 E.01089
G1 X22.809 Y93.943 E.02461
G1 X22.808 Y25.427 E1.85124
G1 X22.849 Y24.833 E.01608
G1 X22.918 Y24.476 E.00985
G1 X23.028 Y24.128 E.00985
G1 X23.309 Y23.537 E.01767
G1 X23.513 Y23.221 E.01017
G1 X23.671 Y23.028 E.00673
G1 X23.971 Y23.271 F36000
G1 F6000
G1 X24.094 Y23.118 E.00529
G1 X24.595 Y22.702 E.0176
G1 X25.098 Y22.43 E.01547
G1 X25.713 Y22.24 E.01739
G1 X26.355 Y22.165 E.01746
G1 X93.638 Y22.165 E1.81793
G1 X94.312 Y22.251 E.01837
G1 X94.927 Y22.45 E.01746
G1 X95.502 Y22.776 E.01785
G1 X95.983 Y23.198 E.01728
G1 X96.323 Y23.633 E.01493
G1 X96.613 Y24.201 E.01723
G1 X96.764 Y24.725 E.01473
G1 X96.835 Y25.354 E.0171
G1 X96.835 Y94.049 E1.85608
G1 X96.74 Y94.843 E.0216
G1 X96.488 Y95.637 E.02253
G1 X96.102 Y96.31 E.02094
G1 X95.552 Y96.93 E.02241
G1 X94.965 Y97.37 E.01982
G1 X94.381 Y97.658 E.01758
G1 X93.761 Y97.834 E.01741
G1 X92.938 Y97.935 E.02241
G1 X27.051 Y97.935 E1.7802
G1 X26.257 Y97.84 E.0216
G1 X25.463 Y97.588 E.02253
G1 X24.79 Y97.203 E.02094
G1 X24.17 Y96.652 E.02241
G1 X23.73 Y96.065 E.01981
G1 X23.442 Y95.481 E.01758
G1 X23.266 Y94.861 E.01741
G1 X23.165 Y94.038 E.02241
G1 X23.165 Y25.36 E1.85561
G1 X23.248 Y24.7 E.01798
G1 X23.438 Y24.099 E.01704
G1 X23.707 Y23.597 E.01537
G1 X23.946 Y23.302 E.01027
G1 X24.218 Y23.528 F36000
G1 F6000
G1 X24.375 Y23.339 E.00662
G1 X24.826 Y22.974 E.01569
G1 X25.271 Y22.742 E.01357
G1 X25.822 Y22.58 E.01549
G1 X26.348 Y22.522 E.01432
G1 X93.645 Y22.522 E1.81828
G1 X94.274 Y22.607 E.01715
G1 X94.822 Y22.792 E.01563
G1 X95.329 Y23.089 E.01589
G1 X95.75 Y23.468 E.01531
G1 X96.045 Y23.856 E.01316
G1 X96.269 Y24.295 E.01331
G1 X96.408 Y24.759 E.01309
G1 X96.478 Y25.348 E.01602
G1 X96.478 Y94.055 E1.85642
G1 X96.385 Y94.809 E.02051
G1 X96.146 Y95.536 E.02069
