; HEADER_BLOCK_START
; generated by OrcaSlicer 2.3.2-beta2 on 2026-02-20 at 18:50:29
; total layer number: 128
; filament_density: 1.04
; filament_diameter: 1.75
; max_z_height: 25.60
; filament: 1
; HEADER_BLOCK_END

; THUMBNAIL_BLOCK_START

;
; THUMBNAIL_BLOCK_END

; THUMBNAIL_BLOCK_START

;
; THUMBNAIL_BLOCK_END

; external perimeters extrusion width = 0.40mm
; perimeters extrusion width = 0.40mm
; infill extrusion width = 0.40mm
; solid infill extrusion width = 0.40mm
; top infill extrusion width = 0.40mm
; first layer extrusion width = 0.40mm

; external perimeters extrusion width = 0.40mm
; perimeters extrusion width = 0.40mm
; infill extrusion width = 0.40mm
; solid infill extrusion width = 0.40mm
; top infill extrusion width = 0.40mm
; first layer extrusion width = 0.40mm

; EXECUTABLE_BLOCK_START


; Pre-Processed for Cancel-Object support by preprocess_cancellation v0.2.0
; 1 known objects
EXCLUDE_OBJECT_DEFINE NAME=Body1_id_0_copy_0 CENTER=60.081,59.656 POLYGON=[[43.2,52.7],[43.2,67.3],[76.8,67.3],[76.8,52.7]]
M73 P0 R18
;TYPE:Custom
PRINT_START EXTRUDER_TEMP=250 BED_TEMP=110
G90
G21
M83 ; use relative distances for extrusion
; Filament gcode
SET_PRESSURE_ADVANCE ADVANCE=0.04; Override pressure advance value
M106 S0
;LAYER_CHANGE
;Z:0.2
;HEIGHT:0.2
;BEFORE_LAYER_CHANGE
;0.2
G92 E0

G1 E-.8 F1800
;AFTER_LAYER_CHANGE
;0.2
;_SET_FAN_SPEED_CHANGING_LAYER
SET_VELOCITY_LIMIT ACCEL=10000 ACCEL_TO_DECEL=10000
SET_VELOCITY_LIMIT SQUARE_CORNER_VELOCITY=9
; printing object Body1 id:0 copy 0
EXCLUDE_OBJECT_START NAME=Body1_id_0_copy_0
G1 Z.6 F36000
G1 X65.76 Y65.422
G1 Z.6
G1 Z.2
G1 E.8 F1800
;TYPE:Inner wall
;WIDTH:0.4
G1 F6000
G1 X65.76 Y54.578 E.29298
G1 X74.64 Y54.578 E.23991
G1 X74.64 Y65.422 E.29298
G1 X65.8 Y65.422 E.23883
G1 X65.403 Y65.779 F36000
G1 F6000
G1 X65.403 Y54.221 E.31227
G1 X74.997 Y54.221 E.25921
G1 X74.997 Y65.779 E.31227
G1 X65.443 Y65.779 E.25813
G1 X65.046 Y66.136 F36000
G1 F6000
G1 X65.046 Y53.864 E.33157
G1 X75.354 Y53.864 E.2785
G1 X75.354 Y66.136 E.33157
G1 X65.086 Y66.136 E.27742
G1 X64.689 Y66.493 F36000
G1 F6000
G1 X64.689 Y53.507 E.35087
G1 X75.711 Y53.507 E.2978
G1 X75.711 Y66.493 E.35087
G1 X64.729 Y66.493 E.29672
G1 X64.332 Y66.838 F36000
;TYPE:Outer wall
G1 F6000
G1 X64.332 Y53.162 E.36951
G1 X64.883 Y53.15 E.0149
G1 X76.068 Y53.162 E.3022
G1 X76.068 Y66.838 E.36951
G1 X64.372 Y66.838 E.31602
G1 E-.56 F1800
;WIPE_START
G1 F6000
G1 X64.369 Y65.838 E-.24
;WIPE_END
G1 Z.6 F36000
G1 X74.533 Y54.852 Z.6
G1 Z.2
G1 E.8 F1800
;TYPE:Bottom surface
;WIDTH:0.410673
G1 F12600
G1 X66.028 Y54.852 E.23665
G1 X66.028 Y55.219 E.01023
G1 X74.372 Y55.219 E.23218
G1 X74.372 Y55.587 E.01023
G1 X66.028 Y55.587 E.23218
G1 X66.028 Y55.955 E.01023
G1 X74.372 Y55.955 E.23218
G1 X74.372 Y56.323 E.01023
G1 X66.028 Y56.323 E.23218
G1 X66.028 Y56.69 E.01023
G1 X74.372 Y56.69 E.23218
G1 X74.372 Y57.058 E.01023
G1 X66.028 Y57.058 E.23218
G1 X66.028 Y57.426 E.01023
G1 X74.372 Y57.426 E.23218
G1 X74.372 Y57.794 E.01023
G1 X66.028 Y57.794 E.23218
G1 X66.028 Y58.161 E.01023
G1 X74.372 Y58.161 E.23218
G1 X74.372 Y58.529 E.01023
G1 X66.028 Y58.529 E.23218
G1 X66.028 Y58.897 E.01023
G1 X74.372 Y58.897 E.23218
G1 X74.372 Y59.265 E.01023
G1 X66.028 Y59.265 E.23218
G1 X66.028 Y59.632 E.01023
G1 X74.372 Y59.632 E.23218
G1 X74.372 Y60 E.01023
G1 X66.028 Y60 E.23218
G1 X66.028 Y60.368 E.01023
G1 X74.372 Y60.368 E.23218
G1 X74.372 Y60.736 E.01023
G1 X66.028 Y60.736 E.23218
G1 X66.028 Y61.103 E.01023
G1 X74.372 Y61.103 E.23218
G1 X74.372 Y61.471 E.01023
G1 X66.028 Y61.471 E.23218
G1 X66.028 Y61.839 E.01023
G1 X74.372 Y61.839 E.23218
G1 X74.372 Y62.207 E.01023
G1 X66.028 Y62.207 E.23218
G1 X66.028 Y62.574 E.01023
G1 X74.372 Y62.574 E.23218
G1 X74.372 Y62.942 E.01023
G1 X66.028 Y62.942 E.23218
G1 X66.028 Y63.31 E.01023
G1 X74.372 Y63.31 E.23218
G1 X74.372 Y63.678 E.01023
G1 X66.028 Y63.678 E.23218
G1 X66.028 Y64.045 E.01023
G1 X74.372 Y64.045 E.23218
G1 X74.372 Y64.413 E.01023
G1 X66.028 Y64.413 E.23218
G1 X66.028 Y64.781 E.01023
G1 X74.372 Y64.781 E.23218
G1 X74.372 Y65.149 E.01023
G1 X65.867 Y65.149 E.23665
; stop printing object Body1 id:0 copy 0
EXCLUDE_OBJECT_END NAME=Body1_id_0_copy_0
; printing object Body1 id:0 copy 0
EXCLUDE_OBJECT_START NAME=Body1_id_0_copy_0
G1 E-.65714 F1800
;WIPE_START
G1 F12600
G1 X66.867 Y65.149 E-.14286
;WIPE_END
G1 Z.6 F36000
G1 X54.24 Y54.578 Z.6
G1 Z.2
G1 E.8 F1800
;TYPE:Inner wall
;WIDTH:0.4
G1 F6000
G1 X54.24 Y65.422 E.29298
G1 X45.36 Y65.422 E.23991
G1 X45.36 Y54.578 E.29298
G1 X54.2 Y54.578 E.23883
G1 X54.597 Y54.221 F36000
G1 F6000
G1 X54.597 Y65.779 E.31227
G1 X45.003 Y65.779 E.25921
G1 X45.003 Y54.221 E.31227
G1 X54.557 Y54.221 E.25813
G1 X54.954 Y53.864 F36000
G1 F6000
G1 X54.954 Y66.136 E.33157
G1 X44.646 Y66.136 E.2785
G1 X44.646 Y53.864 E.33157
G1 X54.914 Y53.864 E.27742
G1 X55.311 Y53.507 F36000
G1 F6000
G1 X55.311 Y66.493 E.35087
G1 X44.289 Y66.493 E.2978
G1 X44.289 Y53.507 E.35087
G1 X55.271 Y53.507 E.29672
G1 X55.668 Y53.162 F36000
;TYPE:Outer wall
G1 F6000
G1 X55.668 Y66.838 E.36951
G1 X43.932 Y66.838 E.3171
G1 X43.932 Y53.162 E.36951
G1 X55.591 Y53.152 E.31502
G1 X55.628 Y53.157 E.00101
G1 E-.56 F1800
;WIPE_START
G1 F6000
G1 X55.631 Y54.157 E-.24
;WIPE_END
G1 Z.6 F36000
G1 X54.133 Y54.851 Z.6
G1 Z.2
G1 E.8 F1800
;TYPE:Bottom surface
;WIDTH:0.410673
G1 F12600
G1 X45.628 Y54.851 E.23665
G1 X45.628 Y55.219 E.01023
G1 X53.972 Y55.219 E.23218
G1 X53.972 Y55.587 E.01023
G1 X45.628 Y55.587 E.23218
G1 X45.628 Y55.955 E.01023
G1 X53.972 Y55.955 E.23218
G1 X53.972 Y56.323 E.01023
G1 X45.628 Y56.323 E.23218
G1 X45.628 Y56.69 E.01023
G1 X53.972 Y56.69 E.23218
G1 X53.972 Y57.058 E.01023
G1 X45.628 Y57.058 E.23218
G1 X45.628 Y57.426 E.01023
G1 X53.972 Y57.426 E.23218
G1 X53.972 Y57.794 E.01023
G1 X45.628 Y57.794 E.23218
G1 X45.628 Y58.161 E.01023
G1 X53.972 Y58.161 E.23218
G1 X53.972 Y58.529 E.01023
G1 X45.628 Y58.529 E.23218
G1 X45.628 Y58.897 E.01023
G1 X53.972 Y58.897 E.23218
G1 X53.972 Y59.265 E.01023
G1 X45.628 Y59.265 E.23218
G1 X45.628 Y59.632 E.01023
G1 X53.972 Y59.632 E.23218
G1 X53.972 Y60 E.01023
G1 X45.628 Y60 E.23218
G1 X45.628 Y60.368 E.01023
G1 X53.972 Y60.368 E.23218
G1 X53.972 Y60.736 E.01023
G1 X45.628 Y60.736 E.23218
G1 X45.628 Y61.103 E.01023
G1 X53.972 Y61.103 E.23218
G1 X53.972 Y61.471 E.01023
G1 X45.628 Y61.471 E.23218
G1 X45.628 Y61.839 E.01023
G1 X53.972 Y61.839 E.23218
G1 X53.972 Y62.207 E.01023
G1 X45.628 Y62.207 E.23218
G1 X45.628 Y62.574 E.01023
G1 X53.972 Y62.574 E.23218
G1 X53.972 Y62.942 E.01023
G1 X45.628 Y62.942 E.23218
G1 X45.628 Y63.31 E.01023
G1 X53.972 Y63.31 E.23218
G1 X53.972 Y63.678 E.01023
G1 X45.628 Y63.678 E.23218
G1 X45.628 Y64.045 E.01023
G1 X53.972 Y64.045 E.23218
G1 X53.972 Y64.413 E.01023
G1 X45.628 Y64.413 E.23218
G1 X45.628 Y64.781 E.01023
G1 X53.972 Y64.781 E.23218
G1 X53.972 Y65.149 E.01023
G1 X45.467 Y65.149 E.23665
; stop printing object Body1 id:0 copy 0
EXCLUDE_OBJECT_END NAME=Body1_id_0_copy_0
;LAYER_CHANGE
;Z:0.4
;HEIGHT:0.2
;BEFORE_LAYER_CHANGE
;0.4
G92 E0

G1 E-.65714 F1800
;WIPE_START
G1 F12600
G1 X46.467 Y65.149 E-.14286
;WIPE_END
;AFTER_LAYER_CHANGE
;0.4
;_SET_FAN_SPEED_CHANGING_LAYER
SET_VELOCITY_LIMIT ACCEL=20000 ACCEL_TO_DECEL=20000
M140 S108 ; set bed temperature
; printing object Body1 id:0 copy 0
EXCLUDE_OBJECT_START NAME=Body1_id_0_copy_0
SET_VELOCITY_LIMIT SQUARE_CORNER_VELOCITY=12
G1 Z.8 F36000
G1 X65.316 Y65.772 Z.8
G1 Z.4
G1 E.8 F1800
SET_VELOCITY_LIMIT ACCEL=15000 ACCEL_TO_DECEL=15000 SQUARE_CORNER_VELOCITY=9
;TYPE:Inner wall
;WIDTH:0.4
G1 F23081.008
G1 X65.316 Y54.228 E.31189
G1 X73.1 Y54.228 E.21033
G1 X75.084 Y54.228 E.05361
M73 P1 R18
G1 X75.084 Y65.772 E.31189
G1 X65.356 Y65.772 E.26286
SET_VELOCITY_LIMIT ACCEL=20000 ACCEL_TO_DECEL=20000 SQUARE_CORNER_VELOCITY=12
G1 X64.959 Y66.129 F36000
SET_VELOCITY_LIMIT ACCEL=15000 ACCEL_TO_DECEL=15000 SQUARE_CORNER_VELOCITY=9
G1 F23081.008
G1 X64.959 Y53.871 E.33119
G1 X73.1 Y53.871 E.21997
G1 X75.441 Y53.871 E.06326
G1 X75.441 Y66.129 E.33119
G1 X64.999 Y66.129 E.28215
SET_VELOCITY_LIMIT ACCEL=20000 ACCEL_TO_DECEL=20000 SQUARE_CORNER_VELOCITY=12
G1 X64.602 Y66.486 F36000
SET_VELOCITY_LIMIT ACCEL=15000 ACCEL_TO_DECEL=15000 SQUARE_CORNER_VELOCITY=9
G1 F23081.008
G1 X64.602 Y53.514 E.35048
G1 X73.1 Y53.514 E.22962
G1 X75.798 Y53.514 E.07291
G1 X75.798 Y66.486 E.35048
G1 X64.642 Y66.486 E.30145
SET_VELOCITY_LIMIT ACCEL=20000 ACCEL_TO_DECEL=20000 SQUARE_CORNER_VELOCITY=12
G1 X64.245 Y66.791 F36000
SET_VELOCITY_LIMIT ACCEL=15000 ACCEL_TO_DECEL=15000 SQUARE_CORNER_VELOCITY=9
G1 F23081.008
G1 X64.245 Y53.209 E.36695
G3 X64.437 Y53.157 I.204 J.37 E.00543
G1 X73.1 Y53.157 E.23408
G1 X75.963 Y53.157 E.07737
G3 X76.156 Y53.209 I-.012 J.423 E.00543
G1 X76.155 Y66.791 E.36695
G3 X75.963 Y66.843 I-.204 J-.371 E.00543
G1 X64.437 Y66.843 E.31145
G3 X64.28 Y66.808 I.012 J-.423 E.00436
SET_VELOCITY_LIMIT ACCEL=10000 ACCEL_TO_DECEL=10000
G1 X64.086 Y67.11 F36000
;TYPE:Outer wall
G1 F23081.008
G3 X63.887 Y66.99 I.435 J-.944 E.00627
G1 X63.887 Y53.011 E.37771
G3 X64.413 Y52.8 I.63 J.808 E.01551
G1 X73.1 Y52.8 E.23472
G1 X75.987 Y52.8 E.078
G3 X76.513 Y53.011 I-.104 J1.019 E.01551
G1 X76.513 Y66.989 E.37766
G3 X75.987 Y67.2 I-.63 J-.808 E.01551
G1 X64.413 Y67.2 E.31271
G3 X64.122 Y67.126 I.107 J-1.034 E.00813
SET_VELOCITY_LIMIT ACCEL=20000 ACCEL_TO_DECEL=20000 SQUARE_CORNER_VELOCITY=12
G1 E-.72201 F1800
;WIPE_START
G1 F23081.008
G1 X63.887 Y66.99 E-.02116
G1 X63.887 Y66.262 E-.05683
;WIPE_END
G1 Z.8 F36000
G1 X74.776 Y65.629 Z.8
G1 Z.4
G1 E.8 F1800
SET_VELOCITY_LIMIT SQUARE_CORNER_VELOCITY=9
;TYPE:Internal solid infill
;WIDTH:0.409018
G1 F22512.438
G1 X74.776 Y54.532 E.3074
G1 X74.41 Y54.532 E.01014
G1 X74.41 Y65.468 E.30295
G1 X74.044 Y65.468 E.01014
G1 X74.044 Y54.532 E.30295
G1 X73.678 Y54.532 E.01014
G1 X73.678 Y65.468 E.30295
G1 X73.312 Y65.468 E.01014
G1 X73.312 Y54.532 E.30295
G1 X72.946 Y54.532 E.01014
G1 X72.946 Y65.468 E.30295
G1 X72.58 Y65.468 E.01014
G1 X72.58 Y54.532 E.30295
G1 X72.214 Y54.532 E.01014
G1 X72.214 Y65.468 E.30295
G1 X71.847 Y65.468 E.01014
G1 X71.847 Y54.532 E.30295
G1 X71.481 Y54.532 E.01014
G1 X71.481 Y65.468 E.30295
G1 X71.115 Y65.468 E.01014
G1 X71.115 Y54.532 E.30295
G1 X70.749 Y54.532 E.01014
G1 X70.749 Y65.468 E.30295
G1 X70.383 Y65.468 E.01014
G1 X70.383 Y54.532 E.30295
G1 X70.017 Y54.532 E.01014
G1 X70.017 Y65.468 E.30295
G1 X69.651 Y65.468 E.01014
G1 X69.651 Y54.532 E.30295
G1 X69.285 Y54.532 E.01014
G1 X69.285 Y65.468 E.30295
G1 X68.919 Y65.468 E.01014
G1 X68.919 Y54.532 E.30295
G1 X68.553 Y54.532 E.01014
G1 X68.553 Y65.468 E.30295
G1 X68.186 Y65.468 E.01014
G1 X68.186 Y54.532 E.30295
G1 X67.82 Y54.532 E.01014
G1 X67.82 Y65.468 E.30295
G1 X67.454 Y65.468 E.01014
G1 X67.454 Y54.532 E.30295
G1 X67.088 Y54.532 E.01014
G1 X67.088 Y65.468 E.30295
G1 X66.722 Y65.468 E.01014
G1 X66.722 Y54.532 E.30295
G1 X66.356 Y54.532 E.01014
M73 P1 R17
G1 X66.356 Y65.468 E.30295
G1 X65.99 Y65.468 E.01014
G1 X65.99 Y54.532 E.30295
G1 X65.624 Y54.532 E.01014
G1 X65.624 Y65.629 E.3074
; stop printing object Body1 id:0 copy 0
EXCLUDE_OBJECT_END NAME=Body1_id_0_copy_0
; printing object Body1 id:0 copy 0
EXCLUDE_OBJECT_START NAME=Body1_id_0_copy_0
SET_VELOCITY_LIMIT SQUARE_CORNER_VELOCITY=12
G1 E-.72004 F1800
;WIPE_START
G1 F22512.438
G1 X65.624 Y64.629 E-.07996
;WIPE_END
G1 Z.8 F36000
G1 X54.684 Y54.228 Z.8
G1 Z.4
G1 E.8 F1800
SET_VELOCITY_LIMIT ACCEL=15000 ACCEL_TO_DECEL=15000 SQUARE_CORNER_VELOCITY=9
;TYPE:Inner wall
;WIDTH:0.4
G1 F23081.008
G1 X54.684 Y65.772 E.31189
G1 X44.916 Y65.772 E.26394
G1 X44.916 Y54.228 E.31189
G1 X54.644 Y54.228 E.26286
SET_VELOCITY_LIMIT ACCEL=20000 ACCEL_TO_DECEL=20000 SQUARE_CORNER_VELOCITY=12
G1 X55.041 Y53.871 F36000
SET_VELOCITY_LIMIT ACCEL=15000 ACCEL_TO_DECEL=15000 SQUARE_CORNER_VELOCITY=9
G1 F23081.008
G1 X55.041 Y66.129 E.33119
G1 X44.559 Y66.129 E.28323
G1 X44.559 Y53.871 E.33119
G1 X55.001 Y53.871 E.28215
SET_VELOCITY_LIMIT ACCEL=20000 ACCEL_TO_DECEL=20000 SQUARE_CORNER_VELOCITY=12
G1 X55.398 Y53.514 F36000
SET_VELOCITY_LIMIT ACCEL=15000 ACCEL_TO_DECEL=15000 SQUARE_CORNER_VELOCITY=9
G1 F23081.008
G1 X55.398 Y66.486 E.35048
G1 X44.202 Y66.486 E.30253
G1 X44.202 Y53.514 E.35048
G1 X55.358 Y53.514 E.30145
SET_VELOCITY_LIMIT ACCEL=20000 ACCEL_TO_DECEL=20000 SQUARE_CORNER_VELOCITY=12
G1 X55.755 Y53.209 F36000
SET_VELOCITY_LIMIT ACCEL=15000 ACCEL_TO_DECEL=15000 SQUARE_CORNER_VELOCITY=9
G1 F23081.008
G1 X55.755 Y66.791 E.36695
G3 X55.563 Y66.843 I-.204 J-.37 E.00543
G1 X44.037 Y66.843 E.31145
G3 X43.845 Y66.791 I.012 J-.423 E.00543
G1 X43.845 Y53.209 E.36695
G3 X44.037 Y53.157 I.204 J.37 E.00543
G1 X55.649 Y53.168 E.31376
G1 X55.718 Y53.195 E.002
SET_VELOCITY_LIMIT ACCEL=10000 ACCEL_TO_DECEL=10000
G1 X55.914 Y52.89 F36000
;TYPE:Outer wall
G1 F23081.008
G3 X56.113 Y53.011 I-.46 J.982 E.0063
G1 X56.113 Y66.989 E.37766
G3 X55.587 Y67.2 I-.63 J-.808 E.01551
G1 X44.013 Y67.2 E.31271
G3 X43.487 Y66.989 I.104 J-1.019 E.01551
G1 X43.487 Y53.011 E.37766
G3 X44.013 Y52.8 I.63 J.808 E.01551
G1 X55.587 Y52.8 E.31271
G1 X55.685 Y52.813 E.00267
G3 X55.877 Y52.874 I-.231 J1.059 E.00546
SET_VELOCITY_LIMIT ACCEL=20000 ACCEL_TO_DECEL=20000 SQUARE_CORNER_VELOCITY=12
G1 E-.72201 F1800
;WIPE_START
G1 F23081.008
G1 X56.113 Y53.011 E-.02125
G1 X56.113 Y53.739 E-.05673
;WIPE_END
G1 Z.8 F36000
G1 X54.376 Y65.629 Z.8
G1 Z.4
G1 E.8 F1800
SET_VELOCITY_LIMIT SQUARE_CORNER_VELOCITY=9
;TYPE:Internal solid infill
;WIDTH:0.409018
G1 F22512.438
G1 X54.376 Y54.532 E.3074
G1 X54.01 Y54.532 E.01014
G1 X54.01 Y65.468 E.30295
G1 X53.644 Y65.468 E.01014
G1 X53.644 Y54.532 E.30295
G1 X53.278 Y54.532 E.01014
G1 X53.278 Y65.468 E.30295
G1 X52.912 Y65.468 E.01014
G1 X52.912 Y54.532 E.30295
G1 X52.546 Y54.532 E.01014
G1 X52.546 Y65.468 E.30295
G1 X52.18 Y65.468 E.01014
G1 X52.18 Y54.532 E.30295
G1 X51.813 Y54.532 E.01014
G1 X51.813 Y65.468 E.30295
G1 X51.447 Y65.468 E.01014
G1 X51.447 Y54.532 E.30295
G1 X51.081 Y54.532 E.01014
G1 X51.081 Y65.468 E.30295
G1 X50.715 Y65.468 E.01014
G1 X50.715 Y54.532 E.30295
G1 X50.349 Y54.532 E.01014
G1 X50.349 Y65.468 E.30295
G1 X49.983 Y65.468 E.01014
G1 X49.983 Y54.532 E.30295
G1 X49.617 Y54.532 E.01014
G1 X49.617 Y65.468 E.30295
G1 X49.251 Y65.468 E.01014
G1 X49.251 Y54.532 E.30295
G1 X48.885 Y54.532 E.01014
G1 X48.885 Y65.468 E.30295
G1 X48.519 Y65.468 E.01014
G1 X48.519 Y54.532 E.30295
G1 X48.153 Y54.532 E.01014
G1 X48.153 Y65.468 E.30295
G1 X47.786 Y65.468 E.01014
G1 X47.786 Y54.532 E.30295
G1 X47.42 Y54.532 E.01014
G1 X47.42 Y65.468 E.30295
G1 X47.054 Y65.468 E.01014
G1 X47.054 Y54.532 E.30295
G1 X46.688 Y54.532 E.01014
G1 X46.688 Y65.468 E.30295
G1 X46.322 Y65.468 E.01014
G1 X46.322 Y54.532 E.30295
G1 X45.956 Y54.532 E.01014
G1 X45.956 Y65.468 E.30295
G1 X45.59 Y65.468 E.01014
G1 X45.59 Y54.532 E.30295
G1 X45.224 Y54.532 E.01014
G1 X45.224 Y65.629 E.3074
; stop printing object Body1 id:0 copy 0
EXCLUDE_OBJECT_END NAME=Body1_id_0_copy_0
;LAYER_CHANGE
;Z:0.6
;HEIGHT:0.2
;BEFORE_LAYER_CHANGE
;0.6
G92 E0

G1 E-.72004 F1800
;WIPE_START
G1 F22512.438
G1 X45.224 Y64.629 E-.07996
;WIPE_END
;AFTER_LAYER_CHANGE
;0.6
;_SET_FAN_SPEED_CHANGING_LAYER
; printing object Body1 id:0 copy 0
EXCLUDE_OBJECT_START NAME=Body1_id_0_copy_0
SET_VELOCITY_LIMIT SQUARE_CORNER_VELOCITY=12
G1 Z1 F36000
G1 X65.162 Y65.872 Z1
G1 Z.6
G1 E.8 F1800
SET_VELOCITY_LIMIT ACCEL=15000 ACCEL_TO_DECEL=15000 SQUARE_CORNER_VELOCITY=9
;TYPE:Inner wall
;WIDTH:0.4
G1 F23081.008
G1 X65.162 Y54.128 E.3173
G1 X75.238 Y54.128 E.27223
G1 X75.238 Y65.872 E.3173
G1 X65.202 Y65.872 E.27115
SET_VELOCITY_LIMIT ACCEL=20000 ACCEL_TO_DECEL=20000 SQUARE_CORNER_VELOCITY=12
G1 X64.805 Y66.229 F36000
SET_VELOCITY_LIMIT ACCEL=15000 ACCEL_TO_DECEL=15000 SQUARE_CORNER_VELOCITY=9
G1 F23081.008
G1 X64.805 Y53.771 E.33659
G1 X75.595 Y53.771 E.29152
G1 X75.595 Y66.229 E.33659
G1 X64.845 Y66.229 E.29044
SET_VELOCITY_LIMIT ACCEL=20000 ACCEL_TO_DECEL=20000 SQUARE_CORNER_VELOCITY=12
G1 X64.448 Y66.586 F36000
SET_VELOCITY_LIMIT ACCEL=15000 ACCEL_TO_DECEL=15000 SQUARE_CORNER_VELOCITY=9
G1 F23081.008
G1 X64.448 Y53.414 E.35589
G1 X75.952 Y53.414 E.31082
G1 X75.952 Y66.586 E.35589
