; HEADER_BLOCK_START
; generated by OrcaSlicer 2.3.2-rc on 2026-03-02 at 23:09:01
; total layer number: 114
; filament_density: 1.04
; filament_diameter: 1.75
; max_z_height: 22.80
; filament: 1
; HEADER_BLOCK_END

; THUMBNAIL_BLOCK_START

;
; THUMBNAIL_BLOCK_END

; THUMBNAIL_BLOCK_START

;
; THUMBNAIL_BLOCK_END

; external perimeters extrusion width = 0.40mm
; perimeters extrusion width = 0.40mm
; infill extrusion width = 0.40mm
; solid infill extrusion width = 0.40mm
; top infill extrusion width = 0.40mm
; first layer extrusion width = 0.40mm

; EXECUTABLE_BLOCK_START


; Pre-Processed for Cancel-Object support by preprocess_cancellation v0.2.0
; 1 known objects
EXCLUDE_OBJECT_DEFINE NAME=Body11_id_4124551052282515276_copy_0 CENTER=60.095,59.967 POLYGON=[[14.207,33.824],[14.207,86.176],[105.793,86.176],[105.793,33.824]]
M73 P0 R37
;TYPE:Custom
PRINT_START EXTRUDER_TEMP=255 BED_TEMP=105
G90
G21
M83 ; use relative distances for extrusion
; Filament gcode
SET_PRESSURE_ADVANCE ADVANCE=0.04; Override pressure advance value
M106 S0
;LAYER_CHANGE
;Z:0.2
;HEIGHT:0.2
;BEFORE_LAYER_CHANGE
;0.2
G92 E0

G1 E-.8 F1800
;AFTER_LAYER_CHANGE
;0.2
;_SET_FAN_SPEED_CHANGING_LAYER
SET_VELOCITY_LIMIT ACCEL=10000 ACCEL_TO_DECEL=10000
SET_VELOCITY_LIMIT SQUARE_CORNER_VELOCITY=9
; printing object Body11 id:4124551052282515276 copy 0
EXCLUDE_OBJECT_START NAME=Body11_id_4124551052282515276_copy_0
G1 Z.6 F36000
G1 X56.064 Y67.212
G1 Z.6
G1 Z.2
G1 E.8 F1800
;TYPE:Inner wall
;WIDTH:0.4
G1 F6000
G1 X56.167 Y67.221 E.00279
G1 X57.081 Y67.466 E.02556
G1 X57.938 Y67.865 E.02556
G1 X58.713 Y68.408 E.02556
G1 X59.382 Y69.077 E.02556
G1 X59.925 Y69.852 E.02556
G1 X60.324 Y70.709 E.02556
G1 X60.569 Y71.623 E.02556
G1 X60.652 Y72.565 E.02556
G1 X60.569 Y73.507 E.02556
G1 X60.324 Y74.421 E.02556
G1 X59.925 Y75.278 E.02556
G1 X59.382 Y76.053 E.02556
G1 X58.713 Y76.722 E.02556
G1 X57.938 Y77.265 E.02556
G1 X57.081 Y77.664 E.02556
G1 X56.167 Y77.909 E.02556
G1 X55.225 Y77.992 E.02556
G1 X54.283 Y77.909 E.02556
G1 X53.369 Y77.664 E.02556
G1 X52.512 Y77.265 E.02556
G1 X51.737 Y76.722 E.02556
G1 X51.175 Y76.16 E.02146
G1 X51.068 Y76.053 E.0041
G1 X50.525 Y75.278 E.02556
G1 X50.126 Y74.421 E.02556
G1 X49.881 Y73.507 E.02556
G1 X49.798 Y72.565 E.02556
G1 X49.881 Y71.623 E.02556
G1 X50.126 Y70.709 E.02556
G1 X50.525 Y69.852 E.02556
G1 X51.068 Y69.077 E.02556
G1 X51.737 Y68.408 E.02556
G1 X52.512 Y67.865 E.02556
G1 X53.369 Y67.466 E.02556
G1 X54.283 Y67.221 E.02556
G1 X55.074 Y67.152 E.02145
G1 X55.225 Y67.138 E.0041
G1 X56.025 Y67.208 E.02169
G1 X56.033 Y67.567 F36000
G1 F6000
G1 X56.105 Y67.574 E.00195
G1 X56.958 Y67.802 E.02387
G1 X57.759 Y68.176 E.02387
G1 X58.483 Y68.683 E.02387
G1 X59.107 Y69.307 E.02387
G1 X59.614 Y70.031 E.02387
G1 X59.988 Y70.832 E.02387
G1 X60.216 Y71.685 E.02387
G1 X60.293 Y72.565 E.02387
G1 X60.216 Y73.445 E.02387
G1 X59.988 Y74.298 E.02387
G1 X59.614 Y75.099 E.02387
G1 X59.107 Y75.823 E.02387
G1 X58.483 Y76.447 E.02387
G1 X57.759 Y76.954 E.02387
G1 X56.958 Y77.328 E.02387
G1 X56.105 Y77.556 E.02387
G1 X55.225 Y77.633 E.02387
G1 X54.345 Y77.556 E.02387
G1 X53.492 Y77.328 E.02387
G1 X52.691 Y76.954 E.02387
G1 X51.967 Y76.447 E.02387
G1 X51.428 Y75.908 E.02061
G1 X51.342 Y75.823 E.00326
G1 X50.836 Y75.099 E.02387
G1 X50.462 Y74.298 E.02387
G1 X50.234 Y73.445 E.02387
G1 X50.157 Y72.565 E.02387
G1 X50.234 Y71.685 E.02387
G1 X50.462 Y70.832 E.02387
G1 X50.836 Y70.031 E.02387
G1 X51.343 Y69.307 E.02387
G1 X51.967 Y68.683 E.02387
G1 X52.691 Y68.176 E.02387
G1 X53.492 Y67.802 E.02387
G1 X54.345 Y67.574 E.02387
G1 X55.105 Y67.507 E.02061
G1 X55.225 Y67.497 E.00326
G1 X55.993 Y67.564 E.02084
G1 X56.002 Y67.923 F36000
G1 F6000
G1 X56.043 Y67.927 E.0011
G1 X56.836 Y68.139 E.02218
G1 X57.58 Y68.486 E.02218
G1 X58.252 Y68.957 E.02218
G1 X58.833 Y69.538 E.02218
G1 X59.304 Y70.21 E.02218
G1 X59.651 Y70.954 E.02218
G1 X59.863 Y71.747 E.02218
G1 X59.935 Y72.565 E.02218
G1 X59.863 Y73.383 E.02218
G1 X59.651 Y74.176 E.02218
G1 X59.304 Y74.92 E.02218
G1 X58.833 Y75.592 E.02218
G1 X58.252 Y76.173 E.02218
G1 X57.58 Y76.644 E.02218
G1 X56.836 Y76.991 E.02218
G1 X56.043 Y77.203 E.02218
G1 X55.225 Y77.275 E.02218
G1 X54.407 Y77.203 E.02218
G1 X53.614 Y76.991 E.02218
G1 X52.87 Y76.644 E.02218
G1 X52.198 Y76.173 E.02218
G1 X51.68 Y75.656 E.01977
G1 X51.617 Y75.592 E.00241
G1 X51.146 Y74.92 E.02218
G1 X50.799 Y74.176 E.02218
G1 X50.587 Y73.383 E.02218
G1 X50.515 Y72.565 E.02218
G1 X50.587 Y71.747 E.02218
G1 X50.799 Y70.954 E.02218
G1 X51.146 Y70.21 E.02218
G1 X51.617 Y69.538 E.02218
G1 X52.198 Y68.957 E.02218
G1 X52.87 Y68.486 E.02218
G1 X53.614 Y68.139 E.02218
G1 X54.407 Y67.927 E.02218
G1 X55.136 Y67.863 E.01977
G1 X55.225 Y67.855 E.00241
G1 X55.962 Y67.92 E.02
G1 X55.97 Y68.279 F36000
;TYPE:Outer wall
G1 F6000
G1 X55.981 Y68.28 E.0003
G1 X56.713 Y68.476 E.02049
G1 X57.401 Y68.797 E.02049
G1 X58.022 Y69.232 E.02049
G1 X58.558 Y69.768 E.02049
G1 X58.993 Y70.389 E.02049
G1 X59.314 Y71.077 E.02049
G1 X59.51 Y71.809 E.02049
G1 X59.576 Y72.565 E.02049
G1 X59.51 Y73.321 E.02049
G1 X59.314 Y74.053 E.02049
G1 X58.993 Y74.741 E.02049
G1 X58.558 Y75.362 E.02049
G1 X58.022 Y75.898 E.02049
G1 X57.401 Y76.333 E.02049
G1 X56.713 Y76.654 E.02049
G1 X55.981 Y76.85 E.02049
G1 X55.225 Y76.916 E.02049
G1 X54.469 Y76.85 E.02049
G1 X53.737 Y76.654 E.02049
G1 X53.049 Y76.333 E.02049
G1 X52.428 Y75.898 E.02049
G1 X51.933 Y75.403 E.01892
G1 X51.457 Y74.741 E.02204
G1 X51.136 Y74.053 E.02049
G1 X50.94 Y73.321 E.02049
G1 X50.874 Y72.565 E.02049
G1 X50.94 Y71.809 E.02049
G1 X51.136 Y71.077 E.02049
G1 X51.457 Y70.389 E.02049
G1 X51.892 Y69.768 E.02049
G1 X52.428 Y69.232 E.02049
G1 X53.049 Y68.797 E.02049
G1 X53.737 Y68.476 E.02049
G1 X54.469 Y68.28 E.02049
G1 X55.167 Y68.219 E.01892
G1 X55.93 Y68.276 E.02066
G1 E-.56 F1800
;WIPE_START
G1 F6000
G1 X55.981 Y68.28 E-.01223
G1 X56.713 Y68.476 E-.18204
G1 X56.886 Y68.557 E-.04573
;WIPE_END
G1 Z.6 F36000
G1 X38.698 Y77.353 Z.6
G1 Z.2
G1 E.8 F1800
;TYPE:Inner wall
G1 F6000
G1 X38.031 Y77.664 E.01988
G1 X37.117 Y77.909 E.02556
G1 X36.175 Y77.992 E.02556
G1 X35.233 Y77.909 E.02556
G1 X34.319 Y77.664 E.02556
G1 X33.462 Y77.265 E.02556
G1 X32.811 Y76.809 E.02146
G1 X32.687 Y76.722 E.0041
G1 X32.018 Y76.053 E.02556
G1 X31.475 Y75.278 E.02556
G1 X31.076 Y74.421 E.02556
G1 X30.831 Y73.507 E.02556
G1 X30.748 Y72.565 E.02556
G1 X30.831 Y71.623 E.02556
G1 X31.076 Y70.709 E.02556
G1 X31.475 Y69.852 E.02556
G1 X32.018 Y69.077 E.02556
G1 X32.687 Y68.408 E.02556
G1 X33.462 Y67.865 E.02556
G1 X34.319 Y67.466 E.02556
G1 X35.233 Y67.221 E.02556
G1 X36.024 Y67.152 E.02145
G1 X36.175 Y67.138 E.0041
G1 X37.117 Y67.221 E.02556
G1 X38.031 Y67.466 E.02556
G1 X38.888 Y67.865 E.02556
G1 X39.663 Y68.408 E.02556
G1 X40.332 Y69.077 E.02556
G1 X40.875 Y69.852 E.02556
G1 X41.274 Y70.709 E.02556
G1 X41.519 Y71.623 E.02556
G1 X41.602 Y72.565 E.02556
G1 X41.519 Y73.507 E.02556
G1 X41.274 Y74.421 E.02556
G1 X40.875 Y75.278 E.02556
G1 X40.332 Y76.053 E.02556
G1 X39.663 Y76.722 E.02556
G1 X38.888 Y77.265 E.02556
G1 X38.734 Y77.336 E.00459
G1 X38.547 Y77.03 F36000
G1 F6000
G1 X37.908 Y77.328 E.01904
G1 X37.055 Y77.556 E.02387
G1 X36.175 Y77.633 E.02387
G1 X35.295 Y77.556 E.02387
G1 X34.442 Y77.328 E.02387
G1 X33.641 Y76.954 E.02387
G1 X33.016 Y76.517 E.02061
G1 X32.917 Y76.447 E.00326
G1 X32.293 Y75.823 E.02387
G1 X31.786 Y75.099 E.02387
G1 X31.412 Y74.298 E.02387
G1 X31.184 Y73.445 E.02387
G1 X31.107 Y72.565 E.02387
G1 X31.184 Y71.685 E.02387
G1 X31.412 Y70.832 E.02387
G1 X31.786 Y70.031 E.02387
G1 X32.293 Y69.307 E.02387
G1 X32.917 Y68.683 E.02387
G1 X33.641 Y68.176 E.02387
G1 X34.442 Y67.802 E.02387
G1 X35.295 Y67.574 E.02387
G1 X36.055 Y67.507 E.02061
G1 X36.175 Y67.497 E.00326
G1 X37.055 Y67.574 E.02387
G1 X37.908 Y67.802 E.02387
G1 X38.709 Y68.176 E.02387
G1 X39.433 Y68.683 E.02387
G1 X40.057 Y69.307 E.02387
G1 X40.564 Y70.031 E.02387
G1 X40.938 Y70.832 E.02387
G1 X41.166 Y71.685 E.02387
G1 X41.243 Y72.565 E.02387
G1 X41.166 Y73.445 E.02387
G1 X40.938 Y74.298 E.02387
G1 X40.564 Y75.099 E.02387
G1 X40.057 Y75.823 E.02387
G1 X39.433 Y76.447 E.02387
G1 X38.709 Y76.954 E.02387
G1 X38.583 Y77.013 E.00375
G1 X38.396 Y76.706 F36000
G1 F6000
G1 X38.158 Y76.817 E.00711
G1 X37.786 Y76.991 E.01109
G1 X36.993 Y77.203 E.02218
G1 X36.175 Y77.275 E.02218
G1 X35.357 Y77.203 E.02218
G1 X34.564 Y76.991 E.02218
G1 X33.82 Y76.644 E.02218
G1 X33.221 Y76.224 E.01977
G1 X33.148 Y76.173 E.00241
G1 X32.567 Y75.592 E.02218
G1 X32.096 Y74.92 E.02218
G1 X31.749 Y74.176 E.02218
G1 X31.537 Y73.383 E.02218
G1 X31.465 Y72.565 E.02218
G1 X31.537 Y71.747 E.02218
G1 X31.749 Y70.954 E.02218
G1 X32.096 Y70.21 E.02218
G1 X32.567 Y69.538 E.02218
G1 X33.148 Y68.957 E.02218
G1 X33.82 Y68.486 E.02218
G1 X34.564 Y68.139 E.02218
G1 X35.357 Y67.927 E.02218
G1 X36.086 Y67.863 E.01977
G1 X36.175 Y67.855 E.00241
G1 X36.993 Y67.927 E.02218
G1 X37.786 Y68.139 E.02218
G1 X38.53 Y68.486 E.02218
G1 X39.202 Y68.957 E.02218
G1 X39.783 Y69.538 E.02218
G1 X40.254 Y70.21 E.02218
G1 X40.601 Y70.954 E.02218
G1 X40.813 Y71.747 E.02218
G1 X40.885 Y72.565 E.02218
G1 X40.813 Y73.383 E.02218
G1 X40.601 Y74.176 E.02218
G1 X40.254 Y74.92 E.02218
G1 X39.783 Y75.592 E.02218
G1 X39.202 Y76.173 E.02218
G1 X38.53 Y76.644 E.02218
G1 X38.432 Y76.689 E.0029
G1 X38.245 Y76.383 F36000
;TYPE:Outer wall
G1 F6000
G1 X38.007 Y76.494 E.00711
G1 X37.663 Y76.654 E.01025
G1 X36.931 Y76.85 E.02049
G1 X36.175 Y76.916 E.02049
G1 X35.419 Y76.85 E.02049
G1 X34.687 Y76.654 E.02049
G1 X33.999 Y76.333 E.02049
G1 X33.426 Y75.932 E.01892
G1 X32.842 Y75.362 E.02204
G1 X32.407 Y74.741 E.02049
G1 X32.086 Y74.053 E.02049
G1 X31.89 Y73.321 E.02049
G1 X31.824 Y72.565 E.02049
G1 X31.89 Y71.809 E.02049
G1 X32.086 Y71.077 E.02049
G1 X32.407 Y70.389 E.02049
G1 X32.842 Y69.768 E.02049
G1 X33.378 Y69.232 E.02049
G1 X33.999 Y68.797 E.02049
G1 X34.687 Y68.476 E.02049
G1 X35.419 Y68.28 E.02049
G1 X36.117 Y68.219 E.01892
G1 X36.931 Y68.28 E.02204
G1 X37.663 Y68.476 E.02049
G1 X38.351 Y68.797 E.02049
G1 X38.972 Y69.232 E.02049
G1 X39.508 Y69.768 E.02049
G1 X39.943 Y70.389 E.02049
G1 X40.264 Y71.077 E.02049
G1 X40.46 Y71.809 E.02049
G1 X40.526 Y72.565 E.02049
G1 X40.46 Y73.321 E.02049
G1 X40.264 Y74.053 E.02049
G1 X39.943 Y74.741 E.02049
G1 X39.508 Y75.362 E.02049
G1 X38.972 Y75.898 E.02049
G1 X38.351 Y76.333 E.02049
G1 X38.282 Y76.366 E.00206
G1 E-.56 F1800
;WIPE_START
G1 F6000
G1 X38.007 Y76.494 E-.07271
G1 X37.663 Y76.654 E-.09102
G1 X37.356 Y76.736 E-.07627
;WIPE_END
G1 Z.6 F36000
G1 X23.271 Y51.905 Z.6
G1 Z.2
G1 E.8 F1800
;TYPE:Inner wall
G1 F6000
G1 X23.187 Y51.846 E.00279
G1 X22.518 Y51.177 E.02556
G1 X21.975 Y50.402 E.02556
G1 X21.576 Y49.545 E.02556
G1 X21.331 Y48.631 E.02556
G1 X21.248 Y47.689 E.02556
G1 X21.331 Y46.747 E.02556
G1 X21.576 Y45.833 E.02556
G1 X21.975 Y44.976 E.02556
G1 X22.518 Y44.201 E.02556
G1 X23.187 Y43.532 E.02556
G1 X23.962 Y42.989 E.02556
G1 X24.819 Y42.59 E.02556
G1 X25.733 Y42.345 E.02556
G1 X26.524 Y42.276 E.02146
G1 X26.675 Y42.262 E.0041
G1 X27.617 Y42.345 E.02556
G1 X28.531 Y42.59 E.02556
G1 X29.388 Y42.989 E.02556
G1 X30.163 Y43.532 E.02556
G1 X30.832 Y44.201 E.02556
G1 X31.375 Y44.976 E.02556
G1 X31.774 Y45.833 E.02556
G1 X32.019 Y46.747 E.02556
G1 X32.102 Y47.689 E.02556
G1 X32.019 Y48.631 E.02556
G1 X31.774 Y49.545 E.02556
G1 X31.375 Y50.402 E.02556
G1 X30.832 Y51.177 E.02556
G1 X30.163 Y51.846 E.02556
G1 X29.388 Y52.389 E.02556
G1 X28.531 Y52.788 E.02556
G1 X27.617 Y53.033 E.02556
G1 X26.675 Y53.116 E.02556
G1 X25.733 Y53.033 E.02556
G1 X24.819 Y52.788 E.02556
G1 X23.962 Y52.389 E.02556
G1 X23.574 Y52.117 E.01278
G1 X23.304 Y51.928 E.00891
G1 X23.476 Y51.613 F36000
G1 F6000
G1 X23.417 Y51.571 E.00195
G1 X22.793 Y50.947 E.02387
G1 X22.286 Y50.223 E.02387
G1 X21.912 Y49.422 E.02387
G1 X21.684 Y48.569 E.02387
G1 X21.607 Y47.689 E.02387
G1 X21.684 Y46.809 E.02387
G1 X21.912 Y45.956 E.02387
G1 X22.286 Y45.155 E.02387
G1 X22.793 Y44.431 E.02387
G1 X23.417 Y43.807 E.02387
G1 X24.141 Y43.3 E.02387
G1 X24.942 Y42.926 E.02387
G1 X25.795 Y42.698 E.02387
G1 X26.555 Y42.631 E.02061
G1 X26.675 Y42.621 E.00326
G1 X27.555 Y42.698 E.02387
G1 X28.408 Y42.926 E.02387
G1 X29.209 Y43.3 E.02387
G1 X29.933 Y43.807 E.02387
G1 X30.557 Y44.431 E.02387
G1 X31.064 Y45.155 E.02387
G1 X31.438 Y45.956 E.02387
G1 X31.666 Y46.809 E.02387
G1 X31.743 Y47.689 E.02387
G1 X31.666 Y48.569 E.02387
G1 X31.438 Y49.422 E.02387
G1 X31.064 Y50.223 E.02387
G1 X30.557 Y50.947 E.02387
G1 X29.933 Y51.571 E.02387
G1 X29.209 Y52.078 E.02387
G1 X28.408 Y52.452 E.02387
G1 X27.555 Y52.68 E.02387
G1 X26.675 Y52.757 E.02387
G1 X25.795 Y52.68 E.02387
G1 X24.942 Y52.452 E.02387
G1 X24.141 Y52.078 E.02387
G1 X23.779 Y51.825 E.01194
G1 X23.509 Y51.636 E.00891
G1 X23.681 Y51.32 F36000
G1 F6000
G1 X23.648 Y51.297 E.0011
G1 X23.067 Y50.716 E.02218
G1 X22.596 Y50.044 E.02218
G1 X22.249 Y49.3 E.02218
G1 X22.037 Y48.507 E.02218
G1 X21.965 Y47.689 E.02218
G1 X22.037 Y46.871 E.02218
G1 X22.249 Y46.078 E.02218
G1 X22.596 Y45.334 E.02218
G1 X23.067 Y44.662 E.02218
G1 X23.648 Y44.081 E.02218
G1 X24.32 Y43.61 E.02218
G1 X25.064 Y43.263 E.02218
G1 X25.857 Y43.051 E.02218
G1 X26.586 Y42.987 E.01977
G1 X26.675 Y42.979 E.00241
G1 X27.493 Y43.051 E.02218
G1 X28.286 Y43.263 E.02218
G1 X29.03 Y43.61 E.02218
G1 X29.702 Y44.081 E.02218
G1 X30.283 Y44.662 E.02218
G1 X30.754 Y45.334 E.02218
G1 X31.101 Y46.078 E.02218
G1 X31.313 Y46.871 E.02218
G1 X31.385 Y47.689 E.02218
G1 X31.313 Y48.507 E.02218
G1 X31.101 Y49.3 E.02218
G1 X30.754 Y50.044 E.02218
G1 X30.283 Y50.716 E.02218
G1 X29.702 Y51.297 E.02218
G1 X29.03 Y51.768 E.02218
G1 X28.286 Y52.115 E.02218
G1 X27.493 Y52.327 E.02218
G1 X26.675 Y52.399 E.02218
G1 X25.857 Y52.327 E.02218
G1 X25.064 Y52.115 E.02218
G1 X24.32 Y51.768 E.02218
G1 X23.714 Y51.343 E.02
G1 X23.886 Y51.028 F36000
;TYPE:Outer wall
G1 F6000
G1 X23.878 Y51.022 E.00026
G1 X23.342 Y50.486 E.02049
G1 X22.907 Y49.865 E.02049
G1 X22.586 Y49.177 E.02049
G1 X22.39 Y48.445 E.02049
G1 X22.324 Y47.689 E.02049
G1 X22.39 Y46.933 E.02049
G1 X22.586 Y46.201 E.02049
G1 X22.907 Y45.513 E.02049
G1 X23.342 Y44.892 E.02049
G1 X23.878 Y44.356 E.02049
G1 X24.499 Y43.921 E.02049
G1 X25.187 Y43.6 E.02049
G1 X25.919 Y43.404 E.02049
G1 X26.617 Y43.343 E.01892
G1 X27.431 Y43.404 E.02204
G1 X28.163 Y43.6 E.02049
G1 X28.851 Y43.921 E.02049
G1 X29.472 Y44.356 E.02049
G1 X30.008 Y44.892 E.02049
G1 X30.443 Y45.513 E.02049
G1 X30.764 Y46.201 E.02049
G1 X30.96 Y46.933 E.02049
G1 X31.026 Y47.689 E.02049
G1 X30.96 Y48.445 E.02049
G1 X30.764 Y49.177 E.02049
G1 X30.443 Y49.865 E.02049
G1 X30.008 Y50.486 E.02049
G1 X29.472 Y51.022 E.02049
G1 X28.851 Y51.457 E.02049
G1 X28.163 Y51.778 E.02049
G1 X27.431 Y51.974 E.02049
G1 X26.675 Y52.04 E.02049
G1 X25.919 Y51.974 E.02049
G1 X25.187 Y51.778 E.02049
G1 X24.499 Y51.457 E.02049
G1 X23.919 Y51.051 E.01915
G1 E-.56 F1800
;WIPE_START
G1 F6000
G1 X23.878 Y51.022 E-.01192
G1 X23.342 Y50.486 E-.18204
G1 X23.232 Y50.329 E-.04604
;WIPE_END
G1 Z.6 F36000
G1 X50.513 Y45.166 Z.6
G1 Z.2
G1 E.8 F1800
;TYPE:Inner wall
G1 F6000
G1 X50.824 Y45.833 E.01988
G1 X51.069 Y46.747 E.02556
G1 X51.152 Y47.689 E.02556
G1 X51.069 Y48.631 E.02556
G1 X50.824 Y49.545 E.02556
G1 X50.625 Y49.974 E.01278
G1 X50.425 Y50.402 E.01278
G1 X49.882 Y51.177 E.02556
G1 X49.213 Y51.846 E.02556
G1 X48.438 Y52.389 E.02556
G1 X47.581 Y52.788 E.02556
G1 X46.667 Y53.033 E.02556
G1 X45.725 Y53.116 E.02556
G1 X44.783 Y53.033 E.02556
G1 X43.869 Y52.788 E.02556
G1 X43.012 Y52.389 E.02556
G1 X42.237 Y51.846 E.02556
G1 X41.568 Y51.177 E.02556
G1 X41.025 Y50.402 E.02556
G1 X40.626 Y49.545 E.02556
G1 X40.381 Y48.631 E.02556
G1 X40.298 Y47.689 E.02556
G1 X40.381 Y46.747 E.02556
G1 X40.626 Y45.833 E.02556
G1 X41.025 Y44.976 E.02556
G1 X41.568 Y44.201 E.02556
G1 X42.237 Y43.532 E.02556
G1 X43.012 Y42.989 E.02556
G1 X43.869 Y42.59 E.02556
G1 X44.783 Y42.345 E.02556
G1 X45.574 Y42.276 E.02146
G1 X45.725 Y42.262 E.0041
G1 X46.667 Y42.345 E.02556
G1 X47.581 Y42.59 E.02556
G1 X48.438 Y42.989 E.02556
G1 X49.213 Y43.532 E.02556
G1 X49.882 Y44.201 E.02556
G1 X50.425 Y44.976 E.02556
G1 X50.496 Y45.13 E.00459
G1 X50.19 Y45.317 F36000
G1 F6000
