; HEADER_BLOCK_START
; generated by OrcaSlicer 2.3.1 on 2025-11-24 at 12:13:42
; total layer number: 154
; filament_density: 1.04
; filament_diameter: 1.75
; max_z_height: 30.80
; HEADER_BLOCK_END

; THUMBNAIL_BLOCK_START

;
; THUMBNAIL_BLOCK_END

; THUMBNAIL_BLOCK_START

;
; THUMBNAIL_BLOCK_END

; external perimeters extrusion width = 0.40mm
; perimeters extrusion width = 0.40mm
; infill extrusion width = 0.40mm
; solid infill extrusion width = 0.40mm
; top infill extrusion width = 0.40mm
; first layer extrusion width = 0.40mm

; EXECUTABLE_BLOCK_START


; Pre-Processed for Cancel-Object support by preprocess_cancellation v0.2.0
; 1 known objects
EXCLUDE_OBJECT_DEFINE NAME=Body1_id_41096991575703552_copy_0 CENTER=56.902,65.152 POLYGON=[[41.273,1.524],[41.273,118.477],[78.727,118.477],[78.727,1.524]]
M73 P0 R32
;TYPE:Custom
PRINT_START EXTRUDER_TEMP=250 BED_TEMP=110
G90
G21
M83 ; use relative distances for extrusion
; Filament gcode
SET_PRESSURE_ADVANCE ADVANCE=0.04; Override pressure advance value
M106 S0
;LAYER_CHANGE
;Z:0.2
;HEIGHT:0.2
;BEFORE_LAYER_CHANGE
;0.2
G92 E0

G1 E-.8 F1800
;AFTER_LAYER_CHANGE
;0.2
;_SET_FAN_SPEED_CHANGING_LAYER
SET_VELOCITY_LIMIT ACCEL=10000 ACCEL_TO_DECEL=10000
SET_VELOCITY_LIMIT SQUARE_CORNER_VELOCITY=9
; printing object Body1 id:41096991575703552 copy 0
EXCLUDE_OBJECT_START NAME=Body1_id_41096991575703552_copy_0
G1 Z.6 F36000
G1 X42.553 Y114.476
G1 Z.6
G1 Z.2
G1 E.8 F1800
;TYPE:Brim
;WIDTH:0.4
G1 F6000
G1 X42.02 Y113.462 E.03097
G1 X41.639 Y112.461 E.02894
G1 X41.386 Y111.339 E.03106
G1 X41.274 Y110.007 E.03613
G1 X41.273 Y77.421 E.88043
G1 X41.359 Y76.251 E.03169
G1 X41.516 Y75.402 E.02335
G1 X41.912 Y74.204 E.03407
G1 X42.274 Y73.42 E.02335
G1 X43.006 Y72.29 E.03636
G1 X43.751 Y71.425 E.03086
G1 X52.921 Y62.255 E.35038
G1 X52.973 Y62.129 E.00369
G1 X52.973 Y43.871 E.49332
G1 X52.921 Y43.745 E.00369
G1 X43.76 Y34.584 E.35004
G1 X43.113 Y33.85 E.02642
G1 X42.504 Y32.983 E.02863
G1 X42.02 Y32.048 E.02846
G1 X41.639 Y31.046 E.02895
G1 X41.386 Y29.925 E.03106
G1 X41.274 Y28.593 E.03613
G1 X41.273 Y10.006 E.50219
G1 X41.335 Y9.03 E.02643
G1 X41.517 Y7.986 E.02863
G1 X41.836 Y6.982 E.02845
G1 X42.275 Y6.005 E.02895
G1 X42.887 Y5.036 E.03097
G1 X43.564 Y4.206 E.02894
G1 X44.406 Y3.429 E.03095
G1 X45.274 Y2.802 E.02894
G1 X46.292 Y2.268 E.03106
G1 X46.472 Y2.19 E.00532
G1 X47.288 Y1.889 E.02349
G1 X48.411 Y1.636 E.0311
G1 X49.744 Y1.524 E.03613
G1 X51.757 Y1.524 E.05441
G1 X52.767 Y1.59 E.02733
G1 X53.796 Y1.775 E.02825
G1 X54.96 Y2.162 E.03315
G1 X55.744 Y2.524 E.02335
G1 X56.717 Y3.139 E.03109
G1 X56.875 Y3.256 E.00532
G1 X57.543 Y3.813 E.02349
G1 X58.323 Y4.658 E.03108
G1 X58.446 Y4.813 E.00532
G1 X58.947 Y5.523 E.02349
G1 X59.482 Y6.542 E.0311
G1 X59.56 Y6.723 E.00532
G1 X59.861 Y7.538 E.02349
G1 X60.114 Y8.661 E.0311
G1 X60.226 Y9.993 E.03612
G1 X60.227 Y20.362 E.28017
G1 X60.31 Y20.513 E.00466
G1 X61.303 Y21.139 E.03171
G1 X62.325 Y22.001 E.03612
G1 X72.179 Y31.855 E.37654
G1 X72.824 Y32.586 E.02634
G1 X73.321 Y33.295 E.02339
G1 X73.753 Y34.095 E.02458
G1 X74.107 Y34.968 E.02544
G1 X74.403 Y36.156 E.03307
G1 X74.504 Y37.013 E.02332
G1 X74.49 Y38.158 E.03095
G1 X74.359 Y39.09 E.02541
G1 X74.048 Y40.193 E.03096
G1 X73.681 Y41.059 E.02541
G1 X73.095 Y42.044 E.03097
G1 X72.565 Y42.724 E.0233
G1 X72.527 Y42.834 E.00314
G1 X72.527 Y63.171 E.54949
G1 X72.573 Y63.291 E.00347
G1 X73.194 Y64.097 E.02748
G1 X73.754 Y65.097 E.03096
G1 X74.107 Y65.969 E.02542
G1 X74.389 Y67.079 E.03097
G1 X74.504 Y68.013 E.02541
G1 X74.49 Y69.158 E.03094
G1 X74.359 Y70.09 E.02541
G1 X74.048 Y71.193 E.03097
G1 X73.681 Y72.059 E.02541
G1 X73.096 Y73.044 E.03096
G1 X72.514 Y73.788 E.02552
G1 X72.191 Y74.133 E.01277
G1 X62.335 Y83.989 E.37661
G1 X61.447 Y84.755 E.03169
G1 X60.734 Y85.246 E.02337
G1 X60.324 Y85.458 E.01249
G1 X60.227 Y85.617 E.00502
G1 X60.227 Y89.344 E.10072
G1 X60.275 Y89.466 E.00355
G1 X60.406 Y89.523 E.00384
G1 X70.244 Y89.523 E.26583
G1 X71.22 Y89.585 E.02642
G1 X72.264 Y89.767 E.02863
G1 X73.268 Y90.086 E.02845
G1 X74.245 Y90.525 E.02895
G1 X75.214 Y91.137 E.03097
G1 X76.044 Y91.814 E.02894
G1 X76.821 Y92.655 E.03094
G1 X77.447 Y93.524 E.02894
G1 X77.98 Y94.538 E.03096
G1 X78.361 Y95.539 E.02894
G1 X78.614 Y96.661 E.03107
G1 X78.726 Y97.984 E.03588
G1 X78.727 Y98.686 E.01895
G1 X78.679 Y99.555 E.02353
G1 X78.534 Y100.409 E.02339
G1 X78.295 Y101.238 E.02333
G1 X77.766 Y102.419 E.03496
G1 X77.259 Y103.234 E.02594
G1 X76.737 Y103.887 E.02256
G1 X76.699 Y104.012 E.00355
G1 X76.737 Y104.11 E.00284
G1 X77.309 Y104.824 E.02472
G1 X77.767 Y105.558 E.02338
G1 X78.14 Y106.34 E.0234
G1 X78.413 Y107.125 E.02246
G1 X78.619 Y108.02 E.02482
G1 X78.727 Y109.307 E.0349
G1 X78.727 Y109.994 E.01856
G1 X78.665 Y110.97 E.02642
G1 X78.483 Y112.014 E.02863
G1 X78.164 Y113.018 E.02846
G1 X77.725 Y113.995 E.02895
G1 X77.113 Y114.964 E.03096
G1 X76.436 Y115.794 E.02894
G1 X75.595 Y116.571 E.03095
G1 X74.726 Y117.198 E.02894
G1 X73.712 Y117.73 E.03095
G1 X72.711 Y118.111 E.02894
G1 X71.589 Y118.364 E.03107
G1 X70.257 Y118.476 E.03613
G1 X49.756 Y118.477 E.55391
G1 X48.78 Y118.415 E.02643
G1 X47.735 Y118.233 E.02864
G1 X46.797 Y117.94 E.02656
G1 X46.427 Y117.793 E.01076
G1 X45.644 Y117.415 E.02347
G1 X44.787 Y116.864 E.02755
G1 X43.956 Y116.186 E.02896
G1 X43.179 Y115.345 E.03095
G1 X42.576 Y114.509 E.02785
G1 X42.866 Y114.299 F36000
G1 F6000
G1 X42.853 Y114.281 E.0006
G1 X42.344 Y113.309 E.02967
G1 X41.98 Y112.35 E.0277
G1 X41.742 Y111.292 E.02931
G1 X41.631 Y109.987 E.03538
G1 X41.63 Y77.438 E.87944
G1 X41.715 Y76.291 E.03107
G1 X41.865 Y75.484 E.0222
G1 X42.247 Y74.33 E.03283
G1 X42.592 Y73.586 E.02215
G1 X43.297 Y72.499 E.03501
G1 X44.016 Y71.666 E.02975
G1 X53.166 Y62.515 E.34963
G1 X53.254 Y62.382 E.00432
G1 X53.299 Y62.276 E.00312
G1 X53.33 Y62.119 E.00432
G1 X53.33 Y43.882 E.49274
G1 X53.299 Y43.725 E.00432
G1 X53.254 Y43.618 E.00312
G1 X53.166 Y43.485 E.00432
G1 X44.023 Y34.342 E.34936
G1 X43.398 Y33.633 E.02552
G1 X42.807 Y32.791 E.0278
G1 X42.344 Y31.896 E.02722
G1 X41.985 Y30.95 E.02734
G1 X41.739 Y29.863 E.03011
G1 X41.631 Y28.573 E.03498
G1 X41.63 Y10.021 E.50127
G1 X41.689 Y9.078 E.02553
G1 X41.867 Y8.064 E.0278
G1 X42.172 Y7.105 E.02721
G1 X42.594 Y6.168 E.02775
G1 X43.174 Y5.251 E.02932
G1 X43.82 Y4.457 E.02764
G1 X44.627 Y3.711 E.02971
G1 X45.456 Y3.111 E.02764
G1 X46.608 Y2.52 E.03498
G1 X47.396 Y2.231 E.02269
G1 X48.458 Y1.992 E.02941
G1 X49.763 Y1.881 E.03538
G1 X51.749 Y1.881 E.05366
G1 X52.729 Y1.946 E.02654
G1 X53.7 Y2.12 E.02664
G1 X54.822 Y2.492 E.03196
G1 X55.58 Y2.843 E.02256
G1 X56.646 Y3.532 E.03429
G1 X57.291 Y4.068 E.02266
G1 X58.154 Y5.019 E.03469
G1 X58.638 Y5.704 E.02266
G1 X59.23 Y6.858 E.03505
G1 X59.519 Y7.646 E.02269
G1 X59.761 Y8.723 E.02981
G1 X59.869 Y10.013 E.03497
G1 X59.87 Y20.349 E.27927
G1 X59.921 Y20.547 E.00552
G1 X59.991 Y20.674 E.00393
G1 X60.131 Y20.823 E.00552
G1 X61.097 Y21.433 E.03087
G1 X62.086 Y22.268 E.03496
G1 X71.921 Y32.102 E.37579
G1 X72.546 Y32.812 E.02557
G1 X73.019 Y33.489 E.0223
G1 X73.427 Y34.242 E.02316
G1 X73.768 Y35.086 E.02459
G1 X74.051 Y36.227 E.03176
G1 X74.147 Y37.038 E.02208
G1 X74.132 Y38.138 E.0297
G1 X74.007 Y39.023 E.02416
G1 X73.713 Y40.067 E.02932
G1 X73.358 Y40.903 E.02453
G1 X72.803 Y41.836 E.02933
G1 X72.289 Y42.497 E.02264
G1 X72.227 Y42.612 E.00352
G1 X72.17 Y42.847 E.00652
G1 X72.17 Y63.161 E.54888
G1 X72.197 Y63.305 E.00395
G1 X72.297 Y63.518 E.00636
G1 X72.899 Y64.301 E.02668
G1 X73.434 Y65.258 E.02962
G1 X73.768 Y66.087 E.02416
G1 X74.036 Y67.139 E.02933
G1 X74.147 Y68.04 E.02453
G1 X74.132 Y69.138 E.02966
G1 X74.007 Y70.023 E.02416
G1 X73.713 Y71.068 E.02932
G1 X73.358 Y71.903 E.02453
G1 X72.804 Y72.836 E.02932
G1 X72.246 Y73.552 E.02452
G1 X71.935 Y73.883 E.01227
G1 X62.095 Y83.725 E.37605
G1 X61.224 Y84.476 E.03107
G1 X60.556 Y84.935 E.0219
G1 X60.173 Y85.134 E.01167
G1 X60.011 Y85.285 E.00597
G1 X59.93 Y85.418 E.00422
G1 X59.87 Y85.631 E.00597
G1 X59.87 Y89.334 E.10005
G1 X59.939 Y89.586 E.00705
G1 X60.042 Y89.734 E.00487
G1 X60.141 Y89.797 E.00319
G1 X60.254 Y89.846 E.00331
G1 X60.417 Y89.88 E.0045
G1 X70.236 Y89.88 E.26532
G1 X71.184 Y89.941 E.02566
G1 X72.172 Y90.113 E.02709
G1 X73.134 Y90.418 E.02727
G1 X74.082 Y90.844 E.02808
G1 X75 Y91.424 E.02933
G1 X75.804 Y92.08 E.02805
G1 X76.539 Y92.877 E.0293
G1 X77.139 Y93.706 E.02764
G1 X77.651 Y94.679 E.02972
G1 X78.015 Y95.635 E.02764
G1 X78.261 Y96.723 E.03013
G1 X78.369 Y98.004 E.03474
G1 X78.37 Y98.679 E.01824
G1 X78.324 Y99.509 E.02247
G1 X78.187 Y100.323 E.0223
G1 X77.956 Y101.122 E.02247
G1 X77.453 Y102.244 E.03323
G1 X76.97 Y103.023 E.02474
G1 X76.465 Y103.656 E.02189
G1 X76.363 Y103.89 E.0069
G1 X76.373 Y104.16 E.00732
G1 X76.402 Y104.234 E.00213
G1 X76.464 Y104.339 E.0033
G1 X77.021 Y105.036 E.0241
G1 X77.456 Y105.735 E.02226
G1 X77.807 Y106.47 E.022
G1 X78.07 Y107.23 E.02173
G1 X78.264 Y108.068 E.02325
G1 X78.37 Y109.318 E.03389
G1 X78.37 Y109.986 E.01806
G1 X78.309 Y110.934 E.02565
G1 X78.133 Y111.936 E.02748
G1 X77.828 Y112.896 E.02722
G1 X77.413 Y113.819 E.02734
G1 X76.826 Y114.749 E.02973
G1 X76.17 Y115.554 E.02805
G1 X75.373 Y116.289 E.0293
G1 X74.531 Y116.897 E.02805
G1 X73.559 Y117.406 E.02965
G1 X72.6 Y117.77 E.0277
G1 X71.542 Y118.008 E.02932
G1 X70.237 Y118.119 E.03538
G1 X49.771 Y118.12 E.55299
G1 X48.816 Y118.059 E.02585
G1 X47.826 Y117.887 E.02714
G1 X46.913 Y117.602 E.02586
G1 X46.567 Y117.464 E.01005
G1 X45.814 Y117.1 E.02262
G1 X44.992 Y116.57 E.0264
G1 X44.207 Y115.93 E.02736
G1 X43.461 Y115.123 E.02971
G1 X42.89 Y114.332 E.02636
G1 X43.18 Y114.122 F36000
G1 F6000
G1 X43.154 Y114.086 E.0012
G1 X42.673 Y113.168 E.02802
G1 X42.321 Y112.24 E.02681
G1 X42.097 Y111.244 E.02757
G1 X41.988 Y109.967 E.03463
G1 X41.987 Y77.455 E.87845
G1 X42.071 Y76.332 E.03044
G1 X42.214 Y75.566 E.02105
G1 X42.582 Y74.456 E.03159
G1 X42.909 Y73.753 E.02095
G1 X43.588 Y72.708 E.03366
G1 X44.281 Y71.906 E.02864
G1 X53.412 Y62.774 E.34894
G1 X53.548 Y62.586 E.00627
G1 X53.625 Y62.42 E.00495
G1 X53.687 Y62.108 E.00858
G1 X53.687 Y43.892 E.49217
G1 X53.625 Y43.581 E.00858
G1 X53.548 Y43.414 E.00495
G1 X53.412 Y43.226 E.00627
G1 X44.285 Y34.1 E.34873
G1 X43.683 Y33.416 E.02462
G1 X43.109 Y32.599 E.02697
G1 X42.669 Y31.745 E.02599
G1 X42.33 Y30.854 E.02574
G1 X42.093 Y29.801 E.02917
G1 X41.988 Y28.553 E.03383
G1 X41.987 Y10.035 E.50034
G1 X42.044 Y9.126 E.02463
G1 X42.216 Y8.142 E.02697
G1 X42.509 Y7.227 E.02597
G1 X42.913 Y6.331 E.02656
G1 X43.461 Y5.465 E.02769
G1 X44.076 Y4.708 E.02635
G1 X44.849 Y3.992 E.02848
G1 X45.637 Y3.421 E.02628
G1 X46.758 Y2.846 E.03405
G1 X47.504 Y2.573 E.02148
G1 X48.506 Y2.347 E.02774
G1 X49.783 Y2.238 E.03463
G1 X51.734 Y2.238 E.05271
G1 X52.68 Y2.3 E.02562
G1 X53.604 Y2.466 E.02537
G1 X54.685 Y2.823 E.03076
G1 X55.414 Y3.161 E.0217
G1 X56.429 Y3.816 E.03266
G1 X57.038 Y4.321 E.02137
G1 X57.87 Y5.238 E.03345
G1 X58.327 Y5.883 E.02136
G1 X58.904 Y7.008 E.03416
G1 X59.177 Y7.754 E.02148
G1 X59.407 Y8.785 E.02852
G1 X59.512 Y10.032 E.03383
G1 X59.513 Y20.338 E.27844
G1 X59.574 Y20.632 E.00811
G1 X59.61 Y20.722 E.00264
G1 X59.737 Y20.925 E.00645
G1 X59.95 Y21.13 E.008
G1 X60.891 Y21.726 E.03011
G1 X61.847 Y22.534 E.03381
G1 X71.663 Y32.349 E.37505
G1 X72.269 Y33.038 E.02479
G1 X72.718 Y33.682 E.02121
G1 X73.101 Y34.389 E.02174
G1 X73.429 Y35.204 E.02373
G1 X73.7 Y36.298 E.03045
G1 X73.789 Y37.064 E.02084
G1 X73.774 Y38.117 E.02845
G1 X73.655 Y38.956 E.02291
G1 X73.377 Y39.942 E.02768
G1 X73.035 Y40.748 E.02364
G1 X72.511 Y41.629 E.0277
G1 X72.011 Y42.272 E.02202
G1 X71.916 Y42.437 E.00515
G1 X71.879 Y42.533 E.00277
G1 X71.813 Y42.857 E.00894
G1 X71.813 Y63.153 E.54837
G1 X71.844 Y63.36 E.00567
G1 X71.971 Y63.662 E.00884
G1 X72.603 Y64.505 E.02846
G1 X73.114 Y65.419 E.02828
G1 X73.43 Y66.205 E.02291
G1 X73.683 Y67.198 E.02769
G1 X73.789 Y68.067 E.02364
G1 X73.774 Y69.117 E.02838
G1 X73.655 Y69.956 E.02291
G1 X73.377 Y70.942 E.02768
G1 X73.035 Y71.748 E.02364
G1 X72.512 Y72.628 E.02768
G1 X71.977 Y73.315 E.02351
G1 X71.68 Y73.633 E.01176
G1 X61.854 Y83.46 E.37547
G1 X61 Y84.196 E.03045
G1 X60.377 Y84.624 E.02045
G1 X60.019 Y84.812 E.01093
G1 X59.771 Y85.021 E.00876
G1 X59.704 Y85.103 E.00286
G1 X59.584 Y85.331 E.00695
G1 X59.513 Y85.643 E.00867
G1 X59.513 Y89.322 E.0994
G1 X59.593 Y89.673 E.00972
G1 X59.651 Y89.798 E.00372
G1 X59.743 Y89.929 E.00433
G1 X59.941 Y90.093 E.00695
G1 X60.189 Y90.197 E.00727
G1 X60.426 Y90.237 E.00648
G1 X70.228 Y90.237 E.26486
G1 X71.148 Y90.297 E.02489
G1 X72.08 Y90.46 E.02557
G1 X73.001 Y90.75 E.02609
G1 X73.919 Y91.164 E.02721
G1 X74.785 Y91.711 E.02768
G1 X75.564 Y92.347 E.02716
G1 X76.258 Y93.099 E.02766
G1 X76.83 Y93.889 E.02635
G1 X77.322 Y94.821 E.02849
G1 X77.67 Y95.732 E.02634
G1 X77.907 Y96.785 E.02918
G1 X78.012 Y98.024 E.03359
G1 X78.013 Y98.672 E.01752
G1 X77.969 Y99.464 E.02141
G1 X77.839 Y100.238 E.02121
G1 X77.617 Y101.006 E.02161
G1 X77.14 Y102.07 E.03151
G1 X76.681 Y102.811 E.02354
G1 X76.193 Y103.424 E.02117
G1 X76.04 Y103.738 E.00946
G1 X76.006 Y103.916 E.00488
G1 X76.016 Y104.165 E.00675
G1 X76.044 Y104.298 E.00367
G1 X76.096 Y104.417 E.0035
G1 X76.189 Y104.567 E.00477
G1 X76.732 Y105.248 E.02353
G1 X77.139 Y105.902 E.02082
G1 X77.473 Y106.601 E.02092
G1 X77.728 Y107.334 E.02099
G1 X77.909 Y108.116 E.02168
G1 X78.012 Y109.329 E.03287
G1 X78.013 Y109.979 E.01756
G1 X77.953 Y110.897 E.02487
G1 X77.784 Y111.857 E.02634
G1 X77.491 Y112.773 E.02599
G1 X77.101 Y113.643 E.02575
G1 X76.539 Y114.535 E.02849
G1 X75.904 Y115.314 E.02716
G1 X75.151 Y116.008 E.02766
G1 X74.336 Y116.596 E.02716
G1 X73.418 Y117.077 E.028
G1 X72.49 Y117.428 E.02681
G1 X71.494 Y117.653 E.02757
G1 X70.217 Y117.762 E.03463
G1 X49.785 Y117.763 E.55206
G1 X48.852 Y117.703 E.02526
G1 X47.917 Y117.54 E.02564
G1 X47.028 Y117.264 E.02516
G1 X46.708 Y117.135 E.00932
G1 X45.983 Y116.784 E.02176
G1 X45.198 Y116.277 E.02525
G1 X44.458 Y115.674 E.02578
G1 X43.742 Y114.901 E.02847
G1 X43.204 Y114.155 E.02487
G1 X43.494 Y113.945 F36000
G1 F6000
G1 X43.455 Y113.891 E.0018
G1 X43.002 Y113.027 E.02637
G1 X42.663 Y112.129 E.02593
G1 X42.452 Y111.197 E.02583
G1 X42.345 Y109.948 E.03387
G1 X42.344 Y77.473 E.87745
G1 X42.426 Y76.372 E.02981
G1 X42.563 Y75.649 E.01989
G1 X42.917 Y74.583 E.03036
G1 X43.227 Y73.92 E.01975
G1 X43.879 Y72.918 E.03231
G1 X44.545 Y72.147 E.02753
G1 X53.659 Y63.032 E.34827
G1 X53.833 Y62.8 E.00781
G1 X53.944 Y62.58 E.00667
G1 X54.044 Y62.097 E.01333
G1 X54.044 Y43.903 E.49158
G1 X53.944 Y43.42 E.01333
G1 X53.833 Y43.2 E.00667
G1 X53.659 Y42.968 E.00781
G1 X44.548 Y33.858 E.34813
G1 X43.968 Y33.2 E.02371
G1 X43.412 Y32.408 E.02613
G1 X42.998 Y31.604 E.02442
G1 X42.676 Y30.758 E.02447
G1 X42.446 Y29.739 E.02822
G1 X42.345 Y28.534 E.03268
G1 X42.344 Y10.05 E.49942
G1 X42.399 Y9.174 E.02372
G1 X42.566 Y8.221 E.02613
G1 X42.845 Y7.349 E.02473
G1 X43.233 Y6.494 E.02536
G1 X43.748 Y5.679 E.02607
G1 X44.332 Y4.959 E.02506
G1 X45.071 Y4.273 E.02724
G1 X45.817 Y3.731 E.02491
G1 X46.907 Y3.171 E.03311
G1 X47.612 Y2.915 E.02026
G1 X48.553 Y2.702 E.02607
G1 X49.803 Y2.595 E.03387
G1 X51.718 Y2.595 E.05176
G1 X52.631 Y2.655 E.0247
G1 X53.509 Y2.811 E.0241
G1 X54.548 Y3.154 E.02956
G1 X55.247 Y3.478 E.02084
G1 X56.212 Y4.101 E.03103
G1 X56.795 Y4.586 E.02049
G1 X57.595 Y5.467 E.03216
G1 X58.025 Y6.076 E.02012
G1 X58.579 Y7.157 E.03284
G1 X58.835 Y7.862 E.02026
G1 X59.052 Y8.832 E.02685
G1 X59.155 Y10.043 E.03284
G1 X59.156 Y20.327 E.27787
G1 X59.245 Y20.77 E.01221
G1 X59.312 Y20.918 E.00439
G1 X59.431 Y21.109 E.00607
G1 X59.767 Y21.437 E.01269
G1 X60.685 Y22.02 E.02938
G1 X61.609 Y22.8 E.03266
G1 X71.405 Y32.596 E.37431
G1 X71.991 Y33.264 E.02401
G1 X72.416 Y33.875 E.02012
G1 X72.774 Y34.536 E.02032
G1 X73.091 Y35.322 E.02288
G1 X73.349 Y36.368 E.02913
G1 X73.432 Y37.089 E.0196
G1 X73.416 Y38.096 E.0272
G1 X73.303 Y38.889 E.02166
G1 X73.041 Y39.817 E.02605
G1 X72.712 Y40.592 E.02275
G1 X72.219 Y41.422 E.02607
G1 X71.733 Y42.048 E.02143
G1 X71.611 Y42.251 E.00638
G1 X71.527 Y42.47 E.00633
G1 X71.456 Y42.867 E.01091
G1 X71.456 Y63.144 E.54786
G1 X71.52 Y63.51 E.01005
G1 X71.64 Y63.795 E.00834
G1 X72.307 Y64.706 E.03052
