; HEADER_BLOCK_START
; generated by OrcaSlicer 2.3.2-beta2 on 2026-02-26 at 11:05:31
; total layer number: 93
; filament_density: 1.04
; filament_diameter: 1.75
; max_z_height: 18.60
; filament: 1
; HEADER_BLOCK_END

; THUMBNAIL_BLOCK_START

;
; THUMBNAIL_BLOCK_END

; THUMBNAIL_BLOCK_START

;
; THUMBNAIL_BLOCK_END

; external perimeters extrusion width = 0.40mm
; perimeters extrusion width = 0.40mm
; infill extrusion width = 0.40mm
; solid infill extrusion width = 0.40mm
; top infill extrusion width = 0.40mm
; first layer extrusion width = 0.40mm

; external perimeters extrusion width = 0.40mm
; perimeters extrusion width = 0.40mm
; infill extrusion width = 0.40mm
; solid infill extrusion width = 0.40mm
; top infill extrusion width = 0.40mm
; first layer extrusion width = 0.40mm

; EXECUTABLE_BLOCK_START


; Pre-Processed for Cancel-Object support by preprocess_cancellation v0.2.0
; 2 known objects
EXCLUDE_OBJECT_DEFINE NAME=Body1_stl_id_87_copy_0 CENTER=80.484,41.812 POLYGON=[[62.7,5.2],[62.7,114.8],[98.3,114.8],[98.3,5.2]]
EXCLUDE_OBJECT_DEFINE NAME=Body1_stl_id_0_copy_0 CENTER=39.484,41.812 POLYGON=[[21.7,5.2],[21.7,114.8],[57.3,114.8],[57.3,5.2]]
M73 P0 R37
;TYPE:Custom
PRINT_START EXTRUDER_TEMP=255 BED_TEMP=105
G90
G21
M83 ; use relative distances for extrusion
; Filament gcode
SET_PRESSURE_ADVANCE ADVANCE=0.04; Override pressure advance value
M106 S0
;LAYER_CHANGE
;Z:0.2
;HEIGHT:0.2
;BEFORE_LAYER_CHANGE
;0.2
G92 E0

G1 E-.8 F1800
;AFTER_LAYER_CHANGE
;0.2
;_SET_FAN_SPEED_CHANGING_LAYER
SET_VELOCITY_LIMIT ACCEL=10000 ACCEL_TO_DECEL=10000
SET_VELOCITY_LIMIT SQUARE_CORNER_VELOCITY=9
; printing object Body1.stl id:87 copy 0
EXCLUDE_OBJECT_START NAME=Body1_stl_id_87_copy_0
G1 Z.6 F36000
G1 X83.857 Y109.725
G1 Z.6
G1 Z.2
G1 E.8 F1800
;TYPE:Inner wall
;WIDTH:0.4
G1 F6000
G1 X83.857 Y110.464 E.01995
G1 X83.646 Y111.283 E.02284
G1 X83.239 Y112.024 E.02284
G1 X82.66 Y112.64 E.02284
G1 X81.955 Y113.088 E.02259
G1 X81.144 Y113.354 E.02304
G1 X80.299 Y113.407 E.02289
G1 X79.468 Y113.249 E.02284
G1 X78.703 Y112.889 E.02284
G1 X78.052 Y112.35 E.02284
G1 X77.555 Y111.666 E.02284
G1 X77.244 Y110.88 E.02284
G1 X77.138 Y110.041 E.02284
G1 X77.243 Y109.212 E.02259
G1 X77.554 Y108.418 E.02304
G1 X78.052 Y107.732 E.02289
G1 X78.703 Y107.194 E.02284
G1 X79.468 Y106.834 E.02284
G1 X79.88 Y106.755 E.01132
G1 X80.29 Y106.677 E.01127
G1 X81.141 Y106.728 E.02304
G1 X81.947 Y106.989 E.02289
G1 X82.66 Y107.442 E.02284
G1 X83.239 Y108.059 E.02284
G1 X83.646 Y108.8 E.02284
G1 X83.857 Y109.618 E.02284
G1 X83.857 Y109.685 E.00181
G1 X83.5 Y109.725 F36000
G1 F6000
G1 X83.5 Y110.419 E.01873
G1 X83.312 Y111.15 E.0204
G1 X82.948 Y111.812 E.0204
G1 X82.431 Y112.362 E.0204
G1 X81.801 Y112.762 E.02016
G1 X81.076 Y113 E.02061
G1 X80.321 Y113.048 E.02044
G1 X79.58 Y112.906 E.0204
G1 X78.896 Y112.585 E.0204
G1 X78.314 Y112.103 E.0204
G1 X77.871 Y111.493 E.0204
G1 X77.593 Y110.79 E.0204
G1 X77.498 Y110.041 E.0204
G1 X77.591 Y109.301 E.02016
G1 X77.87 Y108.591 E.02061
G1 X78.314 Y107.979 E.02044
G1 X78.896 Y107.497 E.0204
G1 X79.58 Y107.176 E.0204
G1 X79.947 Y107.106 E.0101
G1 X80.313 Y107.036 E.01007
G1 X81.074 Y107.081 E.02061
G1 X81.793 Y107.315 E.02044
G1 X82.431 Y107.72 E.0204
G1 X82.948 Y108.27 E.0204
G1 X83.312 Y108.932 E.0204
G1 X83.5 Y109.664 E.0204
G1 X83.5 Y109.685 E.00059
G1 X83.142 Y109.725 F36000
;TYPE:Outer wall
G1 F6000
G1 X83.142 Y110.374 E.01751
G1 X82.977 Y111.018 E.01797
G1 X82.657 Y111.6 E.01797
G1 X82.202 Y112.085 E.01797
G1 X81.647 Y112.437 E.01774
G1 X81.008 Y112.647 E.01817
G1 X80.344 Y112.689 E.01798
G1 X79.691 Y112.564 E.01797
G1 X79.089 Y112.281 E.01797
G1 X78.577 Y111.857 E.01797
G1 X78.186 Y111.319 E.01797
G1 X77.941 Y110.701 E.01797
G1 X77.858 Y110.041 E.01797
G1 X77.94 Y109.39 E.01774
G1 X78.186 Y108.764 E.01817
G1 X78.577 Y108.225 E.01798
G1 X79.089 Y107.801 E.01797
G1 X79.691 Y107.518 E.01797
G1 X80.014 Y107.457 E.00888
G1 X80.336 Y107.395 E.00886
G1 X81.007 Y107.435 E.01817
G1 X81.64 Y107.641 E.01798
G1 X82.202 Y107.997 E.01797
G1 X82.657 Y108.482 E.01797
G1 X82.977 Y109.065 E.01797
G1 X83.137 Y109.686 E.01734
G1 E-.56 F1800
;WIPE_START
G1 F6000
G1 X83.142 Y110.374 E-.16498
G1 X83.065 Y110.676 E-.07502
;WIPE_END
G1 Z.6 F36000
G1 X78.383 Y23.054 Z.6
G1 Z.2
G1 E.8 F1800
;TYPE:Inner wall
G1 F6000
G1 X77.779 Y22.555 E.02117
G1 X77.229 Y21.798 E.02528
G1 X76.885 Y20.928 E.02528
G1 X76.767 Y20 E.02528
G1 X76.885 Y19.072 E.02528
G1 X77.229 Y18.202 E.02528
G1 X77.779 Y17.445 E.02528
G1 X78.5 Y16.849 E.02528
G1 X79.347 Y16.45 E.02528
G1 X79.802 Y16.363 E.01254
G1 X80.256 Y16.277 E.01247
G1 X81.197 Y16.333 E.02548
G1 X82.089 Y16.623 E.02534
G1 X82.879 Y17.124 E.02528
G1 X83.52 Y17.806 E.02528
G1 X83.97 Y18.626 E.02528
G1 X84.203 Y19.532 E.02528
G1 X84.203 Y20.468 E.02528
G1 X83.973 Y21.364 E.02501
G1 X83.521 Y22.192 E.02548
G1 X82.879 Y22.876 E.02534
G1 X82.089 Y23.377 E.02528
G1 X81.199 Y23.666 E.02528
G1 X80.266 Y23.725 E.02528
G1 X79.347 Y23.55 E.02528
G1 X78.5 Y23.151 E.02528
G1 X78.414 Y23.08 E.00303
G1 X78.61 Y22.779 F36000
G1 F6000
G1 X78.041 Y22.309 E.01995
G1 X77.545 Y21.625 E.02284
G1 X77.233 Y20.839 E.02284
G1 X77.127 Y20 E.02284
G1 X77.233 Y19.161 E.02284
G1 X77.545 Y18.375 E.02284
G1 X78.041 Y17.691 E.02284
G1 X78.693 Y17.152 E.02284
G1 X79.458 Y16.792 E.02284
G1 X79.869 Y16.714 E.01132
G1 X80.279 Y16.636 E.01127
G1 X81.13 Y16.687 E.02304
G1 X81.936 Y16.948 E.02289
G1 X82.65 Y17.401 E.02284
G1 X83.228 Y18.018 E.02284
G1 X83.636 Y18.758 E.02284
G1 X83.846 Y19.577 E.02284
G1 X83.846 Y20.423 E.02284
G1 X83.638 Y21.232 E.02259
G1 X83.23 Y21.981 E.02304
G1 X82.65 Y22.599 E.02289
G1 X81.936 Y23.052 E.02284
G1 X81.132 Y23.313 E.02284
G1 X80.288 Y23.366 E.02284
G1 X79.458 Y23.208 E.02284
G1 X78.693 Y22.848 E.02284
G1 X78.641 Y22.805 E.00181
G1 X78.838 Y22.504 F36000
G1 F6000
G1 X78.304 Y22.062 E.01873
G1 X77.86 Y21.451 E.0204
G1 X77.582 Y20.749 E.0204
G1 X77.487 Y20 E.0204
G1 X77.582 Y19.251 E.0204
G1 X77.86 Y18.549 E.0204
G1 X78.304 Y17.938 E.0204
G1 X78.886 Y17.456 E.0204
G1 X79.569 Y17.135 E.0204
G1 X79.936 Y17.065 E.0101
G1 X80.302 Y16.995 E.01007
G1 X81.063 Y17.04 E.02061
G1 X81.783 Y17.274 E.02044
G1 X82.42 Y17.679 E.0204
G1 X82.937 Y18.229 E.0204
G1 X83.301 Y18.891 E.0204
G1 X83.489 Y19.622 E.0204
G1 X83.489 Y20.378 E.0204
G1 X83.303 Y21.1 E.02016
G1 X82.938 Y21.77 E.02061
G1 X82.42 Y22.321 E.02044
G1 X81.783 Y22.726 E.0204
G1 X81.065 Y22.959 E.0204
G1 X80.311 Y23.007 E.0204
G1 X79.569 Y22.865 E.0204
G1 X78.886 Y22.544 E.0204
G1 X78.869 Y22.53 E.00059
G1 X79.066 Y22.229 F36000
;TYPE:Outer wall
G1 F6000
G1 X78.566 Y21.816 E.01751
G1 X78.175 Y21.278 E.01797
G1 X77.931 Y20.66 E.01797
G1 X77.847 Y20 E.01797
G1 X77.931 Y19.34 E.01797
G1 X78.175 Y18.722 E.01797
G1 X78.566 Y18.184 E.01797
G1 X79.079 Y17.76 E.01797
G1 X79.68 Y17.477 E.01797
G1 X80.003 Y17.415 E.00888
G1 X80.325 Y17.354 E.00886
G1 X80.997 Y17.394 E.01817
G1 X81.63 Y17.6 E.01798
G1 X82.191 Y17.956 E.01797
G1 X82.646 Y18.441 E.01797
G1 X82.966 Y19.023 E.01797
G1 X83.132 Y19.668 E.01797
G1 X83.132 Y20.332 E.01797
G1 X82.969 Y20.969 E.01774
G1 X82.647 Y21.559 E.01817
G1 X82.191 Y22.044 E.01798
G1 X81.629 Y22.4 E.01797
G1 X80.997 Y22.606 E.01797
G1 X80.333 Y22.648 E.01797
G1 X79.68 Y22.523 E.01797
G1 X79.1 Y22.25 E.01734
G1 E-.56 F1800
;WIPE_START
G1 F6000
G1 X78.566 Y21.816 E-.16498
G1 X78.382 Y21.563 E-.07502
;WIPE_END
G1 Z.6 F36000
G1 X63.921 Y11.411 Z.6
G1 Z.2
G1 E.8 F1800
;TYPE:Inner wall
G1 F6000
G1 X63.921 Y6.421 E.13483
G1 X97.079 Y6.421 E.89589
G1 X97.079 Y11.411 E.13483
G1 X86.416 Y22.074 E.40741
G1 X84.079 Y27.717 E.16505
G1 X84.079 Y108.511 E2.18297
G1 X83.918 Y108.552 E.00449
G1 X83.53 Y107.847 E.02174
G1 X82.89 Y107.165 E.02528
G1 X82.1 Y106.664 E.02528
G1 X81.208 Y106.374 E.02534
G1 X80.266 Y106.318 E.02548
G1 X79.357 Y106.491 E.02501
G1 X78.511 Y106.89 E.02528
G1 X77.79 Y107.486 E.02528
G1 X77.238 Y108.245 E.02534
G1 X77.096 Y108.609 E.01056
G1 X76.921 Y108.576 E.0048
G1 X76.921 Y27.717 E2.18472
G1 X74.584 Y22.074 E.16505
G1 X63.95 Y11.44 E.40633
G1 X63.564 Y11.559 F36000
G1 F6000
G1 X63.564 Y6.064 E.14847
G1 X97.436 Y6.064 E.91518
G1 X97.436 Y11.559 E.14847
G1 X86.719 Y22.276 E.40949
G1 X84.436 Y27.788 E.16121
G1 X84.436 Y111.559 E2.26341
G1 X82.059 Y113.936 E.09081
G1 X78.941 Y113.936 E.08426
G1 X76.564 Y111.559 E.09081
G1 X76.564 Y27.788 E2.26341
G1 X74.281 Y22.276 E.16121
G1 X63.592 Y11.587 E.40841
G1 X63.207 Y11.707 F36000
G1 F6000
G1 X63.207 Y5.707 E.16212
G1 X97.793 Y5.707 E.93448
G1 X97.793 Y11.707 E.16212
G1 X87.022 Y22.478 E.41157
G1 X84.793 Y27.859 E.15737
G1 X84.793 Y111.707 E2.26549
G1 X82.207 Y114.293 E.09881
G1 X78.793 Y114.293 E.09225
G1 X76.207 Y111.707 E.09881
G1 X76.207 Y27.859 E2.26549
G1 X73.978 Y22.478 E.15737
G1 X63.235 Y11.735 E.41049
G1 X62.85 Y11.855 F36000
;TYPE:Outer wall
G1 F6000
G1 X62.85 Y5.35 E.17576
G1 X98.15 Y5.35 E.95377
G1 X98.15 Y11.855 E.17576
G1 X87.325 Y22.68 E.41365
G1 X85.15 Y27.93 E.15354
G1 X85.15 Y111.855 E2.26757
G1 X82.355 Y114.65 E.1068
G1 X78.645 Y114.65 E.10024
G1 X75.85 Y111.855 E.1068
G1 X75.85 Y27.93 E2.26757
G1 X73.675 Y22.68 E.15354
G1 X62.878 Y11.883 E.41257
G1 E-.56 F1800
;WIPE_START
G1 F6000
G1 X62.874 Y10.883 E-.24
;WIPE_END
G1 Z.6 F36000
G1 X96.972 Y6.69 Z.6
G1 Z.2
G1 E.8 F1800
;TYPE:Bottom surface
;WIDTH:0.400991
G1 F12600
G1 X64.189 Y6.69 E.88821
G1 X64.189 Y7.048 E.0097
G1 X96.811 Y7.048 E.88386
G1 X96.811 Y7.406 E.0097
G1 X64.189 Y7.406 E.88386
G1 X64.189 Y7.764 E.0097
G1 X96.811 Y7.764 E.88386
G1 X96.811 Y8.122 E.0097
G1 X64.189 Y8.122 E.88386
G1 X64.189 Y8.48 E.0097
G1 X96.811 Y8.48 E.88386
G1 X96.811 Y8.838 E.0097
G1 X64.189 Y8.838 E.88386
G1 X64.189 Y9.196 E.0097
G1 X96.811 Y9.196 E.88386
G1 X96.811 Y9.554 E.0097
G1 X64.189 Y9.554 E.88386
G1 X64.189 Y9.912 E.0097
G1 X96.811 Y9.912 E.88386
G1 X96.811 Y10.27 E.0097
G1 X64.189 Y10.27 E.88386
G1 X64.189 Y10.628 E.0097
G1 X96.811 Y10.628 E.88386
G1 X96.811 Y10.986 E.0097
G1 X64.189 Y10.986 E.88386
G1 X64.189 Y11.3 E.00851
G1 X64.233 Y11.345 E.00169
G1 X96.767 Y11.345 E.88147
G1 X96.409 Y11.703 E.01372
G1 X64.591 Y11.703 E.86207
G1 X64.949 Y12.061 E.01372
G1 X96.051 Y12.061 E.84266
G1 X95.693 Y12.419 E.01372
G1 X65.307 Y12.419 E.82326
G1 X65.665 Y12.777 E.01372
G1 X95.335 Y12.777 E.80386
G1 X94.976 Y13.135 E.01372
G1 X66.024 Y13.135 E.78445
G1 X66.382 Y13.493 E.01372
G1 X94.618 Y13.493 E.76505
G1 X94.26 Y13.851 E.01372
G1 X66.74 Y13.851 E.74565
G1 X67.098 Y14.209 E.01372
G1 X93.902 Y14.209 E.72624
G1 X93.544 Y14.567 E.01372
G1 X67.456 Y14.567 E.70684
G1 X67.814 Y14.925 E.01372
G1 X93.186 Y14.925 E.68744
G1 X92.828 Y15.283 E.01372
G1 X68.172 Y15.283 E.66803
G1 X68.53 Y15.641 E.01372
G1 X92.47 Y15.641 E.64863
G1 X92.112 Y15.999 E.01372
G1 X68.888 Y15.999 E.62923
G1 X69.246 Y16.358 E.01372
G1 X78.914 Y16.358 E.26195
G1 X79.263 Y16.193 E.01044
G1 X80.238 Y16.007 E.0269
G1 X81.247 Y16.068 E.02739
G1 X82.14 Y16.358 E.02542
G1 X91.754 Y16.358 E.26049
G1 X91.396 Y16.716 E.01372
G1 X82.735 Y16.716 E.23464
G1 X83.051 Y16.916 E.01014
G1 X83.199 Y17.074 E.00586
G1 X91.038 Y17.074 E.21237
G1 X90.68 Y17.432 E.01372
G1 X83.536 Y17.432 E.19356
G1 X83.738 Y17.647 E.00802
G1 X83.816 Y17.79 E.0044
G1 X90.322 Y17.79 E.17625
G1 X89.963 Y18.148 E.01372
G1 X84.013 Y18.148 E.16122
G1 X84.21 Y18.506 E.01107
G1 X89.605 Y18.506 E.14618
G1 X89.247 Y18.864 E.01372
G1 X84.308 Y18.864 E.13383
G1 X84.4 Y19.222 E.01002
G1 X88.889 Y19.222 E.12163
G1 X88.531 Y19.58 E.01372
G1 X84.471 Y19.58 E.11001
G1 X84.471 Y19.938 E.0097
G1 X88.173 Y19.938 E.10031
G1 X87.815 Y20.296 E.01372
G1 X84.471 Y20.296 E.09061
G3 X84.432 Y20.654 I-.717 J.103 E.00986
G1 X87.457 Y20.654 E.08197
G1 X87.099 Y21.012 E.01372
G1 X84.34 Y21.012 E.07476
G1 X84.248 Y21.371 E.01002
G1 X86.741 Y21.371 E.06755
G1 X86.383 Y21.729 E.01372
G1 X84.079 Y21.729 E.06241
G1 X83.884 Y22.087 E.01105
G1 X86.121 Y22.087 E.06062
G1 X85.973 Y22.445 E.0105
G1 X83.652 Y22.445 E.06289
G1 X83.315 Y22.803 E.01331
G1 X85.825 Y22.803 E.06799
G1 X85.676 Y23.161 E.0105
G1 X82.93 Y23.161 E.0744
G1 X82.366 Y23.519 E.01811
G1 X85.702 Y23.519 E.09039
G1 E-.65714 F1800
;WIPE_START
G1 F12600
G1 X84.702 Y23.519 E-.14286
;WIPE_END
G1 Z.6 F36000
G1 X78.531 Y16.716 Z.6
G1 Z.2
G1 E.8 F1800
G1 F12600
G1 X69.604 Y16.716 E.24186
G1 X69.962 Y17.074 E.01372
G1 X77.808 Y17.074 E.21256
G2 X77.458 Y17.432 I.522 J.861 E.01371
G1 X70.32 Y17.432 E.19338
G1 X70.678 Y17.79 E.01372
G1 X77.197 Y17.79 E.17663
G1 X76.993 Y18.072 E.00944
G1 X76.962 Y18.148 E.00222
G1 X71.037 Y18.148 E.16056
G1 X71.395 Y18.506 E.01372
G1 X76.821 Y18.506 E.14702
G1 X76.679 Y18.864 E.01043
G1 X71.753 Y18.864 E.13347
G1 X72.111 Y19.222 E.01372
G1 X76.596 Y19.222 E.12152
G1 X76.551 Y19.58 E.00978
G1 X72.469 Y19.58 E.11059
G1 X72.827 Y19.938 E.01372
G1 X76.505 Y19.938 E.09966
G1 X76.498 Y20 E.00169
G1 X76.535 Y20.296 E.00809
G1 X73.185 Y20.296 E.09076
G1 X73.543 Y20.654 E.01372
G1 X76.58 Y20.654 E.08229
G1 X76.63 Y21.012 E.0098
G1 X73.901 Y21.012 E.07394
G1 X74.259 Y21.371 E.01372
G1 X76.772 Y21.371 E.06808
G1 X76.914 Y21.729 E.01043
M73 P1 R37
G1 X74.617 Y21.729 E.06222
G1 X74.811 Y21.922 E.00741
G1 X74.879 Y22.087 E.00483
G1 X77.108 Y22.087 E.06039
G1 X77.368 Y22.445 E.01199
G1 X75.027 Y22.445 E.06342
G1 X75.175 Y22.803 E.0105
G1 X77.658 Y22.803 E.06727
G1 X78.091 Y23.161 E.01522
G1 X75.324 Y23.161 E.07498
G1 X75.472 Y23.519 E.0105
G1 X79.029 Y23.519 E.09638
G1 E-.65714 F1800
;WIPE_START
G1 F12600
G1 X78.029 Y23.519 E-.14286
;WIPE_END
G1 Z.6 F36000
G1 X75.446 Y23.877 Z.6
G1 Z.2
G1 E.8 F1800
G1 F12600
G1 X85.38 Y23.877 E.26913
G1 X85.231 Y24.235 E.0105
G1 X75.769 Y24.235 E.25638
G1 X75.917 Y24.593 E.0105
G1 X85.083 Y24.593 E.24834
G1 X84.935 Y24.951 E.0105
G1 X76.065 Y24.951 E.2403
G1 X76.214 Y25.309 E.0105
G1 X84.786 Y25.309 E.23227
G1 X84.638 Y25.667 E.0105
G1 X76.362 Y25.667 E.22423
G1 X76.51 Y26.025 E.0105
G1 X84.49 Y26.025 E.21619
G1 X84.341 Y26.383 E.0105
G1 X76.659 Y26.383 E.20816
G1 X76.807 Y26.742 E.0105
G1 X84.193 Y26.742 E.20012
G1 X84.045 Y27.1 E.0105
G1 X76.955 Y27.1 E.19208
G1 X77.104 Y27.458 E.0105
G1 X83.896 Y27.458 E.18405
G1 X83.811 Y27.664 E.00605
G1 X83.811 Y27.816 E.00411
G1 X77.189 Y27.816 E.17941
G1 X77.189 Y28.174 E.0097
G1 X83.811 Y28.174 E.17941
G1 X83.811 Y28.532 E.0097
G1 X77.189 Y28.532 E.17941
G1 X77.189 Y28.89 E.0097
G1 X83.811 Y28.89 E.17941
G1 X83.811 Y29.248 E.0097
G1 X77.189 Y29.248 E.17941
G1 X77.189 Y29.606 E.0097
G1 X83.811 Y29.606 E.17941
G1 X83.811 Y29.964 E.0097
G1 X77.189 Y29.964 E.17941
G1 X77.189 Y30.322 E.0097
G1 X83.811 Y30.322 E.17941
G1 X83.811 Y30.68 E.0097
G1 X77.189 Y30.68 E.17941
G1 X77.189 Y31.038 E.0097
G1 X83.811 Y31.038 E.17941
G1 X83.811 Y31.396 E.0097
G1 X77.189 Y31.396 E.17941
G1 X77.189 Y31.755 E.0097
G1 X83.811 Y31.755 E.17941
G1 X83.811 Y32.113 E.0097
G1 X77.189 Y32.113 E.17941
G1 X77.189 Y32.471 E.0097
G1 X83.811 Y32.471 E.17941
G1 X83.811 Y32.829 E.0097
G1 X77.189 Y32.829 E.17941
G1 X77.189 Y33.187 E.0097
G1 X83.811 Y33.187 E.17941
G1 X83.811 Y33.545 E.0097
G1 X77.189 Y33.545 E.17941
G1 X77.189 Y33.903 E.0097
G1 X83.811 Y33.903 E.17941
G1 X83.811 Y34.261 E.0097
G1 X77.189 Y34.261 E.17941
G1 X77.189 Y34.619 E.0097
G1 X83.811 Y34.619 E.17941
G1 X83.811 Y34.977 E.0097
G1 X77.189 Y34.977 E.17941
G1 X77.189 Y35.335 E.0097
G1 X83.811 Y35.335 E.17941
G1 X83.811 Y35.693 E.0097
G1 X77.189 Y35.693 E.17941
G1 X77.189 Y36.051 E.0097
G1 X83.811 Y36.051 E.17941
G1 X83.811 Y36.409 E.0097
G1 X77.189 Y36.409 E.17941
G1 X77.189 Y36.768 E.0097
G1 X83.811 Y36.768 E.17941
G1 X83.811 Y37.126 E.0097
G1 X77.189 Y37.126 E.17941
G1 X77.189 Y37.484 E.0097
G1 X83.811 Y37.484 E.17941
G1 X83.811 Y37.842 E.0097
G1 X77.189 Y37.842 E.17941
G1 X77.189 Y38.2 E.0097
G1 X83.811 Y38.2 E.17941
G1 X83.811 Y38.558 E.0097
G1 X77.189 Y38.558 E.17941
G1 X77.189 Y38.916 E.0097
G1 X83.811 Y38.916 E.17941
G1 X83.811 Y39.274 E.0097
G1 X77.189 Y39.274 E.17941
G1 X77.189 Y39.632 E.0097
G1 X83.811 Y39.632 E.17941
G1 X83.811 Y39.99 E.0097
G1 X77.189 Y39.99 E.17941
G1 X77.189 Y40.348 E.0097
G1 X83.811 Y40.348 E.17941
G1 X83.811 Y40.706 E.0097
G1 X77.189 Y40.706 E.17941
G1 X77.189 Y41.064 E.0097
G1 X83.811 Y41.064 E.17941
G1 X83.811 Y41.422 E.0097
