; HEADER_BLOCK_START
; generated by OrcaSlicer 2.3.1 on 2026-02-07 at 20:55:12
; total layer number: 150
; filament_density: 1.04
; filament_diameter: 1.75
; max_z_height: 30.00
; HEADER_BLOCK_END

; THUMBNAIL_BLOCK_START

;
; THUMBNAIL_BLOCK_END

; THUMBNAIL_BLOCK_START

;
; THUMBNAIL_BLOCK_END

; external perimeters extrusion width = 0.40mm
; perimeters extrusion width = 0.40mm
; infill extrusion width = 0.40mm
; solid infill extrusion width = 0.40mm
; top infill extrusion width = 0.40mm
; first layer extrusion width = 0.40mm

; EXECUTABLE_BLOCK_START


; Pre-Processed for Cancel-Object support by preprocess_cancellation v0.2.0
; 1 known objects
EXCLUDE_OBJECT_DEFINE NAME=cazas_Mini_Fridge_Hinge_Right_3mmFoam_6_5mmsockets_smallertabs_v1_step_id_15_copy_0 CENTER=59.319,56.610 POLYGON=[[52.89,49.191],[52.89,70.809],[67.11,70.809],[67.11,49.191]]
M73 P0 R10
;TYPE:Custom
PRINT_START EXTRUDER_TEMP=255 BED_TEMP=105
G90
G21
M83 ; use relative distances for extrusion
; Filament gcode
SET_PRESSURE_ADVANCE ADVANCE=0.04; Override pressure advance value
M106 S0
;LAYER_CHANGE
;Z:0.2
;HEIGHT:0.2
;BEFORE_LAYER_CHANGE
;0.2
G92 E0

G1 E-.8 F1800
;AFTER_LAYER_CHANGE
;0.2
;_SET_FAN_SPEED_CHANGING_LAYER
SET_VELOCITY_LIMIT ACCEL=10000 ACCEL_TO_DECEL=10000
SET_VELOCITY_LIMIT SQUARE_CORNER_VELOCITY=9
; printing object cazas_Mini_Fridge_Hinge_Right_3mmFoam_6.5mmsockets_smallertabs v1.step id:15 copy 0
EXCLUDE_OBJECT_START NAME=cazas_Mini_Fridge_Hinge_Right_3mmFoam_6_5mmsockets_smallertabs_v1_step_id_15_copy_0
G1 Z.6 F36000
G1 X59.772 Y63.39
G1 Z.6
G1 Z.2
G1 E.8 F1800
;TYPE:Inner wall
;WIDTH:0.4
G1 F6000
G1 X55.613 Y58.658 E.17021
G3 X59.553 Y50.725 I3.582 J-3.166 E.30611
G3 X63.856 Y54.459 I-.387 J4.793 E.16475
G1 X64.469 Y57.181 E.07537
G1 X64.469 Y64.588 E.20015
G1 X60.662 Y64.59 E.10286
G1 X60.662 Y64.403 E.00504
G1 X59.798 Y63.42 E.03537
G1 X59.96 Y64.146 F36000
G1 F6000
G1 X55.342 Y58.891 E.18903
G3 X59.581 Y50.369 I3.851 J-3.399 E.32887
G3 X64.204 Y54.376 I-.416 J5.15 E.1769
G1 X64.826 Y57.141 E.07657
G1 X64.826 Y64.073 E.18731
G1 X65.246 Y64.073 E.01135
G1 X65.246 Y64.945 E.02355
G1 X60.304 Y64.948 E.13353
G1 X60.305 Y64.538 E.01109
G1 X59.987 Y64.176 E.01302
G1 E-.56 F1800
;WIPE_START
G1 F6000
G1 X59.326 Y63.424 E-.24
;WIPE_END
G1 Z.6 F36000
G1 X59.946 Y65.306 Z.6
G1 Z.2
G1 E.8 F1800
G1 F6000
G1 X59.947 Y64.672 E.01714
G1 X55.07 Y59.123 E.19961
G3 X59.608 Y50.013 I4.123 J-3.632 E.35159
G3 X64.551 Y54.293 I-.444 J5.508 E.18905
G1 X65.183 Y57.101 E.07778
G1 X65.183 Y63.716 E.17874
G1 X65.603 Y63.716 E.01135
G1 X65.603 Y65.302 E.04285
G1 X59.986 Y65.306 E.15176
G1 X59.944 Y65.663 F36000
;TYPE:Outer wall
G1 F6000
G1 X59.942 Y70.36 E.1269
G1 X59.588 Y70.36 E.00957
G1 X59.59 Y64.806 E.15006
G1 X54.799 Y59.355 E.19609
G3 X59.635 Y49.656 I4.394 J-3.864 E.3743
G3 X64.898 Y54.21 I-.473 J5.866 E.2012
G1 X65.54 Y57.061 E.07898
G1 X65.54 Y63.359 E.17016
G1 X65.96 Y63.359 E.01135
G1 X65.96 Y65.659 E.06214
G1 X59.984 Y65.663 E.16148
G1 E-.56 F1800
;WIPE_START
G1 F6000
G1 X59.975 Y66.663 E-.24
;WIPE_END
G1 Z.6 F36000
G1 X60.419 Y50.986 Z.6
G1 Z.2
G1 E.8 F1800
;TYPE:Bottom surface
;WIDTH:0.403305
G1 F12600
G1 X58.955 Y50.986 E.03992
G2 X57.414 Y51.347 I.221 J4.421 E.0434
G1 X60.96 Y51.347 E.09669
G3 X61.63 Y51.707 I-1.091 J2.833 E.02081
G1 X56.747 Y51.707 E.13314
G2 X56.265 Y52.067 I1.185 J2.088 E.01646
G1 X62.121 Y52.067 E.15969
G3 X62.493 Y52.428 I-1.362 J1.775 E.01414
G1 X55.88 Y52.428 E.18033
G2 X55.583 Y52.788 I2.061 J1.999 E.01274
G1 X62.8 Y52.788 E.19681
G3 X63.039 Y53.149 I-1.921 J1.53 E.0118
G1 X55.345 Y53.149 E.2098
G2 X55.147 Y53.509 I1.326 J.964 E.01124
G1 X63.236 Y53.509 E.22059
G1 X63.393 Y53.869 E.01072
G1 X54.983 Y53.869 E.22935
G1 X54.867 Y54.23 E.01032
G1 X63.511 Y54.23 E.23571
G3 X63.611 Y54.59 I-2.891 J1 E.01021
G1 X54.779 Y54.59 E.24085
G2 X54.713 Y54.95 I1.507 J.463 E.01001
G1 X63.692 Y54.95 E.24487
G1 X63.774 Y55.311 E.01007
G1 X54.688 Y55.311 E.24776
G2 X54.692 Y55.671 I1.544 J.162 E.00985
G1 X63.855 Y55.671 E.24985
G1 X63.936 Y56.032 E.01007
G1 X54.715 Y56.032 E.25143
G1 X54.779 Y56.392 E.00998
G1 X64.017 Y56.392 E.25191
G1 X64.098 Y56.752 E.01007
G1 X54.869 Y56.752 E.25165
G2 X54.983 Y57.113 I1.601 J-.308 E.01033
G1 X64.179 Y57.113 E.25075
G3 X64.201 Y57.473 I-.79 J.229 E.00993
G1 X55.143 Y57.473 E.247
G2 X55.339 Y57.834 I4.696 J-2.315 E.01118
G1 X64.201 Y57.834 E.24167
G1 X64.201 Y58.194 E.00983
G1 X55.587 Y58.194 E.23488
G2 X55.888 Y58.554 I1.701 J-1.112 E.01282
G1 X64.201 Y58.554 E.2267
G1 X64.201 Y58.915 E.00983
G1 X56.204 Y58.915 E.21807
G1 X56.52 Y59.275 E.01307
G1 X64.201 Y59.275 E.20945
G1 X64.201 Y59.635 E.00983
G1 X56.836 Y59.635 E.20083
G1 X57.152 Y59.996 E.01307
G1 X64.201 Y59.996 E.19221
G1 X64.201 Y60.356 E.00983
G1 X57.468 Y60.356 E.18359
G1 X57.784 Y60.717 E.01307
G1 X64.201 Y60.717 E.17497
G1 X64.201 Y61.077 E.00983
G1 X58.101 Y61.077 E.16635
G1 X58.417 Y61.437 E.01307
G1 X64.201 Y61.437 E.15773
G1 X64.201 Y61.798 E.00983
G1 X58.733 Y61.798 E.14911
G1 X59.049 Y62.158 E.01307
G1 X64.201 Y62.158 E.14049
G1 X64.201 Y62.519 E.00983
G1 X59.365 Y62.519 E.13187
G1 X59.681 Y62.879 E.01307
G1 X64.201 Y62.879 E.12325
G1 X64.201 Y63.239 E.00983
G1 X59.997 Y63.239 E.11463
G1 X60.313 Y63.6 E.01307
G1 X64.201 Y63.6 E.10601
G1 X64.201 Y63.96 E.00983
G1 X60.63 Y63.96 E.09739
G1 X60.93 Y64.32 E.0128
G1 X64.362 Y64.32 E.09357
; stop printing object cazas_Mini_Fridge_Hinge_Right_3mmFoam_6.5mmsockets_smallertabs v1.step id:15 copy 0
EXCLUDE_OBJECT_END NAME=cazas_Mini_Fridge_Hinge_Right_3mmFoam_6_5mmsockets_smallertabs_v1_step_id_15_copy_0
;LAYER_CHANGE
;Z:0.4
;HEIGHT:0.2
;BEFORE_LAYER_CHANGE
;0.4
G92 E0

G1 E-.65714 F1800
;WIPE_START
G1 F12600
G1 X63.362 Y64.32 E-.14286
;WIPE_END
;AFTER_LAYER_CHANGE
;0.4
;_SET_FAN_SPEED_CHANGING_LAYER
SET_VELOCITY_LIMIT ACCEL=20000 ACCEL_TO_DECEL=20000
M104 S250 ; set nozzle temperature
M140 S102 ; set bed temperature
; printing object cazas_Mini_Fridge_Hinge_Right_3mmFoam_6.5mmsockets_smallertabs v1.step id:15 copy 0
EXCLUDE_OBJECT_START NAME=cazas_Mini_Fridge_Hinge_Right_3mmFoam_6_5mmsockets_smallertabs_v1_step_id_15_copy_0
SET_VELOCITY_LIMIT SQUARE_CORNER_VELOCITY=12
G1 Z.8 F36000
G1 X59.936 Y64.107 Z.8
G1 Z.4
G1 E.8 F1800
SET_VELOCITY_LIMIT ACCEL=15000 ACCEL_TO_DECEL=15000 SQUARE_CORNER_VELOCITY=9
;TYPE:Inner wall
;WIDTH:0.4
G1 F23081.008
G1 X55.349 Y58.888 E.18775
G3 X59.545 Y50.373 I3.845 J-3.396 E.32753
G3 X64.197 Y54.38 I-.367 J5.13 E.17776
G1 X64.819 Y57.142 E.07648
G1 X64.819 Y64.28 E.19289
G1 X65.239 Y64.28 E.01135
G1 X65.239 Y64.738 E.01236
G1 X60.311 Y64.738 E.13314
G1 X60.311 Y64.534 E.00551
G1 X59.962 Y64.137 E.01427
SET_VELOCITY_LIMIT ACCEL=20000 ACCEL_TO_DECEL=20000 SQUARE_CORNER_VELOCITY=12
G1 X59.954 Y65.095 F36000
SET_VELOCITY_LIMIT ACCEL=15000 ACCEL_TO_DECEL=15000 SQUARE_CORNER_VELOCITY=9
G1 F23081.008
G1 X59.954 Y64.669 E.01152
G1 X55.077 Y59.12 E.19959
G3 X59.57 Y50.017 I4.116 J-3.628 E.35019
G3 X64.545 Y54.297 I-.393 J5.487 E.18997
G1 X65.176 Y57.102 E.07768
G1 X65.176 Y63.923 E.18431
G1 X65.596 Y63.923 E.01135
G1 X65.596 Y65.095 E.03166
G1 X59.994 Y65.095 E.15135
SET_VELOCITY_LIMIT ACCEL=20000 ACCEL_TO_DECEL=20000 SQUARE_CORNER_VELOCITY=12
G1 X59.933 Y65.452 F36000
SET_VELOCITY_LIMIT ACCEL=15000 ACCEL_TO_DECEL=15000 SQUARE_CORNER_VELOCITY=9
G1 F23081.008
G1 X59.933 Y70.352 E.13239
G1 X59.597 Y70.352 E.00907
G1 X59.597 Y64.803 E.14993
G1 X54.806 Y59.352 E.19609
G3 X59.596 Y49.661 I4.388 J-3.861 E.37285
G3 X64.892 Y54.214 I-.415 J5.84 E.2022
G1 X65.533 Y57.062 E.07888
G1 X65.533 Y63.566 E.17573
G1 X65.953 Y63.566 E.01135
G1 X65.953 Y65.452 E.05095
G1 X59.973 Y65.452 E.16157
SET_VELOCITY_LIMIT ACCEL=20000 ACCEL_TO_DECEL=20000 SQUARE_CORNER_VELOCITY=12
G1 X60.29 Y65.809 F36000
SET_VELOCITY_LIMIT ACCEL=10000 ACCEL_TO_DECEL=10000 SQUARE_CORNER_VELOCITY=9
;TYPE:Outer wall
G1 F23081.008
G1 X60.29 Y70.709 E.13239
G1 X59.24 Y70.709 E.02837
G1 X59.24 Y64.938 E.15594
G1 X54.535 Y59.584 E.19258
M73 P1 R10
G1 X54.059 Y58.969 E.021
G3 X59.621 Y49.304 I5.136 J-3.477 E.37448
G3 X65.239 Y54.131 I-.447 J6.204 E.21437
G1 X65.89 Y57.023 E.08008
G1 X65.89 Y63.209 E.16716
G1 X66.31 Y63.209 E.01135
G1 X66.31 Y65.809 E.07025
G1 X60.33 Y65.809 E.16157
SET_VELOCITY_LIMIT ACCEL=20000 ACCEL_TO_DECEL=20000 SQUARE_CORNER_VELOCITY=12
G1 E-.72201 F1800
;WIPE_START
G1 F23081.008
G1 X60.322 Y66.809 E-.07799
;WIPE_END
G1 Z.8 F36000
G1 X60.634 Y64.4 Z.8
G1 Z.4
G1 E.8 F1800
SET_VELOCITY_LIMIT SQUARE_CORNER_VELOCITY=9
;TYPE:Internal solid infill
;WIDTH:0.38292
G1 F24240.464
G1 X64.262 Y64.4 E.09334
SET_VELOCITY_LIMIT SQUARE_CORNER_VELOCITY=12
G1 X64.64 Y64.509 F36000
SET_VELOCITY_LIMIT SQUARE_CORNER_VELOCITY=9
;TYPE:Gap infill
;WIDTH:0.143368
G1 F30000
G1 X65.06 Y64.509 E.00319
SET_VELOCITY_LIMIT SQUARE_CORNER_VELOCITY=12
G1 X64.513 Y56.432 F36000
SET_VELOCITY_LIMIT SQUARE_CORNER_VELOCITY=9
;TYPE:Internal solid infill
;WIDTH:0.405046
G1 F22759.366
G1 X64.513 Y64.098 E.21006
G1 X64.15 Y64.098 E.00992
G1 X64.15 Y55.554 E.2341
G2 X63.788 Y54.047 I-14.354 J2.652 E.04249
G1 X63.788 Y64.098 E.2754
G1 X63.426 Y64.098 E.00992
G1 X63.426 Y53.191 E.29886
G2 X63.064 Y52.63 I-2.619 J1.293 E.01834
G1 X63.064 Y64.098 E.31423
G1 X62.702 Y64.098 E.00992
G1 X62.702 Y52.195 E.32616
G2 X62.34 Y51.845 I-1.582 J1.276 E.01383
G1 X62.34 Y64.098 E.33574
G1 X61.978 Y64.098 E.00992
G1 X61.978 Y51.554 E.34372
G1 X61.616 Y51.328 E.0117
G1 X61.616 Y64.098 E.34993
G1 X61.253 Y64.098 E.00992
G1 X61.253 Y51.136 E.35517
G2 X60.891 Y50.978 I-1.088 J2 E.01084
G1 X60.891 Y64.098 E.3595
G1 X60.529 Y64.098 E.00992
G1 X60.529 Y50.863 E.36266
G1 X60.167 Y50.767 E.01026
G1 X60.167 Y63.91 E.36011
G1 X59.805 Y63.497 E.01505
G1 X59.805 Y50.714 E.35026
G2 X59.443 Y50.676 I-.333 J1.432 E.01
G1 X59.443 Y63.084 E.33998
G1 X59.081 Y62.671 E.01505
G1 X59.081 Y50.673 E.32875
G2 X58.719 Y50.697 I-.087 J1.46 E.00997
G1 X58.719 Y62.258 E.31679
G1 X58.356 Y61.845 E.01505
G1 X58.356 Y50.739 E.30432
G2 X57.994 Y50.821 I.177 J1.618 E.0102
G1 X57.994 Y61.432 E.29075
G1 X57.632 Y61.02 E.01505
G1 X57.632 Y50.926 E.27657
G2 X57.27 Y51.066 I.753 J2.484 E.01065
G1 X57.27 Y60.607 E.26142
G1 X56.908 Y60.194 E.01505
G1 X56.908 Y51.242 E.2453
G1 X56.546 Y51.456 E.01152
G1 X56.546 Y59.781 E.22813
G1 X56.184 Y59.368 E.01505
G1 X56.184 Y51.726 E.20939
G2 X55.822 Y52.049 I1.092 J1.593 E.01332
G1 X55.822 Y58.955 E.18925
G1 X55.459 Y58.542 E.01505
G1 X55.459 Y52.445 E.16708
G2 X55.097 Y52.952 I1.851 J1.704 E.01713
G1 X55.097 Y58.037 E.13933
G3 X54.735 Y57.335 I2.439 J-1.702 E.02171
G1 X54.735 Y53.657 E.10078
G2 X54.373 Y55.348 I4.056 J1.753 E.04769
G1 X54.373 Y56.74 E.03814
; stop printing object cazas_Mini_Fridge_Hinge_Right_3mmFoam_6.5mmsockets_smallertabs v1.step id:15 copy 0
EXCLUDE_OBJECT_END NAME=cazas_Mini_Fridge_Hinge_Right_3mmFoam_6_5mmsockets_smallertabs_v1_step_id_15_copy_0
;LAYER_CHANGE
;Z:0.6
;HEIGHT:0.2
;BEFORE_LAYER_CHANGE
;0.6
G92 E0

G1 E-.72091 F1800
;WIPE_START
G1 F22759.366
G1 X54.373 Y55.74 E-.07909
;WIPE_END
;AFTER_LAYER_CHANGE
;0.6
;_SET_FAN_SPEED_CHANGING_LAYER
; printing object cazas_Mini_Fridge_Hinge_Right_3mmFoam_6.5mmsockets_smallertabs v1.step id:15 copy 0
EXCLUDE_OBJECT_START NAME=cazas_Mini_Fridge_Hinge_Right_3mmFoam_6_5mmsockets_smallertabs_v1_step_id_15_copy_0
SET_VELOCITY_LIMIT SQUARE_CORNER_VELOCITY=12
G1 Z1 F36000
G1 X59.905 Y64.223 Z1
G1 Z.6
G1 E.8 F1800
SET_VELOCITY_LIMIT ACCEL=15000 ACCEL_TO_DECEL=15000 SQUARE_CORNER_VELOCITY=9
;TYPE:Inner wall
;WIDTH:0.4
G1 F23081.008
G1 X55.271 Y58.951 E.18963
G3 X59.301 Y50.262 I3.921 J-3.461 E.32709
G3 X64.294 Y54.355 I-.126 J5.245 E.18789
G1 X64.919 Y57.131 E.07687
G1 X64.919 Y64.28 E.19319
G1 X65.439 Y64.28 E.01405
G1 X65.439 Y64.738 E.01236
G1 X60.211 Y64.738 E.14124
G1 X60.211 Y64.572 E.00449
G1 X59.931 Y64.253 E.01146
SET_VELOCITY_LIMIT ACCEL=20000 ACCEL_TO_DECEL=20000 SQUARE_CORNER_VELOCITY=12
G1 X59.854 Y65.095 F36000
SET_VELOCITY_LIMIT ACCEL=15000 ACCEL_TO_DECEL=15000 SQUARE_CORNER_VELOCITY=9
G1 F23081.008
G1 X59.854 Y64.706 E.0105
G1 X55.001 Y59.184 E.19864
G3 X59.309 Y49.905 I4.191 J-3.694 E.34932
G3 X64.642 Y54.273 I-.135 J5.604 E.20059
G1 X65.276 Y57.091 E.07805
G1 X65.276 Y63.923 E.18461
G1 X65.796 Y63.923 E.01405
G1 X65.796 Y65.095 E.03166
G1 X59.894 Y65.095 E.15946
SET_VELOCITY_LIMIT ACCEL=20000 ACCEL_TO_DECEL=20000 SQUARE_CORNER_VELOCITY=12
G1 X60.033 Y65.452 F36000
SET_VELOCITY_LIMIT ACCEL=15000 ACCEL_TO_DECEL=15000 SQUARE_CORNER_VELOCITY=9
G1 F23081.008
G1 X60.033 Y70.452 E.1351
G1 X59.497 Y70.452 E.01448
G1 X59.497 Y64.841 E.15161
G1 X54.73 Y59.417 E.19511
G1 X54.26 Y58.808 E.02078
G1 X53.875 Y58.149 E.02062
G1 X53.578 Y57.446 E.02062
G3 X53.302 Y54.685 I5.817 J-1.977 E.07562
G1 X53.454 Y53.936 E.02065
G3 X54.168 Y52.312 I6.235 J1.772 E.0481
G1 X54.617 Y51.694 E.02062
G3 X55.942 Y50.513 I4.934 J4.199 E.04812
G1 X56.606 Y50.137 E.02062
G3 X58.303 Y49.613 I2.744 J5.869 E.04812
G3 X59.317 Y49.548 I.887 J5.873 E.02749
G3 X64.989 Y54.191 I-.143 J5.962 E.21329
G1 X65.633 Y57.051 E.07922
G1 X65.633 Y63.566 E.17603
G1 X66.153 Y63.566 E.01405
G1 X66.153 Y65.452 E.05095
G1 X60.073 Y65.452 E.16428
SET_VELOCITY_LIMIT ACCEL=20000 ACCEL_TO_DECEL=20000 SQUARE_CORNER_VELOCITY=12
G1 X60.39 Y65.809 F36000
SET_VELOCITY_LIMIT ACCEL=10000 ACCEL_TO_DECEL=10000 SQUARE_CORNER_VELOCITY=9
;TYPE:Outer wall
G1 F23081.008
G1 X60.39 Y70.809 E.1351
G1 X59.14 Y70.809 E.03377
G1 X59.14 Y64.976 E.15762
G1 X54.459 Y59.65 E.19157
G1 X53.964 Y59.007 E.02192
G1 X53.556 Y58.309 E.02186
G1 X53.241 Y57.563 E.02186
G3 X52.948 Y54.637 I6.167 J-2.096 E.08016
G1 X53.109 Y53.843 E.02189
G3 X53.866 Y52.121 I6.609 J1.879 E.05099
G1 X54.342 Y51.466 E.02186
G3 X55.747 Y50.214 I5.23 J4.452 E.05101
G1 X56.451 Y49.816 E.02186
G3 X58.249 Y49.26 I2.908 J6.222 E.05101
G3 X59.324 Y49.191 I.94 J6.226 E.02914
G3 X65.108 Y53.33 I-.134 J6.298 E.2042
G1 X65.337 Y54.108 E.02192
G1 X65.99 Y57.011 E.0804
G1 X65.99 Y63.209 E.16746
G1 X66.51 Y63.209 E.01405
G1 X66.51 Y65.809 E.07025
G1 X60.43 Y65.809 E.16428
SET_VELOCITY_LIMIT ACCEL=20000 ACCEL_TO_DECEL=20000 SQUARE_CORNER_VELOCITY=12
G1 X59.765 Y65.274 F36000
SET_VELOCITY_LIMIT SQUARE_CORNER_VELOCITY=9
;TYPE:Gap infill
;WIDTH:0.221676
G1 F30000
G1 X59.765 Y70.274 E.06763
SET_VELOCITY_LIMIT SQUARE_CORNER_VELOCITY=12
G1 E-.74 F1800
;WIPE_START
G1 F30000
G1 X59.765 Y69.274 E-.06
;WIPE_END
G1 Z1 F36000
G1 X64.74 Y64.509 Z1
G1 Z.6
G1 E.8 F1800
SET_VELOCITY_LIMIT SQUARE_CORNER_VELOCITY=9
;WIDTH:0.143368
G1 F30000
G1 X65.26 Y64.509 E.00395
SET_VELOCITY_LIMIT SQUARE_CORNER_VELOCITY=12
G1 X61.581 Y51.011 F36000
SET_VELOCITY_LIMIT SQUARE_CORNER_VELOCITY=9
;TYPE:Internal solid infill
;WIDTH:0.405637
G1 F22722.281
G1 X57.166 Y51.011 E.12116
G2 X56.502 Y51.374 I1.071 J2.75 E.02082
G1 X61.893 Y51.374 E.14795
G1 X62.377 Y51.737 E.01661
G1 X56.002 Y51.737 E.17498
G1 X55.627 Y52.099 E.01431
G1 X62.758 Y52.099 E.19572
G3 X63.069 Y52.462 I-1.957 J1.993 E.01313
G1 X55.319 Y52.462 E.21271
G2 X55.058 Y52.825 I1.272 J1.189 E.01229
G1 X63.326 Y52.825 E.22693
G3 X63.534 Y53.187 I-1.583 J1.148 E.0115
G1 X54.839 Y53.187 E.23864
G2 X54.674 Y53.55 I1.32 J.819 E.01097
G1 X63.713 Y53.55 E.24806
G3 X63.852 Y53.913 I-1.618 J.831 E.01069
G1 X54.531 Y53.913 E.25582
G1 X54.425 Y54.276 E.01038
G1 X63.958 Y54.276 E.26166
G3 X64.047 Y54.638 I-4.24 J1.226 E.01025
G1 X54.349 Y54.638 E.26616
G1 X54.292 Y55.001 E.01008
G1 X64.128 Y55.001 E.26997
G1 X64.21 Y55.364 E.0102
G1 X54.277 Y55.364 E.27261
G2 X54.275 Y55.727 I1.402 J.191 E.00998
G1 X64.292 Y55.727 E.27492
G1 X64.373 Y56.089 E.0102
G1 X54.311 Y56.089 E.27616
G2 X54.369 Y56.452 I1.432 J-.04 E.01011
G1 X64.455 Y56.452 E.27683
G1 X64.537 Y56.815 E.0102
G1 X54.453 Y56.815 E.27675
G2 X54.575 Y57.177 I1.465 J-.29 E.01053
G1 X64.615 Y57.177 E.27557
G1 X64.615 Y57.54 E.00995
G1 X54.716 Y57.54 E.27169
G1 X54.907 Y57.903 E.01125
G1 X64.615 Y57.903 E.26644
G1 X64.615 Y58.266 E.00995
G1 X55.135 Y58.266 E.2602
G2 X55.398 Y58.628 I1.828 J-1.051 E.01233
G1 X64.615 Y58.628 E.25296
G1 X64.615 Y58.991 E.00995
G1 X55.717 Y58.991 E.24422
G1 X56.035 Y59.354 E.01325
G1 X64.615 Y59.354 E.23549
G1 X64.615 Y59.716 E.00995
G1 X56.353 Y59.716 E.22675
G1 X56.672 Y60.079 E.01325
