; HEADER_BLOCK_START
; generated by OrcaSlicer 2.3.1 on 2026-02-02 at 17:27:58
; total layer number: 150
; filament_density: 1.04
; filament_diameter: 1.75
; max_z_height: 30.00
; HEADER_BLOCK_END

; THUMBNAIL_BLOCK_START

;
; THUMBNAIL_BLOCK_END

; THUMBNAIL_BLOCK_START

;
; THUMBNAIL_BLOCK_END

; external perimeters extrusion width = 0.40mm
; perimeters extrusion width = 0.40mm
; infill extrusion width = 0.40mm
; solid infill extrusion width = 0.40mm
; top infill extrusion width = 0.40mm
; first layer extrusion width = 0.40mm

; external perimeters extrusion width = 0.40mm
; perimeters extrusion width = 0.40mm
; infill extrusion width = 0.40mm
; solid infill extrusion width = 0.40mm
; top infill extrusion width = 0.40mm
; first layer extrusion width = 0.40mm

; EXECUTABLE_BLOCK_START


; Pre-Processed for Cancel-Object support by preprocess_cancellation v0.2.0
; 1 known objects
EXCLUDE_OBJECT_DEFINE NAME=cazas_Mini_Fridge_Hinge_Right_3mmFoam_6_5mmsockets_smallertabs_v1_step_id_15_copy_0 CENTER=59.990,57.292 POLYGON=[[43.738,49.191],[43.738,70.809],[76.318,70.809],[76.318,49.191]]
M73 P0 R22
;TYPE:Custom
PRINT_START EXTRUDER_TEMP=255 BED_TEMP=105
G90
G21
M83 ; use relative distances for extrusion
; Filament gcode
SET_PRESSURE_ADVANCE ADVANCE=0.04; Override pressure advance value
M106 S0
;LAYER_CHANGE
;Z:0.2
;HEIGHT:0.2
;BEFORE_LAYER_CHANGE
;0.2
G92 E0

G1 E-.8 F1800
;AFTER_LAYER_CHANGE
;0.2
;_SET_FAN_SPEED_CHANGING_LAYER
SET_VELOCITY_LIMIT ACCEL=10000 ACCEL_TO_DECEL=10000
SET_VELOCITY_LIMIT SQUARE_CORNER_VELOCITY=9
; printing object cazas_Mini_Fridge_Hinge_Right_3mmFoam_6.5mmsockets_smallertabs v1.step id:15 copy 0
EXCLUDE_OBJECT_START NAME=cazas_Mini_Fridge_Hinge_Right_3mmFoam_6_5mmsockets_smallertabs_v1_step_id_15_copy_0
G1 Z.6 F36000
G1 X68.98 Y63.39
G1 Z.6
G1 Z.2
G1 E.8 F1800
;TYPE:Inner wall
;WIDTH:0.4
G1 F6000
G1 X64.822 Y58.658 E.17021
G3 X68.762 Y50.725 I3.58 J-3.167 E.30616
G3 X73.065 Y54.459 I-.37 J4.772 E.16487
G1 X73.677 Y57.181 E.07537
G1 X73.677 Y64.588 E.20015
G2 X69.87 Y64.59 I-1.603 J617.922 E.10286
G1 X69.871 Y64.403 E.00504
G1 X69.007 Y63.42 E.03537
G1 X69.169 Y64.145 F36000
G1 F6000
G1 X64.55 Y58.891 E.18903
G3 X68.789 Y50.369 I3.851 J-3.399 E.32887
G3 X73.412 Y54.376 I-.397 J5.128 E.17703
G1 X74.034 Y57.141 E.07657
G1 X74.034 Y64.073 E.18731
G1 X74.454 Y64.073 E.01135
G1 X74.454 Y64.945 E.02355
G2 X69.512 Y64.948 I-1.985 J802.309 E.13353
G1 X69.513 Y64.538 E.01109
G1 X69.195 Y64.176 E.01302
G1 E-.56 F1800
;WIPE_START
G1 F6000
G1 X68.535 Y63.424 E-.24
;WIPE_END
G1 Z.6 F36000
G1 X69.155 Y65.306 Z.6
G1 Z.2
G1 E.8 F1800
G1 F6000
G1 X69.156 Y64.672 E.01714
G1 X64.279 Y59.123 E.19961
G3 X68.816 Y50.012 I4.123 J-3.632 E.35159
G3 X73.76 Y54.293 I-.424 J5.485 E.18919
G1 X74.391 Y57.101 E.07778
G1 X74.391 Y63.716 E.17874
G1 X74.811 Y63.716 E.01135
G1 X74.811 Y65.302 E.04285
G2 X69.195 Y65.306 I-2.158 J918.245 E.15176
G1 X69.152 Y65.663 F36000
;TYPE:Outer wall
G1 F6000
G1 X69.15 Y70.36 E.1269
G1 X68.796 Y70.36 E.00957
G3 X68.799 Y64.806 I1022.646 J-2.385 E.15006
G1 X64.007 Y59.355 E.19609
G3 X68.843 Y49.656 I4.394 J-3.864 E.3743
G3 X74.107 Y54.21 I-.452 J5.841 E.20135
G1 X74.748 Y57.061 E.07898
G1 X74.748 Y63.359 E.17016
G1 X75.168 Y63.359 E.01135
G1 X75.168 Y65.659 E.06214
G2 X69.192 Y65.663 I-2.334 J976.579 E.16148
G1 E-.56 F1800
;WIPE_START
G1 F6000
G1 X69.183 Y66.663 E-.24
;WIPE_END
G1 Z.6 F36000
G1 X69.628 Y50.986 Z.6
G1 Z.2
G1 E.8 F1800
;TYPE:Bottom surface
;WIDTH:0.403305
G1 F12600
G1 X68.164 Y50.986 E.03992
G2 X66.622 Y51.347 I.221 J4.421 E.0434
G1 X70.168 Y51.347 E.09669
G3 X70.838 Y51.707 I-1.091 J2.833 E.02081
G1 X65.956 Y51.707 E.13314
G2 X65.474 Y52.067 I1.185 J2.088 E.01646
G1 X71.33 Y52.067 E.15969
G3 X71.701 Y52.428 I-1.362 J1.775 E.01414
G1 X65.088 Y52.428 E.18033
G2 X64.792 Y52.788 I2.061 J1.999 E.01274
G1 X72.009 Y52.788 E.19681
G3 X72.247 Y53.149 I-1.921 J1.53 E.0118
G1 X64.553 Y53.149 E.2098
G2 X64.355 Y53.509 I1.326 J.964 E.01124
G1 X72.445 Y53.509 E.22059
G1 X72.602 Y53.869 E.01072
G1 X64.191 Y53.869 E.22935
G1 X64.076 Y54.23 E.01032
G1 X72.719 Y54.23 E.23571
G3 X72.82 Y54.59 I-2.891 J1 E.01021
G1 X63.987 Y54.59 E.24085
G2 X63.921 Y54.95 I1.507 J.463 E.01001
G1 X72.901 Y54.95 E.24487
G1 X72.982 Y55.311 E.01007
G1 X63.897 Y55.311 E.24776
G2 X63.901 Y55.671 I1.544 J.162 E.00985
G1 X73.063 Y55.671 E.24985
G1 X73.144 Y56.032 E.01007
G1 X63.924 Y56.032 E.25143
G1 X63.987 Y56.392 E.00998
G1 X73.225 Y56.392 E.25191
G1 X73.306 Y56.752 E.01007
G1 X64.078 Y56.752 E.25165
G2 X64.192 Y57.113 I1.601 J-.308 E.01033
G1 X73.388 Y57.113 E.25075
G3 X73.409 Y57.473 I-.79 J.229 E.00993
G1 X64.352 Y57.473 E.247
G2 X64.547 Y57.834 I4.696 J-2.315 E.01118
G1 X73.409 Y57.834 E.24167
G1 X73.409 Y58.194 E.00983
G1 X64.796 Y58.194 E.23488
G2 X65.096 Y58.554 I1.701 J-1.112 E.01282
G1 X73.409 Y58.554 E.2267
G1 X73.409 Y58.915 E.00983
G1 X65.412 Y58.915 E.21807
G1 X65.728 Y59.275 E.01307
G1 X73.409 Y59.275 E.20945
G1 X73.409 Y59.635 E.00983
G1 X66.045 Y59.635 E.20083
G1 X66.361 Y59.996 E.01307
G1 X73.409 Y59.996 E.19221
G1 X73.409 Y60.356 E.00983
G1 X66.677 Y60.356 E.18359
G1 X66.993 Y60.717 E.01307
G1 X73.409 Y60.717 E.17497
G1 X73.409 Y61.077 E.00983
G1 X67.309 Y61.077 E.16635
G1 X67.625 Y61.437 E.01307
G1 X73.409 Y61.437 E.15773
G1 X73.409 Y61.798 E.00983
G1 X67.941 Y61.798 E.14911
G1 X68.258 Y62.158 E.01307
G1 X73.409 Y62.158 E.14049
G1 X73.409 Y62.519 E.00983
G1 X68.574 Y62.519 E.13187
G1 X68.89 Y62.879 E.01307
G1 X73.409 Y62.879 E.12325
G1 X73.409 Y63.239 E.00983
G1 X69.206 Y63.239 E.11463
G1 X69.522 Y63.6 E.01307
G1 X73.409 Y63.6 E.10601
G1 X73.409 Y63.96 E.00983
G1 X69.838 Y63.96 E.09739
G1 X70.139 Y64.32 E.0128
G1 X73.57 Y64.32 E.09357
; stop printing object cazas_Mini_Fridge_Hinge_Right_3mmFoam_6.5mmsockets_smallertabs v1.step id:15 copy 0
EXCLUDE_OBJECT_END NAME=cazas_Mini_Fridge_Hinge_Right_3mmFoam_6_5mmsockets_smallertabs_v1_step_id_15_copy_0
; printing object cazas_Mini_Fridge_Hinge_Right_3mmFoam_6.5mmsockets_smallertabs v1.step id:15 copy 0
EXCLUDE_OBJECT_START NAME=cazas_Mini_Fridge_Hinge_Right_3mmFoam_6_5mmsockets_smallertabs_v1_step_id_15_copy_0
G1 E-.65714 F1800
;WIPE_START
G1 F12600
G1 X72.57 Y64.32 E-.14286
;WIPE_END
G1 Z.6 F36000
G1 X50.563 Y63.39 Z.6
G1 Z.2
G1 E.8 F1800
;TYPE:Inner wall
;WIDTH:0.4
G1 F6000
G1 X46.405 Y58.658 E.17021
G3 X50.345 Y50.725 I3.58 J-3.167 E.30616
G3 X54.648 Y54.459 I-.37 J4.772 E.16487
G1 X55.26 Y57.181 E.07537
G1 X55.26 Y64.588 E.20015
G2 X51.453 Y64.59 I-1.603 J617.922 E.10286
G1 X51.454 Y64.403 E.00504
G1 X50.59 Y63.42 E.03537
G1 X50.752 Y64.146 F36000
G1 F6000
G1 X46.133 Y58.891 E.18903
G3 X50.372 Y50.369 I3.851 J-3.399 E.32887
G3 X54.995 Y54.376 I-.397 J5.128 E.17703
G1 X55.617 Y57.141 E.07657
G1 X55.617 Y64.073 E.18731
G1 X56.037 Y64.073 E.01135
G1 X56.037 Y64.945 E.02355
G2 X51.095 Y64.948 I-1.985 J802.309 E.13353
G1 X51.096 Y64.538 E.01109
G1 X50.778 Y64.176 E.01302
G1 E-.56 F1800
;WIPE_START
G1 F6000
G1 X50.118 Y63.424 E-.24
;WIPE_END
G1 Z.6 F36000
G1 X50.738 Y65.306 Z.6
G1 Z.2
G1 E.8 F1800
G1 F6000
G1 X50.739 Y64.672 E.01714
G1 X45.862 Y59.123 E.19961
G3 X50.399 Y50.013 I4.123 J-3.632 E.35159
G3 X55.343 Y54.293 I-.424 J5.485 E.18919
G1 X55.974 Y57.101 E.07778
G1 X55.974 Y63.716 E.17874
G1 X56.394 Y63.716 E.01135
G1 X56.394 Y65.302 E.04285
G2 X50.778 Y65.306 I-2.158 J918.245 E.15176
G1 X50.735 Y65.663 F36000
;TYPE:Outer wall
G1 F6000
G1 X50.733 Y70.36 E.1269
G1 X50.379 Y70.36 E.00957
G3 X50.382 Y64.806 I1022.646 J-2.385 E.15006
G1 X45.59 Y59.355 E.19609
G3 X50.426 Y49.656 I4.394 J-3.864 E.3743
G3 X55.69 Y54.21 I-.452 J5.841 E.20135
G1 X56.331 Y57.061 E.07898
G1 X56.331 Y63.359 E.17016
G1 X56.751 Y63.359 E.01135
G1 X56.751 Y65.659 E.06214
G2 X50.775 Y65.663 I-2.334 J976.579 E.16148
G1 E-.56 F1800
;WIPE_START
G1 F6000
G1 X50.766 Y66.663 E-.24
;WIPE_END
G1 Z.6 F36000
G1 X51.211 Y50.986 Z.6
G1 Z.2
G1 E.8 F1800
;TYPE:Bottom surface
;WIDTH:0.403305
G1 F12600
G1 X49.747 Y50.986 E.03992
G2 X48.205 Y51.347 I.221 J4.421 E.0434
G1 X51.751 Y51.347 E.09669
G3 X52.421 Y51.707 I-1.091 J2.833 E.02081
G1 X47.539 Y51.707 E.13314
G2 X47.057 Y52.067 I1.185 J2.088 E.01646
G1 X52.913 Y52.067 E.15969
G3 X53.284 Y52.428 I-1.362 J1.775 E.01414
G1 X46.671 Y52.428 E.18033
G2 X46.375 Y52.788 I2.061 J1.999 E.01274
G1 X53.592 Y52.788 E.19681
G3 X53.83 Y53.149 I-1.921 J1.53 E.0118
G1 X46.136 Y53.149 E.2098
G2 X45.938 Y53.509 I1.326 J.964 E.01124
G1 X54.028 Y53.509 E.22059
G1 X54.185 Y53.869 E.01072
G1 X45.774 Y53.869 E.22935
G1 X45.659 Y54.23 E.01032
G1 X54.302 Y54.23 E.23571
G3 X54.403 Y54.59 I-2.891 J1 E.01021
G1 X45.57 Y54.59 E.24085
G2 X45.504 Y54.95 I1.507 J.463 E.01001
G1 X54.484 Y54.95 E.24487
G1 X54.565 Y55.311 E.01007
G1 X45.48 Y55.311 E.24776
G2 X45.484 Y55.671 I1.544 J.162 E.00985
G1 X54.646 Y55.671 E.24985
G1 X54.727 Y56.032 E.01007
G1 X45.507 Y56.032 E.25143
G1 X45.57 Y56.392 E.00998
G1 X54.808 Y56.392 E.25191
G1 X54.889 Y56.752 E.01007
G1 X45.661 Y56.752 E.25165
G2 X45.775 Y57.113 I1.601 J-.308 E.01033
G1 X54.971 Y57.113 E.25075
G3 X54.992 Y57.473 I-.79 J.229 E.00993
G1 X45.935 Y57.473 E.247
G2 X46.13 Y57.834 I4.696 J-2.315 E.01118
G1 X54.992 Y57.834 E.24167
G1 X54.992 Y58.194 E.00983
G1 X46.379 Y58.194 E.23488
G2 X46.679 Y58.554 I1.701 J-1.112 E.01282
G1 X54.992 Y58.554 E.2267
G1 X54.992 Y58.915 E.00983
G1 X46.995 Y58.915 E.21807
G1 X47.311 Y59.275 E.01307
G1 X54.992 Y59.275 E.20945
G1 X54.992 Y59.635 E.00983
G1 X47.628 Y59.635 E.20083
G1 X47.944 Y59.996 E.01307
G1 X54.992 Y59.996 E.19221
G1 X54.992 Y60.356 E.00983
G1 X48.26 Y60.356 E.18359
G1 X48.576 Y60.717 E.01307
G1 X54.992 Y60.717 E.17497
G1 X54.992 Y61.077 E.00983
G1 X48.892 Y61.077 E.16635
G1 X49.208 Y61.437 E.01307
G1 X54.992 Y61.437 E.15773
G1 X54.992 Y61.798 E.00983
G1 X49.524 Y61.798 E.14911
G1 X49.841 Y62.158 E.01307
G1 X54.992 Y62.158 E.14049
G1 X54.992 Y62.519 E.00983
G1 X50.157 Y62.519 E.13187
G1 X50.473 Y62.879 E.01307
G1 X54.992 Y62.879 E.12325
G1 X54.992 Y63.239 E.00983
G1 X50.789 Y63.239 E.11463
G1 X51.105 Y63.6 E.01307
G1 X54.992 Y63.6 E.10601
G1 X54.992 Y63.96 E.00983
G1 X51.421 Y63.96 E.09739
G1 X51.722 Y64.32 E.0128
G1 X55.153 Y64.32 E.09357
; stop printing object cazas_Mini_Fridge_Hinge_Right_3mmFoam_6.5mmsockets_smallertabs v1.step id:15 copy 0
EXCLUDE_OBJECT_END NAME=cazas_Mini_Fridge_Hinge_Right_3mmFoam_6_5mmsockets_smallertabs_v1_step_id_15_copy_0
;LAYER_CHANGE
;Z:0.4
;HEIGHT:0.2
;BEFORE_LAYER_CHANGE
;0.4
G92 E0

G1 E-.65714 F1800
;WIPE_START
G1 F12600
G1 X54.153 Y64.32 E-.14286
;WIPE_END
;AFTER_LAYER_CHANGE
;0.4
;_SET_FAN_SPEED_CHANGING_LAYER
SET_VELOCITY_LIMIT ACCEL=20000 ACCEL_TO_DECEL=20000
M104 S250 ; set nozzle temperature
M140 S102 ; set bed temperature
; printing object cazas_Mini_Fridge_Hinge_Right_3mmFoam_6.5mmsockets_smallertabs v1.step id:15 copy 0
EXCLUDE_OBJECT_START NAME=cazas_Mini_Fridge_Hinge_Right_3mmFoam_6_5mmsockets_smallertabs_v1_step_id_15_copy_0
SET_VELOCITY_LIMIT SQUARE_CORNER_VELOCITY=12
G1 Z.8 F36000
G1 X69.145 Y64.107 Z.8
G1 Z.4
G1 E.8 F1800
SET_VELOCITY_LIMIT ACCEL=15000 ACCEL_TO_DECEL=15000 SQUARE_CORNER_VELOCITY=9
;TYPE:Inner wall
;WIDTH:0.4
G1 F23081.008
G1 X64.557 Y58.888 E.18775
G3 X68.754 Y50.373 I3.843 J-3.397 E.3276
G3 X73.406 Y54.38 I-.37 J5.134 E.17774
G1 X74.027 Y57.142 E.07648
G1 X74.027 Y64.28 E.19289
G1 X74.447 Y64.28 E.01135
G1 X74.447 Y64.738 E.01236
G1 X69.52 Y64.738 E.13314
G1 X69.52 Y64.534 E.00551
G1 X69.171 Y64.137 E.01427
SET_VELOCITY_LIMIT ACCEL=20000 ACCEL_TO_DECEL=20000 SQUARE_CORNER_VELOCITY=12
G1 X69.163 Y65.095 F36000
SET_VELOCITY_LIMIT ACCEL=15000 ACCEL_TO_DECEL=15000 SQUARE_CORNER_VELOCITY=9
G1 F23081.008
G1 X69.163 Y64.669 E.01152
G1 X64.286 Y59.12 E.19959
G3 X68.779 Y50.017 I4.114 J-3.63 E.35026
G3 X73.753 Y54.297 I-.396 J5.491 E.18994
G1 X74.384 Y57.102 E.07768
G1 X74.384 Y63.923 E.18431
G1 X74.804 Y63.923 E.01135
G1 X74.804 Y65.095 E.03166
G1 X69.203 Y65.095 E.15135
SET_VELOCITY_LIMIT ACCEL=20000 ACCEL_TO_DECEL=20000 SQUARE_CORNER_VELOCITY=12
G1 X69.141 Y65.452 F36000
SET_VELOCITY_LIMIT ACCEL=15000 ACCEL_TO_DECEL=15000 SQUARE_CORNER_VELOCITY=9
G1 F23081.008
G1 X69.141 Y70.352 E.13239
G1 X68.806 Y70.352 E.00907
G1 X68.806 Y64.803 E.14993
G1 X64.015 Y59.352 E.19609
G3 X68.804 Y49.661 I4.385 J-3.862 E.37293
G3 X74.101 Y54.214 I-.422 J5.848 E.20215
G1 X74.741 Y57.062 E.07888
G1 X74.741 Y63.566 E.17573
G1 X75.161 Y63.566 E.01135
G1 X75.161 Y65.452 E.05095
G1 X69.181 Y65.452 E.16157
SET_VELOCITY_LIMIT ACCEL=20000 ACCEL_TO_DECEL=20000 SQUARE_CORNER_VELOCITY=12
G1 X69.498 Y65.809 F36000
SET_VELOCITY_LIMIT ACCEL=10000 ACCEL_TO_DECEL=10000 SQUARE_CORNER_VELOCITY=9
;TYPE:Outer wall
G1 F23081.008
G1 X69.498 Y70.709 E.13239
G1 X68.448 Y70.709 E.02837
G1 X68.448 Y64.938 E.15594
G1 X63.743 Y59.584 E.19258
G3 X68.829 Y49.304 I4.657 J-4.094 E.39559
G3 X74.448 Y54.131 I-.448 J6.206 E.21436
G1 X75.098 Y57.023 E.08008
G1 X75.098 Y63.209 E.16716
G1 X75.518 Y63.209 E.01135
G1 X75.518 Y65.809 E.07025
G1 X69.538 Y65.809 E.16157
SET_VELOCITY_LIMIT ACCEL=20000 ACCEL_TO_DECEL=20000 SQUARE_CORNER_VELOCITY=12
G1 E-.72201 F1800
;WIPE_START
G1 F23081.008
G1 X69.53 Y66.809 E-.07799
;WIPE_END
G1 Z.8 F36000
G1 X69.843 Y64.4 Z.8
G1 Z.4
G1 E.8 F1800
SET_VELOCITY_LIMIT SQUARE_CORNER_VELOCITY=9
;TYPE:Internal solid infill
;WIDTH:0.38292
G1 F24240.464
G1 X73.471 Y64.4 E.09334
SET_VELOCITY_LIMIT SQUARE_CORNER_VELOCITY=12
G1 X73.849 Y64.509 F36000
SET_VELOCITY_LIMIT SQUARE_CORNER_VELOCITY=9
;TYPE:Gap infill
;WIDTH:0.143368
G1 F30000
G1 X74.269 Y64.509 E.00319
SET_VELOCITY_LIMIT SQUARE_CORNER_VELOCITY=12
G1 X73.721 Y56.432 F36000
SET_VELOCITY_LIMIT SQUARE_CORNER_VELOCITY=9
;TYPE:Internal solid infill
;WIDTH:0.405046
G1 F22759.366
G1 X73.721 Y64.098 E.21006
G1 X73.359 Y64.098 E.00992
G1 X73.359 Y55.554 E.2341
G2 X72.997 Y54.047 I-14.354 J2.652 E.04249
G1 X72.997 Y64.098 E.2754
G1 X72.635 Y64.098 E.00992
G1 X72.635 Y53.191 E.29886
G2 X72.273 Y52.63 I-2.619 J1.293 E.01834
G1 X72.273 Y64.098 E.31423
G1 X71.911 Y64.098 E.00992
G1 X71.911 Y52.195 E.32616
G2 X71.548 Y51.845 I-1.582 J1.276 E.01383
G1 X71.548 Y64.098 E.33574
G1 X71.186 Y64.098 E.00992
G1 X71.186 Y51.554 E.34372
G1 X70.824 Y51.328 E.0117
G1 X70.824 Y64.098 E.34993
G1 X70.462 Y64.098 E.00992
G1 X70.462 Y51.136 E.35517
G2 X70.1 Y50.978 I-1.088 J2 E.01084
G1 X70.1 Y64.098 E.3595
G1 X69.738 Y64.098 E.00992
G1 X69.738 Y50.863 E.36266
G1 X69.376 Y50.767 E.01026
G1 X69.376 Y63.91 E.36011
G1 X69.014 Y63.497 E.01505
G1 X69.014 Y50.714 E.35026
G2 X68.651 Y50.676 I-.333 J1.432 E.01
G1 X68.651 Y63.084 E.33998
G1 X68.289 Y62.671 E.01505
G1 X68.289 Y50.673 E.32875
G2 X67.927 Y50.697 I-.087 J1.46 E.00997
G1 X67.927 Y62.258 E.31679
G1 X67.565 Y61.845 E.01505
G1 X67.565 Y50.739 E.30432
G2 X67.203 Y50.821 I.177 J1.618 E.0102
G1 X67.203 Y61.432 E.29075
G1 X66.841 Y61.02 E.01505
G1 X66.841 Y50.926 E.27657
G2 X66.479 Y51.066 I.753 J2.484 E.01065
M73 P1 R22
G1 X66.479 Y60.607 E.26142
G1 X66.117 Y60.194 E.01505
G1 X66.117 Y51.242 E.2453
G1 X65.754 Y51.456 E.01152
G1 X65.754 Y59.781 E.22813
G1 X65.392 Y59.368 E.01505
G1 X65.392 Y51.726 E.20939
G2 X65.03 Y52.049 I1.092 J1.593 E.01332
G1 X65.03 Y58.955 E.18925
G1 X64.668 Y58.542 E.01505
G1 X64.668 Y52.445 E.16708
G2 X64.306 Y52.952 I1.851 J1.704 E.01713
G1 X64.306 Y58.037 E.13933
G3 X63.944 Y57.335 I2.439 J-1.702 E.02171
G1 X63.944 Y53.657 E.10078
G2 X63.582 Y55.348 I4.056 J1.753 E.04769
G1 X63.582 Y56.74 E.03814
; stop printing object cazas_Mini_Fridge_Hinge_Right_3mmFoam_6.5mmsockets_smallertabs v1.step id:15 copy 0
EXCLUDE_OBJECT_END NAME=cazas_Mini_Fridge_Hinge_Right_3mmFoam_6_5mmsockets_smallertabs_v1_step_id_15_copy_0
; printing object cazas_Mini_Fridge_Hinge_Right_3mmFoam_6.5mmsockets_smallertabs v1.step id:15 copy 0
EXCLUDE_OBJECT_START NAME=cazas_Mini_Fridge_Hinge_Right_3mmFoam_6_5mmsockets_smallertabs_v1_step_id_15_copy_0
SET_VELOCITY_LIMIT SQUARE_CORNER_VELOCITY=12
G1 E-.72091 F1800
;WIPE_START
G1 F22759.366
G1 X63.582 Y55.74 E-.07909
;WIPE_END
G1 Z.8 F36000
G1 X50.728 Y64.107 Z.8
G1 Z.4
G1 E.8 F1800
SET_VELOCITY_LIMIT ACCEL=15000 ACCEL_TO_DECEL=15000 SQUARE_CORNER_VELOCITY=9
;TYPE:Inner wall
;WIDTH:0.4
G1 F23081.008
G1 X46.14 Y58.888 E.18775
