; HEADER_BLOCK_START
; generated by OrcaSlicer 2.3.1 on 2025-12-23 at 20:36:35
; total layer number: 100
; filament_density: 1.04
; filament_diameter: 1.75
; max_z_height: 20.08
; HEADER_BLOCK_END

; THUMBNAIL_BLOCK_START

;
; THUMBNAIL_BLOCK_END

; THUMBNAIL_BLOCK_START

;
; THUMBNAIL_BLOCK_END

; external perimeters extrusion width = 0.40mm
; perimeters extrusion width = 0.40mm
; infill extrusion width = 0.40mm
; solid infill extrusion width = 0.40mm
; top infill extrusion width = 0.40mm
; support material extrusion width = 0.40mm
; first layer extrusion width = 0.40mm

; EXECUTABLE_BLOCK_START


; Pre-Processed for Cancel-Object support by preprocess_cancellation v0.2.0
; 1 known objects
EXCLUDE_OBJECT_DEFINE NAME=Connector_28mm_vs_frame_stl_id_15_copy_0 CENTER=57.131,64.988 POLYGON=[[0.17,1.168],[0.17,119.83],[118.967,119.83],[118.967,1.168]]
M73 P0 R21
;TYPE:Custom
PRINT_START EXTRUDER_TEMP=250 BED_TEMP=110
G90
G21
M83 ; use relative distances for extrusion
; Filament gcode
SET_PRESSURE_ADVANCE ADVANCE=0.04; Override pressure advance value
M106 S0
;LAYER_CHANGE
;Z:0.28
;HEIGHT:0.28
;BEFORE_LAYER_CHANGE
;0.28
G92 E0

G1 E-.8 F1800
;AFTER_LAYER_CHANGE
;0.28
;_SET_FAN_SPEED_CHANGING_LAYER
SET_VELOCITY_LIMIT ACCEL=10000 ACCEL_TO_DECEL=10000
SET_VELOCITY_LIMIT SQUARE_CORNER_VELOCITY=9
; printing object Connector 28mm vs frame.stl id:15 copy 0
EXCLUDE_OBJECT_START NAME=Connector_28mm_vs_frame_stl_id_15_copy_0
G1 Z.68 F36000
G1 X56.648 Y94.241
G1 Z.68
M73 P0 R20
G1 Z.28
G1 E.8 F1800
;TYPE:Brim
;WIDTH:0.4
G1 F6000
G1 X56.527 Y94.104 E.0066
G1 X55.649 Y93.061 E.04908
G1 X54.149 Y91.176 E.08673
G1 X52.857 Y89.431 E.07819
G1 X51.908 Y88.056 E.06014
G1 X51.004 Y86.64 E.06051
G1 X50.166 Y85.179 E.06066
G1 X49.534 Y83.91 E.05101
G1 X49.125 Y82.935 E.03807
G1 X47.989 Y79.864 E.11792
G1 X47.767 Y79.359 E.01988
G1 X47.566 Y78.968 E.01582
G1 X46.981 Y78 E.04072
G1 X46.376 Y77.155 E.03742
G1 X45.677 Y76.301 E.03975
G1 X44.71 Y75.272 E.05084
G1 X43.664 Y74.312 E.05112
G1 X42.81 Y73.631 E.03932
G1 X42.118 Y73.144 E.03047
G1 X41.172 Y72.573 E.03978
G1 X40.78 Y72.371 E.01589
G1 X40.241 Y72.136 E.02116
G1 X37.347 Y71.068 E.11106
G1 X36.389 Y70.676 E.03729
G1 X35.657 Y70.332 E.02911
G1 X34.964 Y69.975 E.02808
G1 X33.352 Y69.044 E.06702
G1 X31.827 Y68.06 E.06536
G1 X30.207 Y66.922 E.07128
G1 X28.643 Y65.743 E.07053
G1 X26.633 Y64.119 E.09306
G1 X24.794 Y62.522 E.08767
G1 X23.824 Y61.631 E.04745
G1 X22.738 Y60.588 E.05422
G1 X6.674 Y44.525 E.818
G1 X6.18 Y44.017 E.02549
G1 X5.476 Y43.239 E.0378
G1 X4.961 Y42.626 E.02881
G1 X4.317 Y41.799 E.03775
G1 X3.606 Y40.792 E.04439
G1 X2.946 Y39.751 E.04438
G1 X2.34 Y38.68 E.04431
G1 X1.787 Y37.578 E.04441
G1 X1.293 Y36.453 E.04424
G1 X.854 Y35.299 E.04445
G1 X.476 Y34.128 E.04431
G1 X.17 Y32.986 E.04256
G1 X.17 Y22.032 E.39445
G1 X.512 Y20.798 E.04611
G1 X.982 Y19.439 E.05178
G1 X1.369 Y18.493 E.03679
G1 X1.712 Y17.745 E.02963
G1 X2.177 Y16.836 E.03676
G1 X2.582 Y16.12 E.02965
G1 X3.122 Y15.254 E.03674
G1 X3.468 Y14.744 E.0222
G1 X3.952 Y14.078 E.02965
G1 X4.587 Y13.278 E.03676
G1 X5.127 Y12.655 E.0297
G1 X5.903 Y11.836 E.04061
G1 X14.409 Y3.33 E.43317
G1 X15.044 Y2.765 E.03059
G1 X15.735 Y2.28 E.03042
G1 X16.477 Y1.878 E.03035
G1 X17.563 Y1.47 E.04179
G1 X18.478 Y1.258 E.03383
G1 X19.318 Y1.168 E.0304
G1 X20.162 Y1.176 E.03042
G1 X21 Y1.281 E.03042
G1 X21.821 Y1.482 E.03042
G1 X22.613 Y1.777 E.03045
G1 X23.222 Y2.079 E.02445
G1 X23.983 Y2.557 E.03237
G1 X24.912 Y3.349 E.04395
G1 X25.716 Y4.173 E.04145
G1 X27.079 Y5.657 E.07256
G1 X27.772 Y6.461 E.0382
G1 X28.432 Y7.267 E.03752
G1 X29.28 Y8.37 E.05012
G1 X30.07 Y9.49 E.04935
G1 X30.854 Y10.73 E.05281
G1 X31.182 Y11.304 E.02381
G1 X31.554 Y12.013 E.02883
G1 X32.069 Y13.156 E.04514
G1 X32.294 Y13.751 E.0229
G1 X32.446 Y14.212 E.01749
G1 X32.626 Y14.857 E.02409
G1 X32.746 Y15.399 E.02
G1 X32.879 Y16.283 E.03217
G1 X32.931 Y17.172 E.03206
G1 X32.915 Y17.838 E.02399
G1 X32.86 Y18.429 E.02141
G1 X32.775 Y18.959 E.01931
G1 X32.595 Y19.717 E.02808
G1 X32.364 Y20.408 E.0262
G1 X32.054 Y21.118 E.0279
G1 X31.708 Y21.747 E.02584
G1 X31.185 Y22.509 E.03329
G1 X30.634 Y23.15 E.03046
G1 X30.081 Y23.679 E.02754
G1 X29.347 Y24.248 E.03343
G1 X28.735 Y24.631 E.02599
G1 X28.159 Y24.947 E.02366
G1 X27.636 Y25.297 E.02267
G1 X27.135 Y25.707 E.0233
G1 X26.678 Y26.163 E.02327
G1 X26.266 Y26.663 E.0233
G1 X25.898 Y27.214 E.02387
G1 X25.592 Y27.788 E.02342
G1 X25.353 Y28.367 E.02255
G1 X25.25 Y28.678 E.01179
G1 X25.093 Y29.301 E.02313
G1 X25.037 Y29.623 E.01179
G1 X24.973 Y30.263 E.02315
G1 X24.965 Y30.591 E.0118
G1 X24.973 Y30.926 E.01209
G1 X25.035 Y31.553 E.02267
G1 X25.164 Y32.204 E.0239
G1 X25.347 Y32.807 E.02268
G1 X25.465 Y33.112 E.0118
G1 X25.739 Y33.693 E.02314
G1 X25.9 Y33.979 E.0118
G1 X26.257 Y34.513 E.02313
G1 X26.457 Y34.771 E.01175
G1 X26.901 Y35.26 E.02378
G1 X27.38 Y35.694 E.02328
G1 X27.887 Y36.069 E.02269
G1 X28.174 Y36.251 E.01225
G1 X28.729 Y36.548 E.02269
G1 X29.029 Y36.681 E.01179
G1 X29.635 Y36.898 E.02318
G1 X29.949 Y36.986 E.01175
G1 X30.277 Y37.059 E.01209
G1 X30.9 Y37.151 E.02268
G1 X31.546 Y37.184 E.02329
G1 X32.208 Y37.151 E.02388
G1 X32.832 Y37.059 E.02269
G1 X33.152 Y36.988 E.0118
G1 X33.782 Y36.796 E.02373
G1 X34.364 Y36.555 E.02268
G1 X34.657 Y36.408 E.0118
G1 X35.219 Y36.071 E.0236
G1 X35.486 Y35.882 E.01179
G1 X35.973 Y35.483 E.02268
G1 X36.431 Y35.026 E.0233
G1 X36.852 Y34.513 E.02388
G1 X37.212 Y33.972 E.02343
G1 X37.639 Y33.125 E.03413
G1 X38.058 Y32.42 E.02955
G1 X38.344 Y31.997 E.01837
G1 X38.766 Y31.444 E.02504
G1 X39.347 Y30.792 E.03146
G1 X39.72 Y30.427 E.01878
G1 X40.168 Y30.036 E.02141
G1 X40.928 Y29.475 E.03403
G1 X41.582 Y29.077 E.02755
G1 X42.189 Y28.77 E.02449
G1 X42.711 Y28.55 E.02042
G1 X43.516 Y28.284 E.03053
G1 X44.234 Y28.116 E.02654
G1 X44.86 Y28.02 E.02281
G1 X45.468 Y27.969 E.02195
G1 X45.926 Y27.96 E.01649
G1 X46.532 Y27.986 E.02185
G1 X47.171 Y28.058 E.02316
G1 X47.922 Y28.206 E.02757
G1 X48.77 Y28.457 E.03186
G1 X49.653 Y28.824 E.03441
G1 X50.291 Y29.16 E.02595
G1 X50.879 Y29.533 E.0251
G1 X51.41 Y29.928 E.0238
G1 X51.892 Y30.342 E.02289
G1 X52.592 Y31.034 E.03542
G1 X53.319 Y31.791 E.03781
G1 X54.354 Y32.921 E.05518
G1 X55.712 Y34.494 E.07482
G1 X56.687 Y35.692 E.05562
G1 X57.285 Y36.46 E.03504
G1 X58.248 Y37.758 E.0582
G1 X59.204 Y39.138 E.06046
G1 X60.174 Y40.669 E.06524
G1 X60.912 Y41.974 E.05401
G1 X61.426 Y43.003 E.0414
G1 X61.869 Y44.034 E.04039
G1 X62.149 Y44.814 E.02987
G1 X62.398 Y45.682 E.03251
G1 X63.931 Y51.929 E.23162
G1 X64.038 Y52.24 E.01182
G1 X64.317 Y52.816 E.02306
G1 X64.673 Y53.385 E.02417
G1 X65.098 Y53.942 E.02523
G1 X65.578 Y54.471 E.02572
G1 X66.092 Y54.951 E.02532
G1 X66.753 Y55.466 E.03019
G1 X67.338 Y55.83 E.02479
G1 X67.951 Y56.121 E.02444
G1 X68.233 Y56.213 E.01069
G1 X74.453 Y57.74 E.23061
G1 X75.554 Y58.067 E.04136
G1 X76.623 Y58.482 E.0413
G1 X77.876 Y59.076 E.04994
G1 X79.244 Y59.831 E.05625
G1 X80.354 Y60.513 E.04692
G1 X81.512 Y61.28 E.05001
G1 X82.284 Y61.821 E.03394
G1 X83.335 Y62.593 E.04696
G1 X84.173 Y63.236 E.03805
G1 X85.133 Y64.004 E.04427
G1 X86.145 Y64.848 E.04743
G1 X87.943 Y66.444 E.08658
G1 X89.581 Y68.018 E.08181
G1 X90.233 Y68.705 E.03412
G1 X90.741 Y69.287 E.02778
G1 X91.33 Y70.026 E.03406
G1 X91.735 Y70.584 E.02483
G1 X92.149 Y71.211 E.02702
G1 X92.535 Y71.863 E.02729
G1 X92.781 Y72.326 E.01887
G1 X93.048 Y72.888 E.02243
G1 X93.409 Y73.793 E.03509
G1 X93.702 Y74.774 E.03684
G1 X93.817 Y75.302 E.01945
G1 X93.901 Y75.822 E.01897
G1 X93.972 Y76.587 E.02766
G1 X93.982 Y77.32 E.02641
G1 X93.934 Y78.018 E.02519
G1 X93.856 Y78.581 E.02049
G1 X93.701 Y79.286 E.02598
G1 X93.327 Y80.394 E.04211
G1 X92.837 Y81.381 E.03967
G1 X92.198 Y82.324 E.04104
G1 X91.525 Y83.083 E.03652
G1 X90.676 Y83.822 E.04053
G1 X89.977 Y84.301 E.03051
G1 X89.305 Y84.669 E.02756
G1 X88.205 Y85.167 E.0435
G1 X87.777 Y85.425 E.01798
G1 X87.389 Y85.713 E.01739
G1 X87.019 Y86.047 E.01798
G1 X86.673 Y86.428 E.01853
G1 X86.373 Y86.835 E.01819
G1 X86.016 Y87.465 E.02606
G1 X85.739 Y88.182 E.0277
G1 X85.624 Y88.638 E.01694
G1 X85.574 Y88.933 E.01077
G1 X85.522 Y89.664 E.02639
G1 X85.579 Y90.41 E.02692
G1 X85.677 Y90.897 E.01787
G1 X85.817 Y91.359 E.01739
G1 X86.117 Y92.04 E.02682
G1 X86.518 Y92.676 E.02707
G1 X87.022 Y93.259 E.02775
G1 X87.59 Y93.747 E.02696
G1 X88.202 Y94.134 E.02606
G1 X88.885 Y94.439 E.02696
G1 X89.606 Y94.641 E.02696
G1 X90.349 Y94.734 E.02696
G1 X91.095 Y94.718 E.02685
G1 X91.836 Y94.592 E.02707
G1 X92.545 Y94.359 E.02686
G1 X93.003 Y94.144 E.01823
G1 X93.446 Y93.879 E.01859
G1 X93.85 Y93.578 E.01813
G1 X94.386 Y93.066 E.0267
G1 X94.704 Y92.677 E.0181
G1 X94.981 Y92.261 E.01799
G1 X95.214 Y91.824 E.01783
G1 X95.526 Y91.12 E.02772
G1 X95.974 Y90.316 E.03315
G1 X96.598 Y89.465 E.038
G1 X97.355 Y88.684 E.03916
G1 X98.201 Y88.022 E.0387
G1 X99.165 Y87.463 E.04009
G1 X99.99 Y87.116 E.03225
G1 X100.848 Y86.863 E.03222
G1 X101.636 Y86.718 E.02885
G1 X102.354 Y86.654 E.02594
G1 X102.997 Y86.648 E.02316
G1 X103.576 Y86.685 E.0209
G1 X104.2 Y86.766 E.02263
G1 X105.137 Y86.971 E.03455
G1 X105.746 Y87.154 E.02288
G1 X106.457 Y87.418 E.02731
G1 X107.308 Y87.799 E.03359
G1 X107.953 Y88.134 E.02618
G1 X108.762 Y88.6 E.0336
G1 X109.435 Y89.027 E.02869
G1 X110.538 Y89.789 E.04831
G1 X111.453 Y90.475 E.04117
G1 X112.209 Y91.073 E.03469
G1 X113.642 Y92.279 E.06746
G1 X114.521 Y93.062 E.04237
G1 X115.993 Y94.444 E.07269
G1 X116.767 Y95.205 E.03911
G1 X117.337 Y95.835 E.03059
G1 X117.828 Y96.523 E.03042
G1 X118.235 Y97.261 E.03035
G1 X118.652 Y98.344 E.04179
G1 X118.871 Y99.257 E.03383
G1 X118.967 Y100.096 E.0304
G1 X118.966 Y100.941 E.03042
G1 X118.868 Y101.78 E.03042
G1 X118.673 Y102.602 E.03042
G1 X118.385 Y103.396 E.03044
G1 X118.053 Y104.07 E.02703
G1 X117.606 Y104.785 E.03038
G1 X116.807 Y105.731 E.04457
G1 X107.939 Y114.59 E.45136
G1 X107.024 Y115.413 E.04431
G1 X105.895 Y116.31 E.05192
G1 X105.064 Y116.897 E.03666
G1 X104.37 Y117.344 E.02969
G1 X103.49 Y117.859 E.03675
G1 X102.396 Y118.425 E.04433
G1 X101.65 Y118.768 E.02959
G1 X100.509 Y119.229 E.04429
G1 X99.542 Y119.563 E.03685
G1 X98.637 Y119.83 E.03397
G1 X86.607 Y119.83 E.43318
G1 X85.607 Y119.54 E.03748
G1 X84.441 Y119.141 E.0444
G1 X83.692 Y118.849 E.02893
G1 X82.564 Y118.353 E.04438
G1 X81.628 Y117.888 E.03761
G1 X80.551 Y117.289 E.04439
G1 X79.504 Y116.637 E.04441
G1 X78.491 Y115.933 E.04442
G1 X77.853 Y115.449 E.02882
G1 X77.041 Y114.785 E.03778
G1 X76.441 Y114.255 E.02882
G1 X75.68 Y113.531 E.03783
G1 X59.626 Y97.477 E.81752
G1 X58.524 Y96.332 E.05725
G1 X57.617 Y95.345 E.04827
G1 X56.674 Y94.272 E.05143
G1 X56.929 Y94.047 F36000
G1 F6000
G1 X56.785 Y93.883 E.00787
G1 X55.913 Y92.846 E.04878
G1 X54.42 Y90.971 E.08634
G1 X53.134 Y89.235 E.07778
G1 X52.192 Y87.87 E.05971
G1 X51.296 Y86.466 E.05999
G1 X50.467 Y85.021 E.05999
G1 X49.842 Y83.766 E.05048
G1 X49.441 Y82.809 E.03736
G1 X48.309 Y79.749 E.11747
G1 X48.079 Y79.224 E.02062
G1 X47.87 Y78.815 E.01654
G1 X47.274 Y77.827 E.04155
G1 X46.637 Y76.937 E.03941
G1 X45.922 Y76.065 E.0406
G1 X44.96 Y75.042 E.05058
G1 X43.896 Y74.064 E.05204
G1 X43.024 Y73.367 E.04019
G1 X42.29 Y72.851 E.03229
G1 X41.325 Y72.269 E.04061
G1 X40.913 Y72.058 E.01666
G1 X40.356 Y71.816 E.02186
G1 X37.472 Y70.752 E.11069
G1 X36.523 Y70.364 E.03692
G1 X35.809 Y70.028 E.02841
G1 X35.129 Y69.678 E.02755
G1 X33.527 Y68.753 E.0666
G1 X32.015 Y67.776 E.0648
G1 X30.406 Y66.646 E.07082
G1 X28.851 Y65.474 E.07012
G1 X26.852 Y63.859 E.09251
G1 X25.02 Y62.268 E.0874
G1 X24.056 Y61.382 E.04713
G1 X22.975 Y60.344 E.05395
G1 X6.916 Y44.287 E.81773
G1 X6.427 Y43.783 E.02528
G1 X5.731 Y43.014 E.03736
G1 X5.225 Y42.411 E.02835
G1 X4.592 Y41.598 E.03709
G1 X3.89 Y40.605 E.0438
G1 X3.239 Y39.578 E.04377
G1 X2.641 Y38.522 E.04369
G1 X2.096 Y37.435 E.04379
G1 X1.608 Y36.326 E.04362
G1 X1.175 Y35.189 E.04382
G1 X.802 Y34.034 E.04369
G1 X.513 Y32.955 E.04025
G1 X.51 Y22.092 E.39114
G1 X.838 Y20.896 E.04466
G1 X1.301 Y19.556 E.05105
G1 X1.68 Y18.63 E.03601
G1 X2.017 Y17.895 E.02911
G1 X2.475 Y16.999 E.03624
G1 X2.874 Y16.295 E.02913
G1 X3.406 Y15.441 E.03625
G1 X3.747 Y14.937 E.02189
G1 X4.224 Y14.282 E.0292
G1 X4.85 Y13.494 E.03624
G1 X5.381 Y12.881 E.02917
G1 X6.147 Y12.073 E.04014
G1 X14.641 Y3.579 E.4325
G1 X15.26 Y3.028 E.02985
G1 X15.92 Y2.566 E.029
G1 X16.624 Y2.186 E.02884
G1 X17.655 Y1.799 E.03965
G1 X18.529 Y1.595 E.0323
G1 X19.328 Y1.509 E.02895
G1 X20.134 Y1.516 E.029
G1 X20.933 Y1.615 E.029
G1 X21.726 Y1.81 E.02942
G1 X22.473 Y2.087 E.0287
G1 X23.051 Y2.373 E.0232
G1 X23.775 Y2.828 E.03079
G1 X24.683 Y3.601 E.04294
G1 X25.471 Y4.407 E.04059
G1 X26.827 Y5.884 E.07218
G1 X27.51 Y6.678 E.03775
G1 X28.165 Y7.477 E.03717
G1 X29.005 Y8.57 E.04967
G1 X29.789 Y9.681 E.04896
G1 X30.565 Y10.909 E.05229
G1 X31.247 Y12.158 E.05123
G1 X31.754 Y13.283 E.04445
G1 X32.121 Y14.313 E.03938
G1 X32.295 Y14.937 E.02331
G1 X32.411 Y15.458 E.01922
G1 X32.539 Y16.314 E.03116
G1 X32.591 Y17.182 E.03132
G1 X32.575 Y17.821 E.02303
G1 X32.523 Y18.384 E.02034
G1 X32.442 Y18.889 E.01843
G1 X32.269 Y19.62 E.02704
G1 X32.048 Y20.281 E.02511
G1 X31.75 Y20.963 E.0268
G1 X31.421 Y21.564 E.02466
G1 X30.911 Y22.305 E.0324
G1 X30.39 Y22.912 E.02881
G1 X29.862 Y23.417 E.0263
G1 X29.148 Y23.971 E.03255
G1 X28.566 Y24.336 E.02473
G1 X27.967 Y24.667 E.02463
G1 X27.451 Y25.012 E.02234
G1 X26.924 Y25.441 E.02449
G1 X26.441 Y25.919 E.02447
G1 X25.981 Y26.478 E.02606
G1 X25.596 Y27.059 E.02509
G1 X25.277 Y27.663 E.0246
G1 X25.04 Y28.234 E.02225
G1 X24.919 Y28.599 E.01385
G1 X24.764 Y29.215 E.02287
G1 X24.703 Y29.561 E.01268
G1 X24.635 Y30.226 E.02406
G1 X24.625 Y30.579 E.01272
G1 X24.635 Y30.963 E.01383
G1 X24.696 Y31.581 E.02236
G1 X24.841 Y32.307 E.02666
G1 X25.021 Y32.902 E.02237
G1 X25.146 Y33.231 E.01268
G1 X25.43 Y33.835 E.02405
G1 X25.602 Y34.143 E.01269
G1 X25.972 Y34.699 E.02404
G1 X26.187 Y34.977 E.01264
G1 X26.676 Y35.515 E.02622
G1 X27.182 Y35.969 E.02447
G1 X27.681 Y36.34 E.02238
G1 X28.017 Y36.552 E.01432
G1 X28.566 Y36.846 E.02242
G1 X28.887 Y36.99 E.01268
G1 X29.517 Y37.217 E.0241
G1 X29.856 Y37.313 E.01268
G1 X30.231 Y37.396 E.01383
G1 X30.846 Y37.487 E.02238
G1 X31.524 Y37.523 E.02447
G1 X32.263 Y37.487 E.02665
G1 X32.878 Y37.396 E.02238
G1 X33.222 Y37.32 E.01268
G1 X33.917 Y37.108 E.02616
G1 X34.491 Y36.87 E.02238
G1 X34.806 Y36.714 E.01267
G1 X35.418 Y36.347 E.02569
G1 X35.705 Y36.143 E.01267
G1 X36.185 Y35.749 E.02237
G1 X36.697 Y35.238 E.02605
G1 X37.138 Y34.698 E.02509
G1 X37.519 Y34.119 E.02494
G1 X37.935 Y33.292 E.03336
G1 X38.347 Y32.6 E.029
G1 X38.622 Y32.194 E.01766
G1 X39.026 Y31.664 E.02398
G1 X39.591 Y31.029 E.0306
G1 X39.953 Y30.674 E.01825
G1 X40.378 Y30.304 E.0203
G1 X41.114 Y29.76 E.03297
G1 X41.743 Y29.376 E.02654
G1 X42.335 Y29.077 E.02385
G1 X42.835 Y28.867 E.01953
G1 X43.604 Y28.613 E.02919
G1 X44.303 Y28.449 E.02583
G1 X44.897 Y28.358 E.02164
G1 X45.482 Y28.309 E.02115
G1 X45.925 Y28.3 E.01595
G1 X46.509 Y28.325 E.02105
G1 X47.123 Y28.395 E.02225
G1 X47.836 Y28.535 E.02618
G1 X48.662 Y28.78 E.031
G1 X49.512 Y29.134 E.03318
G1 X50.117 Y29.452 E.02459
G1 X50.683 Y29.811 E.02417
G1 X51.194 Y30.191 E.02293
G1 X51.659 Y30.59 E.02203
G1 X52.35 Y31.273 E.03501
G1 X53.071 Y32.025 E.0375
G1 X54.099 Y33.146 E.05477
G1 X55.451 Y34.711 E.07446
G1 X57.013 Y36.664 E.09004
G1 X57.971 Y37.955 E.05789
G1 X58.922 Y39.328 E.06015
G1 X59.883 Y40.846 E.0647
G1 X60.611 Y42.132 E.0532
G1 X61.116 Y43.143 E.04072
G1 X61.551 Y44.155 E.03966
G1 X61.824 Y44.915 E.02908
G1 X62.07 Y45.771 E.03206
G1 X63.6 Y52.006 E.23116
G1 X63.714 Y52.345 E.01287
G1 X64.009 Y52.959 E.02455
G1 X64.382 Y53.561 E.02551
G1 X64.826 Y54.145 E.0264
G1 X65.323 Y54.696 E.02672
G1 X65.887 Y55.222 E.02775
G1 X66.578 Y55.757 E.03148
G1 X67.153 Y56.115 E.0244
G1 X67.8 Y56.425 E.02583
G1 X68.156 Y56.544 E.01352
G1 X74.361 Y58.067 E.23008
G1 X75.447 Y58.39 E.0408
G1 X76.492 Y58.796 E.04034
G1 X77.719 Y59.377 E.04887
G1 X79.071 Y60.123 E.05561
G1 X80.173 Y60.8 E.04657
G1 X81.319 Y61.56 E.04953
G1 X82.085 Y62.097 E.03366
G1 X83.964 Y63.505 E.08456
G1 X84.919 Y64.268 E.04402
G1 X85.922 Y65.104 E.04702
G1 X87.714 Y66.695 E.08628
G1 X89.341 Y68.26 E.08129
