; HEADER_BLOCK_START
; generated by OrcaSlicer 2.3.1 on 2025-12-23 at 20:43:29
; total layer number: 100
; filament_density: 1.04
; filament_diameter: 1.75
; max_z_height: 20.08
; HEADER_BLOCK_END

; THUMBNAIL_BLOCK_START

;
; THUMBNAIL_BLOCK_END

; THUMBNAIL_BLOCK_START

;
; THUMBNAIL_BLOCK_END

; external perimeters extrusion width = 0.40mm
; perimeters extrusion width = 0.40mm
; infill extrusion width = 0.40mm
; solid infill extrusion width = 0.40mm
; top infill extrusion width = 0.40mm
; support material extrusion width = 0.40mm
; first layer extrusion width = 0.40mm

; EXECUTABLE_BLOCK_START


; Pre-Processed for Cancel-Object support by preprocess_cancellation v0.2.0
; 1 known objects
EXCLUDE_OBJECT_DEFINE NAME=Connector_28mm_vs_frame_stl_id_15_copy_0 CENTER=57.692,66.228 POLYGON=[[8.994,3.914],[8.994,115.062],[115.018,115.062],[115.018,3.914]]
M73 P0 R19
;TYPE:Custom
PRINT_START EXTRUDER_TEMP=250 BED_TEMP=110
G90
G21
M83 ; use relative distances for extrusion
; Filament gcode
SET_PRESSURE_ADVANCE ADVANCE=0.04; Override pressure advance value
M106 S0
;LAYER_CHANGE
;Z:0.28
;HEIGHT:0.28
;BEFORE_LAYER_CHANGE
;0.28
G92 E0

G1 E-.8 F1800
;AFTER_LAYER_CHANGE
;0.28
;_SET_FAN_SPEED_CHANGING_LAYER
SET_VELOCITY_LIMIT ACCEL=10000 ACCEL_TO_DECEL=10000
SET_VELOCITY_LIMIT SQUARE_CORNER_VELOCITY=9
; printing object Connector 28mm vs frame.stl id:15 copy 0
EXCLUDE_OBJECT_START NAME=Connector_28mm_vs_frame_stl_id_15_copy_0
G1 Z.68 F36000
G1 X19.074 Y10.661
G1 Z.68
G1 Z.28
G1 E.8 F1800
;TYPE:Brim
;WIDTH:0.4
G1 F6000
G1 X18.67 Y10.135 E.0239
G1 X18.255 Y9.135 E.03899
G1 X18.114 Y8.061 E.03899
G1 X18.255 Y6.988 E.03899
G1 X18.67 Y5.988 E.03899
G1 X19.329 Y5.129 E.03899
G1 X20.188 Y4.47 E.03899
G1 X21.188 Y4.055 E.03899
G1 X22.261 Y3.914 E.03899
G1 X23.335 Y4.055 E.03899
G1 X24.335 Y4.47 E.03899
G1 X25.194 Y5.129 E.03899
G1 X25.853 Y5.988 E.03899
G1 X26.268 Y6.988 E.03899
G1 X26.409 Y8.061 E.03899
G1 X26.268 Y9.135 E.03899
G1 X25.853 Y10.135 E.03899
G1 X25.194 Y10.994 E.03899
G1 X25.051 Y11.104 E.00649
G1 X24.244 Y10.072 E.04717
G1 X23.652 Y9.363 E.03327
G1 X22.604 Y8.181 E.05687
G1 X22.349 Y7.916 E.01324
G1 X22.302 Y7.887 E.002
G1 X22.173 Y7.868 E.00469
G1 X22.004 Y7.932 E.00649
G1 X19.103 Y10.634 E.14277
G1 X19.103 Y10.106 F36000
G1 F6000
G1 X19.047 Y10.069 E.0024
G1 X18.961 Y9.951 E.00524
G1 X18.592 Y9.058 E.0348
G1 X18.459 Y8.075 E.03575
G1 X18.592 Y7.064 E.0367
G1 X18.975 Y6.148 E.03575
G1 X19.582 Y5.363 E.03575
G1 X20.372 Y4.761 E.03575
G1 X21.29 Y4.385 E.03575
G1 X22.248 Y4.258 E.0348
G1 X23.233 Y4.385 E.03575
G1 X24.174 Y4.775 E.0367
G1 X24.96 Y5.382 E.03575
G1 X25.561 Y6.171 E.03575
G1 X25.938 Y7.09 E.03575
G1 X26.064 Y8.075 E.03575
G1 X25.931 Y9.058 E.03575
G1 X25.548 Y9.974 E.03575
G1 X25.158 Y10.482 E.02305
G1 X25.069 Y10.522 E.00352
G1 X24.997 Y10.483 E.00294
G1 X24.504 Y9.852 E.02882
G1 X23.913 Y9.146 E.03316
G1 X22.849 Y7.946 E.05778
G1 X22.52 Y7.624 E.01656
G1 X22.34 Y7.549 E.00704
G1 X22.236 Y7.533 E.00377
G1 X22.04 Y7.555 E.00711
G1 X21.893 Y7.61 E.00567
G1 X21.765 Y7.69 E.00541
G1 X19.198 Y10.081 E.12634
G1 X19.142 Y10.096 E.00208
G1 X19.205 Y9.545 F36000
G1 F6000
G1 X19.137 Y9.486 E.00328
G1 X18.928 Y8.981 E.01966
G1 X18.803 Y8.087 E.0325
G1 X18.921 Y7.167 E.03341
G1 X19.266 Y6.333 E.03249
G1 X19.815 Y5.617 E.03251
G1 X20.531 Y5.067 E.03251
G1 X21.366 Y4.721 E.03254
G1 X22.236 Y4.603 E.0316
G1 X23.131 Y4.714 E.0325
G1 X23.99 Y5.066 E.03341
G1 X24.706 Y5.615 E.03249
G1 X25.256 Y6.331 E.03251
G1 X25.602 Y7.165 E.03251
G1 X25.72 Y8.06 E.03251
G1 X25.602 Y8.955 E.03251
G1 X25.257 Y9.79 E.03254
G1 X25.156 Y9.927 E.00612
G1 X25.066 Y9.967 E.00352
G1 X24.996 Y9.93 E.00286
G1 X24.175 Y8.929 E.04662
G1 X23.084 Y7.7 E.05916
G1 X22.765 Y7.388 E.01608
G1 X22.641 Y7.306 E.00532
G1 X22.479 Y7.239 E.00635
G1 X22.294 Y7.199 E.0068
G1 X21.915 Y7.239 E.01373
G1 X21.708 Y7.325 E.00808
G1 X21.527 Y7.447 E.00783
G1 X19.3 Y9.521 E.1096
G1 X19.244 Y9.536 E.00208
G1 X19.332 Y8.963 F36000
G1 F6000
G1 X19.256 Y8.878 E.00409
G1 X19.148 Y8.099 E.02832
G1 X19.251 Y7.269 E.03013
G1 X19.558 Y6.517 E.02924
G1 X20.05 Y5.87 E.02927
G1 X20.692 Y5.372 E.02927
G1 X21.443 Y5.057 E.02933
G1 X22.224 Y4.948 E.02841
G1 X23.031 Y5.044 E.02924
G1 X23.83 Y5.372 E.03109
G1 X24.472 Y5.868 E.02923
G1 X24.964 Y6.515 E.02927
G1 X25.265 Y7.242 E.02832
G1 X25.375 Y8.047 E.02927
G1 X25.273 Y8.853 E.02927
G1 X25.099 Y9.282 E.01667
G1 X25.023 Y9.344 E.00352
G1 X24.926 Y9.308 E.00372
G1 X24.428 Y8.702 E.02826
G1 X23.34 Y7.477 E.05897
G1 X23.009 Y7.152 E.01672
G1 X22.764 Y6.989 E.01059
G1 X22.542 Y6.905 E.00855
G1 X22.373 Y6.868 E.00623
G1 X22.251 Y6.862 E.00441
G1 X21.887 Y6.9 E.01317
G1 X21.777 Y6.928 E.0041
G1 X21.584 Y7.009 E.0075
G1 X21.344 Y7.161 E.01026
G1 X19.427 Y8.939 E.09414
G1 X19.371 Y8.953 E.00208
G1 X19.579 Y8.27 F36000
G1 F6000
G1 X19.503 Y8.185 E.00409
G1 X19.493 Y8.083 E.0037
G1 X19.588 Y7.343 E.02689
G1 X19.864 Y6.676 E.02597
G1 X20.304 Y6.103 E.02603
G1 X20.877 Y5.663 E.02603
G1 X21.522 Y5.392 E.02516
G1 X22.215 Y5.292 E.02521
G1 X22.931 Y5.375 E.02596
G1 X23.669 Y5.677 E.02874
G1 X24.237 Y6.12 E.02592
G1 X24.659 Y6.675 E.02511
G1 X24.929 Y7.319 E.02513
G1 X25.03 Y8.035 E.02605
G1 X24.968 Y8.553 E.01878
G1 X24.911 Y8.632 E.00352
G1 X24.791 Y8.608 E.00442
G1 X23.597 Y7.254 E.065
G1 X23.255 Y6.916 E.0173
G1 X22.876 Y6.668 E.0163
G1 X22.607 Y6.571 E.01028
G1 X22.386 Y6.529 E.00813
G1 X22.209 Y6.524 E.00635
G1 X21.797 Y6.572 E.01493
G1 X21.641 Y6.617 E.00587
G1 X21.397 Y6.725 E.00958
G1 X21.106 Y6.917 E.01257
G1 X19.674 Y8.246 E.07036
G1 X19.618 Y8.26 E.00208
G1 E-.56 F1800
;WIPE_START
G1 F6000
G1 X19.503 Y8.185 E-.03279
G1 X19.493 Y8.083 E-.02469
G1 X19.588 Y7.343 E-.17919
G1 X19.593 Y7.33 E-.00332
;WIPE_END
G1 Z.68 F36000
G1 X20.083 Y7.339 Z.68
G1 Z.28
G1 E.8 F1800
G1 F6000
G1 X20.011 Y7.272 E.00352
G1 X20.014 Y7.201 E.00255
G1 X20.155 Y6.86 E.0133
G1 X20.538 Y6.356 E.02279
G1 X21.061 Y5.954 E.02376
G1 X21.626 Y5.721 E.022
G1 X22.206 Y5.637 E.02111
G1 X22.831 Y5.705 E.02264
G1 X23.484 Y5.969 E.02534
G1 X24.001 Y6.372 E.0236
G1 X24.367 Y6.859 E.02195
G1 X24.601 Y7.423 E.02199
G1 X24.63 Y7.628 E.00747
G1 X24.595 Y7.72 E.00352
G1 X24.5 Y7.74 E.00352
G1 X24.452 Y7.71 E.00202
G1 X23.854 Y7.032 E.03255
G1 X23.434 Y6.627 E.02103
G1 X22.982 Y6.346 E.01915
G1 X22.665 Y6.236 E.01209
G1 X22.388 Y6.189 E.01012
G1 X22.164 Y6.188 E.00805
G1 X21.765 Y6.234 E.01446
G1 X21.553 Y6.288 E.0079
G1 X21.266 Y6.411 E.01122
G1 X20.869 Y6.674 E.01716
G1 X20.178 Y7.315 E.03396
G1 X20.121 Y7.329 E.00208
G1 E-.56 F1800
;WIPE_START
G1 F6000
G1 X20.011 Y7.272 E-.02978
G1 X20.014 Y7.201 E-.01701
G1 X20.155 Y6.86 E-.08867
G1 X20.419 Y6.513 E-.10454
;WIPE_END
G1 Z.68 F36000
G1 X26.455 Y13.113 Z.68
G1 Z.28
G1 E.8 F1800
G1 F6000
G1 X26.777 Y12.98 E.01255
G1 X27.85 Y12.839 E.03899
G1 X28.924 Y12.98 E.03899
G1 X29.924 Y13.394 E.03899
G1 X30.783 Y14.053 E.03899
G1 X31.442 Y14.912 E.03899
G1 X31.856 Y15.913 E.03899
G1 X31.998 Y16.986 E.03899
G1 X31.856 Y18.06 E.03899
G1 X31.442 Y19.06 E.03899
G1 X30.783 Y19.919 E.03899
G1 X29.924 Y20.578 E.03899
G1 X28.924 Y20.992 E.03899
G1 X27.85 Y21.134 E.03899
G1 X26.777 Y20.992 E.03899
G1 X25.776 Y20.578 E.03899
G1 X24.917 Y19.919 E.03899
G1 X24.816 Y19.786 E.00602
G1 X25.522 Y19.255 E.03181
G1 X26.085 Y18.888 E.02421
G1 X26.666 Y18.548 E.02426
G1 X27.549 Y18.083 E.0359
G1 X27.703 Y17.943 E.00751
G1 X27.815 Y17.795 E.00669
G1 X27.965 Y17.443 E.01377
G1 X28.017 Y17.097 E.0126
G1 X28.005 Y16.713 E.01382
G1 X27.934 Y16.288 E.01554
G1 X27.753 Y15.666 E.02332
G1 X27.477 Y14.98 E.02661
G1 X27.113 Y14.241 E.02965
G1 X26.475 Y13.148 E.04559
G1 X27.031 Y13.334 F36000
G1 F6000
G1 X27.109 Y13.279 E.00341
G1 X27.837 Y13.183 E.02644
G1 X28.821 Y13.309 E.03575
G1 X29.763 Y13.699 E.0367
G1 X30.53 Y14.288 E.0348
G1 X31.137 Y15.073 E.03575
G1 X31.527 Y16.015 E.0367
G1 X31.653 Y16.973 E.0348
G1 X31.527 Y17.958 E.03575
G1 X31.137 Y18.899 E.0367
G1 X30.53 Y19.685 E.03575
G1 X29.763 Y20.273 E.0348
G1 X28.821 Y20.663 E.0367
G1 X27.863 Y20.789 E.0348
G1 X26.879 Y20.663 E.03575
G1 X25.937 Y20.273 E.0367
G1 X25.448 Y19.898 E.0222
G1 X25.409 Y19.808 E.00352
G1 X25.449 Y19.735 E.003
G1 X25.714 Y19.536 E.01195
G1 X26.261 Y19.178 E.02353
G1 X26.833 Y18.844 E.02386
G1 X27.698 Y18.389 E.03516
G1 X27.926 Y18.2 E.01067
G1 X28.133 Y17.917 E.01263
G1 X28.302 Y17.488 E.0166
G1 X28.356 Y17.079 E.01486
G1 X28.339 Y16.651 E.01543
G1 X28.27 Y16.237 E.0151
G1 X28.066 Y15.534 E.02637
G1 X27.78 Y14.827 E.02748
G1 X27.42 Y14.094 E.02938
G1 X27.034 Y13.432 E.02762
G1 X27.032 Y13.374 E.00208
G1 X27.582 Y13.604 F36000
G1 F6000
G1 X27.659 Y13.549 E.0034
G1 X27.851 Y13.528 E.00692
G1 X28.72 Y13.639 E.03156
G1 X29.602 Y14.005 E.03439
G1 X30.296 Y14.541 E.03157
G1 X30.832 Y15.234 E.03156
G1 X31.197 Y16.117 E.03439
G1 X31.308 Y16.987 E.03157
G1 X31.197 Y17.856 E.03156
G1 X30.832 Y18.738 E.03438
G1 X30.296 Y19.431 E.03156
G1 X29.602 Y19.968 E.03157
G1 X28.719 Y20.333 E.03441
G1 X27.85 Y20.445 E.03157
G1 X26.98 Y20.333 E.03156
G1 X26.121 Y19.981 E.03344
G1 X26.017 Y19.906 E.00461
G1 X25.978 Y19.816 E.00352
G1 X26.024 Y19.74 E.00322
G1 X26.438 Y19.469 E.01783
G1 X27 Y19.14 E.02346
G1 X27.847 Y18.695 E.03446
G1 X28.135 Y18.467 E.0132
G1 X28.404 Y18.122 E.01575
G1 X28.452 Y18.035 E.00356
G1 X28.614 Y17.623 E.01596
G1 X28.692 Y17.131 E.01794
G1 X28.679 Y16.643 E.01756
G1 X28.606 Y16.187 E.01664
G1 X28.394 Y15.444 E.0278
G1 X28.084 Y14.673 E.02994
G1 X27.726 Y13.947 E.02912
G1 X27.584 Y13.702 E.01022
G1 X27.583 Y13.644 E.00208
G1 X28.17 Y13.972 F36000
G1 F6000
G1 X28.27 Y13.924 E.004
G1 X28.618 Y13.969 E.01263
G1 X29.441 Y14.31 E.03207
G1 X30.043 Y14.775 E.02741
G1 X30.527 Y15.396 E.02832
G1 X30.868 Y16.218 E.03207
G1 X30.964 Y16.974 E.02741
G1 X30.867 Y17.754 E.02832
G1 X30.527 Y18.577 E.03206
G1 X30.043 Y19.197 E.02832
G1 X29.441 Y19.663 E.02741
G1 X28.618 Y20.004 E.03208
G1 X27.837 Y20.1 E.02834
G1 X27.081 Y20.003 E.02743
G1 X26.749 Y19.871 E.01289
G1 X26.687 Y19.795 E.00352
G1 X26.736 Y19.688 E.00422
G1 X27.167 Y19.436 E.018
G1 X27.998 Y18.999 E.03379
G1 X28.337 Y18.741 E.01536
G1 X28.705 Y18.279 E.02124
G1 X28.769 Y18.156 E.00503
G1 X28.951 Y17.667 E.01878
G1 X29.031 Y17.113 E.02015
G1 X29.019 Y16.64 E.01702
G1 X28.943 Y16.139 E.01828
G1 X28.707 Y15.312 E.03094
G1 X28.4 Y14.549 E.02961
G1 X28.166 Y14.07 E.01921
G1 X28.168 Y14.012 E.00208
G1 X28.796 Y14.496 F36000
G1 F6000
G1 X28.918 Y14.461 E.00457
G1 X29.256 Y14.601 E.0132
G1 X29.791 Y15.01 E.02425
G1 X30.222 Y15.557 E.02508
G1 X30.531 Y16.294 E.02876
G1 X30.62 Y16.987 E.02516
G1 X30.53 Y17.679 E.02514
G1 X30.222 Y18.415 E.02872
G1 X29.809 Y18.944 E.02416
G1 X29.28 Y19.358 E.02419
G1 X28.517 Y19.674 E.02974
G1 X27.85 Y19.756 E.02418
G1 X27.715 Y19.742 E.0049
G1 X27.636 Y19.684 E.00352
G1 X27.641 Y19.587 E.00352
G1 X27.68 Y19.551 E.00188
G1 X28.21 Y19.265 E.02168
G1 X28.61 Y18.944 E.01847
G1 X29.01 Y18.429 E.0235
G1 X29.09 Y18.269 E.00644
G1 X29.266 Y17.794 E.01822
G1 X29.367 Y17.169 E.02279
G1 X29.354 Y16.583 E.02112
G1 X29.268 Y16.04 E.01981
G1 X29.036 Y15.224 E.03053
G1 X28.784 Y14.593 E.02448
G1 X28.791 Y14.535 E.00208
G1 E-.56 F1800
;WIPE_START
G1 F6000
G1 X28.918 Y14.461 E-.03529
G1 X29.256 Y14.601 E-.08795
G1 X29.643 Y14.897 E-.11675
;WIPE_END
G1 Z.68 F36000
G1 X29.475 Y15.351 Z.68
G1 Z.28
G1 E.8 F1800
G1 F6000
G1 X29.567 Y15.318 E.00352
G1 X29.631 Y15.356 E.00267
G1 X29.932 Y15.744 E.01768
G1 X30.194 Y16.37 E.02445
G1 X30.276 Y17 E.02286
G1 X30.194 Y17.603 E.02192
G1 X29.931 Y18.229 E.02445
G1 X29.557 Y18.71 E.02194
G1 X29.352 Y18.87 E.00936
G1 X29.256 Y18.886 E.00352
G1 X29.19 Y18.813 E.00352
G1 X29.206 Y18.73 E.00303
G1 X29.318 Y18.573 E.00693
G1 X29.392 Y18.425 E.00597
G1 X29.582 Y17.921 E.01939
G1 X29.701 Y17.232 E.02519
G1 X29.689 Y16.523 E.02554
G1 X29.605 Y15.992 E.01935
G1 X29.452 Y15.446 E.0204
G1 X29.466 Y15.39 E.00208
G1 E-.56 F1800
;WIPE_START
G1 F6000
G1 X29.567 Y15.318 E-.02978
G1 X29.631 Y15.356 E-.01782
G1 X29.932 Y15.744 E-.11787
G1 X30.052 Y16.03 E-.07453
;WIPE_END
G1 Z.68 F36000
G1 X85.405 Y75.664 Z.68
G1 Z.28
G1 E.8 F1800
G1 F6000
G1 X85.461 Y75.64 E.00221
G1 X86.535 Y75.499 E.03899
G1 X87.608 Y75.64 E.03899
G1 X88.608 Y76.055 E.03899
G1 X89.467 Y76.714 E.03899
G1 X90.126 Y77.573 E.03899
G1 X90.541 Y78.573 E.03899
G1 X90.682 Y79.647 E.03899
G1 X90.541 Y80.72 E.03899
G1 X90.126 Y81.72 E.03899
G1 X89.467 Y82.579 E.03899
G1 X88.608 Y83.238 E.03899
G1 X87.608 Y83.653 E.03899
G1 X86.535 Y83.794 E.03899
G1 X85.461 Y83.653 E.03899
G1 X84.461 Y83.238 E.03899
G1 X83.603 Y82.58 E.03896
G1 X83.02 Y81.806 E.03488
G1 X83.802 Y81.275 E.03405
G1 X84.32 Y80.972 E.02161
G1 X84.853 Y80.695 E.02162
G1 X85.398 Y80.444 E.02162
G1 X86.319 Y80.069 E.03579
G1 X86.468 Y79.963 E.0066
G1 X86.649 Y79.776 E.00936
G1 X86.814 Y79.482 E.01212
G1 X86.909 Y79.079 E.01492
G1 X86.901 Y78.629 E.01622
G1 X86.8 Y78.134 E.01817
G1 X86.611 Y77.608 E.02012
G1 X86.393 Y77.149 E.01831
G1 X86 Y76.481 E.0279
G1 X85.672 Y76.008 E.02072
G1 X85.429 Y75.695 E.01427
G1 X86.103 Y75.95 F36000
G1 F6000
G1 X86.183 Y75.888 E.00365
G1 X86.548 Y75.844 E.01323
G1 X87.506 Y75.97 E.0348
G1 X88.448 Y76.36 E.0367
G1 X89.214 Y76.948 E.0348
G1 X89.821 Y77.734 E.03575
G1 X90.211 Y78.675 E.0367
G1 X90.337 Y79.633 E.0348
G1 X90.211 Y80.618 E.03575
G1 X89.821 Y81.559 E.0367
G1 X89.214 Y82.345 E.03575
G1 X88.448 Y82.933 E.0348
G1 X87.506 Y83.323 E.0367
G1 X86.548 Y83.449 E.0348
G1 X85.563 Y83.323 E.03575
G1 X84.622 Y82.933 E.0367
G1 X83.857 Y82.347 E.0347
G1 X83.571 Y81.972 E.01697
G1 X83.556 Y81.876 E.00352
G1 X83.595 Y81.827 E.00224
G1 X83.986 Y81.561 E.01704
G1 X84.487 Y81.269 E.02087
G1 X85 Y81.002 E.02083
G1 X85.534 Y80.756 E.02118
G1 X86.524 Y80.34 E.03867
G1 X86.716 Y80.194 E.00868
G1 X86.95 Y79.933 E.01263
G1 X87.146 Y79.554 E.01535
G1 X87.248 Y79.063 E.01806
G1 X87.232 Y78.551 E.01843
G1 X87.134 Y78.072 E.01761
G1 X86.933 Y77.498 E.02191
G1 X86.702 Y77.007 E.01954
G1 X86.294 Y76.312 E.02901
G1 X86.113 Y76.047 E.01157
G1 X86.107 Y75.99 E.00208
G1 X86.723 Y76.278 F36000
G1 F6000
G1 X86.827 Y76.223 E.00423
G1 X87.404 Y76.299 E.02094
G1 X88.287 Y76.665 E.03441
G1 X88.98 Y77.201 E.03157
G1 X89.516 Y77.895 E.03156
G1 X89.882 Y78.777 E.03439
G1 X89.993 Y79.647 E.03157
G1 X89.882 Y80.516 E.03156
G1 X89.516 Y81.398 E.03438
G1 X88.98 Y82.092 E.03156
G1 X88.287 Y82.628 E.03157
G1 X87.404 Y82.994 E.03441
G1 X86.534 Y83.105 E.03157
G1 X85.665 Y82.994 E.03156
G1 X84.782 Y82.628 E.03439
G1 X84.11 Y82.112 E.0305
G1 X84.06 Y82.052 E.00282
G1 X84.045 Y81.956 E.00352
G1 X84.089 Y81.903 E.00247
G1 X84.648 Y81.568 E.02348
G1 X85.147 Y81.308 E.02027
G1 X86.738 Y80.604 E.06262
G1 X86.974 Y80.416 E.01089
G1 X87.257 Y80.079 E.01584
G1 X87.48 Y79.616 E.01849
G1 X87.579 Y79.143 E.0174
G1 X87.564 Y78.474 E.0241
G1 X87.453 Y77.954 E.01915
G1 X87.256 Y77.391 E.0215
G1 X87.011 Y76.866 E.02083
G1 X86.726 Y76.376 E.02043
G1 X86.724 Y76.318 E.00208
G1 X87.384 Y76.75 F36000
G1 F6000
G1 X87.509 Y76.711 E.00471
G1 X88.102 Y76.956 E.0231
G1 X88.728 Y77.436 E.02838
G1 X89.211 Y78.056 E.02832
G1 X89.552 Y78.879 E.03207
G1 X89.649 Y79.634 E.02741
G1 X89.552 Y80.415 E.02832
G1 X89.211 Y81.237 E.03206
G1 X88.728 Y81.857 E.02832
G1 X88.126 Y82.323 E.02741
G1 X87.302 Y82.664 E.03208
G1 X86.547 Y82.761 E.02741
G1 X85.767 Y82.664 E.02832
G1 X84.943 Y82.323 E.03209
G1 X84.67 Y82.114 E.01239
G1 X84.631 Y82.024 E.00352
G1 X84.684 Y81.943 E.0035
G1 X85.298 Y81.613 E.02509
G1 X86.869 Y80.918 E.06188
G1 X87.239 Y80.628 E.01691
G1 X87.569 Y80.216 E.019
G1 X87.782 Y79.774 E.01766
G1 X87.909 Y79.222 E.02041
G1 X87.903 Y78.475 E.02689
G1 X87.771 Y77.835 E.02352
G1 X87.578 Y77.283 E.02108
G1 X87.378 Y76.848 E.01725
G1 X87.382 Y76.79 E.00208
G1 X88.056 Y77.474 F36000
G1 F6000
G1 X88.147 Y77.437 E.00352
G1 X88.198 Y77.458 E.00197
G1 X88.494 Y77.689 E.01355
G1 X88.906 Y78.218 E.02413
G1 X89.223 Y78.981 E.02973
G1 X89.304 Y79.647 E.02419
G1 X89.222 Y80.313 E.02416
G1 X88.906 Y81.075 E.0297
G1 X88.494 Y81.605 E.02416
G1 X87.964 Y82.018 E.02419
G1 X87.227 Y82.328 E.0288
G1 X86.534 Y82.416 E.02516
G1 X85.868 Y82.334 E.02417
G1 X85.388 Y82.139 E.01863
G1 X85.327 Y82.063 E.00352
G1 X85.385 Y81.952 E.00451
