; HEADER_BLOCK_START
; generated by OrcaSlicer 2.3.1 on 2026-02-08 at 22:01:33
; total layer number: 264
; filament_density: 1.04
; filament_diameter: 1.75
; max_z_height: 52.80
; HEADER_BLOCK_END

; THUMBNAIL_BLOCK_START

;
; THUMBNAIL_BLOCK_END

; THUMBNAIL_BLOCK_START

;
; THUMBNAIL_BLOCK_END

; external perimeters extrusion width = 0.40mm
; perimeters extrusion width = 0.40mm
; infill extrusion width = 0.40mm
; solid infill extrusion width = 0.40mm
; top infill extrusion width = 0.40mm
; first layer extrusion width = 0.40mm

; EXECUTABLE_BLOCK_START


; Pre-Processed for Cancel-Object support by preprocess_cancellation v0.2.0
; 1 known objects
EXCLUDE_OBJECT_DEFINE NAME=Cylinder_id_445581682874844716_copy_0 CENTER=60.810,59.983 POLYGON=[[44.085,44.085],[44.085,75.918],[75.915,75.918],[75.915,44.085]]
M73 P0 R2
;TYPE:Custom
PRINT_START EXTRUDER_TEMP=255 BED_TEMP=105
G90
G21
M83 ; use relative distances for extrusion
; Filament gcode
SET_PRESSURE_ADVANCE ADVANCE=0.04; Override pressure advance value
M106 S0
;LAYER_CHANGE
;Z:0.2
;HEIGHT:0.2
;BEFORE_LAYER_CHANGE
;0.2
G92 E0

G1 E-.8 F1800
;AFTER_LAYER_CHANGE
;0.2
;_SET_FAN_SPEED_CHANGING_LAYER
SET_VELOCITY_LIMIT ACCEL=10000 ACCEL_TO_DECEL=10000
SET_VELOCITY_LIMIT SQUARE_CORNER_VELOCITY=9
; printing object Cylinder id:445581682874844716 copy 0
EXCLUDE_OBJECT_START NAME=Cylinder_id_445581682874844716_copy_0
G1 Z.6 F36000
G1 X44.65 Y55.783
G1 Z.6
G1 Z.2
G1 E.8 F1800
;TYPE:Brim
;WIDTH:0.4
G1 F6000
G1 X44.913 Y54.921 E.02437
G1 X45.175 Y54.201 E.0207
G1 X45.386 Y53.687 E.015
G1 X45.767 Y52.871 E.02434
G1 X46.126 Y52.194 E.02071
G1 X46.59 Y51.422 E.02433
G1 X47.018 Y50.787 E.02068
G1 X47.56 Y50.067 E.02437
G1 X47.914 Y49.639 E.01498
G1 X48.426 Y49.07 E.02069
G1 X49.063 Y48.433 E.02435
G1 X49.632 Y47.92 E.02068
G1 X50.333 Y47.352 E.02437
G1 X50.779 Y47.023 E.01499
G1 X51.414 Y46.595 E.02069
G1 X52.187 Y46.13 E.02436
G1 X52.862 Y45.771 E.02068
G1 X53.679 Y45.39 E.02436
G1 X54.389 Y45.103 E.02067
G1 X55.241 Y44.809 E.02436
G1 X55.977 Y44.598 E.02068
G1 X56.856 Y44.395 E.02437
G1 X57.401 Y44.295 E.01498
G1 X58.16 Y44.188 E.02069
G1 X59.058 Y44.109 E.02437
G1 X59.612 Y44.086 E.01499
G1 X60.378 Y44.085 E.02069
G1 X61.279 Y44.132 E.02437
G1 X61.831 Y44.187 E.01498
G1 X62.589 Y44.293 E.0207
G1 X63.475 Y44.465 E.02437
G1 X64.217 Y44.65 E.02067
G1 X65.08 Y44.913 E.02437
G1 X65.602 Y45.099 E.01497
G1 X66.312 Y45.386 E.02071
G1 X67.13 Y45.767 E.02437
G1 X67.806 Y46.126 E.02069
G1 X68.284 Y46.406 E.01497
G1 X69.041 Y46.898 E.02438
G1 X69.66 Y47.347 E.02067
G1 X70.361 Y47.915 E.02437
G1 X70.93 Y48.426 E.02067
G1 X71.568 Y49.063 E.02436
G1 X72.08 Y49.633 E.02071
G1 X72.647 Y50.332 E.02433
G1 X73.098 Y50.952 E.02071
G1 X73.405 Y51.415 E.01499
G1 X73.87 Y52.187 E.02435
G1 X74.229 Y52.862 E.02068
G1 X74.61 Y53.679 E.02436
G1 X74.897 Y54.389 E.02068
G1 X75.191 Y55.242 E.02437
G1 X75.403 Y55.978 E.02069
G1 X75.533 Y56.516 E.01497
G1 X75.706 Y57.402 E.02437
G1 X75.812 Y58.161 E.02071
G1 X75.867 Y58.713 E.015
G1 X75.914 Y59.613 E.02434
G1 X75.915 Y60.378 E.02068
G1 X75.868 Y61.278 E.02435
G1 X75.788 Y62.04 E.02068
G1 X75.647 Y62.93 E.02436
G1 X75.488 Y63.679 E.02068
G1 X75.255 Y64.55 E.02436
G1 X75.018 Y65.278 E.0207
G1 X74.826 Y65.798 E.01497
G1 X74.473 Y66.628 E.02437
G1 X74.138 Y67.316 E.02068
G1 X73.701 Y68.105 E.02436
G1 X73.295 Y68.755 E.02071
G1 X72.983 Y69.212 E.01497
G1 X72.44 Y69.933 E.02437
G1 X71.948 Y70.52 E.02071
G1 X71.574 Y70.929 E.01497
G1 X70.937 Y71.567 E.02437
G1 X70.368 Y72.08 E.02068
G1 X69.667 Y72.647 E.02436
G1 X69.048 Y73.097 E.02068
G1 X68.292 Y73.589 E.02437
G1 X67.814 Y73.869 E.01497
G1 X67.138 Y74.229 E.02071
G1 X66.321 Y74.61 E.02436
G1 X65.611 Y74.897 E.02068
G1 X64.758 Y75.191 E.02437
G1 X64.227 Y75.348 E.01497
G1 X63.483 Y75.533 E.02071
G1 X62.598 Y75.706 E.02435
G1 X61.84 Y75.812 E.02068
G1 X60.942 Y75.891 E.02435
G1 X60.177 Y75.918 E.02071
G1 X59.622 Y75.915 E.01497
G1 X58.722 Y75.868 E.02437
G1 X57.959 Y75.788 E.0207
G1 X57.411 Y75.707 E.01497
G1 X56.526 Y75.535 E.02437
G1 X55.783 Y75.35 E.02068
G1 X54.92 Y75.087 E.02437
G1 X54.398 Y74.901 E.01497
G1 X53.688 Y74.614 E.0207
G1 X52.871 Y74.233 E.02436
G1 X52.194 Y73.874 E.02071
G1 X51.716 Y73.594 E.01497
G1 X50.959 Y73.102 E.02438
G1 X50.34 Y72.653 E.02067
G1 X49.639 Y72.085 E.02437
G1 X49.07 Y71.574 E.02066
G1 X48.432 Y70.936 E.02437
G1 X48.058 Y70.527 E.01497
G1 X47.566 Y69.94 E.02071
G1 X47.023 Y69.22 E.02435
G1 X46.595 Y68.586 E.02068
G1 X46.13 Y67.813 E.02437
G1 X45.771 Y67.138 E.02067
G1 X45.39 Y66.321 E.02436
G1 X45.102 Y65.61 E.02071
G1 X44.916 Y65.088 E.01497
G1 X44.652 Y64.226 E.02437
G1 X44.466 Y63.482 E.02071
G1 X44.294 Y62.598 E.02433
G1 X44.188 Y61.839 E.02071
G1 X44.133 Y61.287 E.015
M73 P1 R2
G1 X44.086 Y60.387 E.02434
G1 X44.085 Y59.622 E.02068
G1 X44.132 Y58.722 E.02436
G1 X44.212 Y57.959 E.0207
G1 X44.293 Y57.41 E.015
G1 X44.465 Y56.526 E.02435
G1 X44.64 Y55.822 E.0196
G1 X44.987 Y55.908 F36000
G1 F6000
G1 X44.995 Y55.876 E.0009
G1 X45.251 Y55.036 E.02371
G1 X45.507 Y54.332 E.02026
G1 X45.714 Y53.829 E.0147
G1 X46.085 Y53.032 E.02373
G1 X46.436 Y52.372 E.0202
G1 X46.89 Y51.616 E.02382
G1 X47.307 Y50.997 E.02018
G1 X47.839 Y50.29 E.02391
G1 X48.186 Y49.871 E.01469
G1 X48.687 Y49.314 E.02026
G1 X49.307 Y48.694 E.0237
G1 X49.866 Y48.19 E.02033
G1 X50.549 Y47.636 E.02375
G1 X50.987 Y47.314 E.01469
G1 X51.609 Y46.895 E.02026
G1 X52.36 Y46.443 E.0237
G1 X53.019 Y46.092 E.02017
G1 X53.819 Y45.718 E.02385
G1 X54.511 Y45.438 E.02017
G1 X55.346 Y45.15 E.02386
G1 X56.064 Y44.944 E.02017
G1 X56.926 Y44.745 E.02391
G1 X57.456 Y44.647 E.01457
G1 X58.203 Y44.542 E.02038
G1 X59.079 Y44.465 E.02376
G1 X59.622 Y44.443 E.01469
G1 X60.372 Y44.443 E.02025
G1 X61.25 Y44.488 E.02376
G1 X61.791 Y44.542 E.01469
G1 X62.533 Y44.646 E.02026
G1 X63.395 Y44.813 E.02371
G1 X64.124 Y44.995 E.02031
G1 X64.965 Y45.252 E.02375
G1 X65.477 Y45.434 E.01468
G1 X66.172 Y45.715 E.02027
G1 X66.968 Y46.085 E.02371
G1 X67.63 Y46.437 E.02026
G1 X68.099 Y46.712 E.01468
G1 X68.841 Y47.194 E.02392
G1 X69.445 Y47.632 E.02016
G1 X70.132 Y48.188 E.02387
G1 X70.686 Y48.687 E.02016
G1 X71.307 Y49.307 E.0237
G1 X71.811 Y49.867 E.02035
G1 X72.362 Y50.548 E.02367
G1 X72.804 Y51.155 E.02027
G1 X73.105 Y51.608 E.0147
G1 X73.557 Y52.36 E.02373
G1 X73.908 Y53.019 E.02018
G1 X74.282 Y53.819 E.02385
G1 X74.562 Y54.512 E.02017
G1 X74.85 Y55.346 E.02386
G1 X75.057 Y56.067 E.02026
G1 X75.185 Y56.595 E.01468
G1 X75.353 Y57.458 E.02376
G1 X75.457 Y58.201 E.02027
G1 X75.511 Y58.742 E.0147
G1 X75.557 Y59.619 E.02373
G1 X75.557 Y60.366 E.02018
G1 X75.512 Y61.248 E.02385
G1 X75.434 Y61.99 E.02017
G1 X75.296 Y62.862 E.02385
G1 X75.141 Y63.593 E.02017
G1 X74.913 Y64.445 E.02385
G1 X74.682 Y65.159 E.02027
G1 X74.493 Y65.668 E.01468
G1 X74.149 Y66.478 E.02376
G1 X73.82 Y67.154 E.02033
G1 X73.395 Y67.921 E.0237
G1 X72.998 Y68.558 E.02027
G1 X72.694 Y69.002 E.01454
G1 X72.162 Y69.708 E.02389
G1 X71.68 Y70.283 E.02027
G1 X71.314 Y70.685 E.01468
G1 X70.693 Y71.306 E.02376
G1 X70.134 Y71.81 E.02033
G1 X69.448 Y72.366 E.02385
G1 X68.844 Y72.805 E.02017
G1 X68.106 Y73.284 E.02376
G1 X67.638 Y73.559 E.01468
G1 X66.976 Y73.911 E.02027
G1 X66.181 Y74.282 E.0237
G1 X65.489 Y74.562 E.02018
G1 X64.652 Y74.85 E.02391
G1 X64.131 Y75.004 E.01468
G1 X63.403 Y75.185 E.02027
G1 X62.542 Y75.353 E.0237
G1 X61.797 Y75.458 E.02033
G1 X60.923 Y75.534 E.0237
G1 X60.174 Y75.561 E.02027
G1 X59.635 Y75.558 E.01455
G1 X58.752 Y75.512 E.02389
G1 X58.006 Y75.434 E.02027
G1 X57.469 Y75.355 E.01468
G1 X56.606 Y75.187 E.02376
G1 X55.876 Y75.005 E.02033
G1 X55.035 Y74.748 E.02376
G1 X54.523 Y74.566 E.01468
G1 X53.828 Y74.285 E.02027
G1 X53.032 Y73.915 E.0237
G1 X52.37 Y73.563 E.02027
G1 X51.901 Y73.288 E.01468
G1 X51.159 Y72.806 E.02392
G1 X50.555 Y72.368 E.02016
G1 X49.868 Y71.812 E.02387
G1 X49.314 Y71.313 E.02016
G1 X48.689 Y70.688 E.02389
G1 X48.326 Y70.29 E.01455
G1 X47.843 Y69.715 E.02027
G1 X47.315 Y69.015 E.0237
G1 X46.895 Y68.391 E.02033
G1 X46.442 Y67.639 E.02371
G1 X46.092 Y66.981 E.02016
G1 X45.718 Y66.181 E.02385
G1 X45.437 Y65.485 E.02027
G1 X45.254 Y64.974 E.01468
G1 X44.996 Y64.128 E.02391
G1 X44.815 Y63.402 E.02021
G1 X44.647 Y62.542 E.02367
G1 X44.543 Y61.799 E.02027
G1 X44.489 Y61.258 E.01471
G1 X44.443 Y60.381 E.02373
G1 X44.443 Y59.634 E.02018
G1 X44.488 Y58.752 E.02385
G1 X44.566 Y58.006 E.02027
G1 X44.646 Y57.468 E.0147
G1 X44.813 Y56.606 E.02373
G1 X44.977 Y55.947 E.01834
G1 X45.324 Y56.033 F36000
G1 F6000
G1 X45.34 Y55.968 E.00181
G1 X45.589 Y55.152 E.02305
G1 X45.839 Y54.463 E.01982
G1 X46.042 Y53.97 E.01441
G1 X46.404 Y53.194 E.02312
G1 X46.746 Y52.55 E.0197
G1 X47.19 Y51.81 E.02332
G1 X47.596 Y51.207 E.01967
G1 X48.118 Y50.513 E.02344
G1 X48.458 Y50.103 E.01439
G1 X48.949 Y49.558 E.01982
G1 X49.551 Y48.955 E.02304
G1 X50.101 Y48.46 E.01998
G1 X50.766 Y47.921 E.02314
G1 X51.195 Y47.604 E.0144
G1 X51.803 Y47.194 E.01982
G1 X52.534 Y46.755 E.02305
G1 X53.176 Y46.413 E.01967
G1 X53.959 Y46.047 E.02335
G1 X54.634 Y45.774 E.01966
G1 X55.451 Y45.492 E.02335
G1 X56.151 Y45.291 E.01967
G1 X56.996 Y45.095 E.02345
G1 X57.511 Y45 E.01415
G1 X58.246 Y44.897 E.02006
G1 X59.099 Y44.822 E.02314
G1 X59.632 Y44.8 E.0144
G1 X60.365 Y44.8 E.01982
G1 X61.221 Y44.845 E.02314
G1 X61.751 Y44.897 E.01439
G1 X62.477 Y44.999 E.01982
G1 X63.315 Y45.161 E.02306
G1 X64.032 Y45.34 E.01996
G1 X64.851 Y45.59 E.02314
G1 X65.352 Y45.769 E.01438
M73 P2 R2
G1 X66.033 Y46.044 E.01983
G1 X66.806 Y46.404 E.02306
G1 X67.454 Y46.748 E.01982
G1 X67.913 Y47.017 E.01438
G1 X68.641 Y47.49 E.02346
G1 X69.23 Y47.918 E.01966
G1 X69.902 Y48.462 E.02336
G1 X70.442 Y48.949 E.01966
G1 X71.045 Y49.551 E.02304
G1 X71.541 Y50.101 E.02
G1 X72.077 Y50.763 E.02301
G1 X72.509 Y51.357 E.01983
G1 X72.804 Y51.801 E.0144
G1 X73.245 Y52.534 E.02312
G1 X73.587 Y53.177 E.01967
G1 X73.953 Y53.959 E.02334
G1 X74.226 Y54.634 E.01967
G1 X74.508 Y55.451 E.02336
G1 X74.711 Y56.156 E.01982
G1 X74.836 Y56.674 E.01438
G1 X75 Y57.514 E.02314
G1 X75.103 Y58.241 E.01983
G1 X75.155 Y58.772 E.01441
G1 X75.2 Y59.626 E.02311
G1 X75.2 Y60.354 E.01967
G1 X75.156 Y61.217 E.02334
G1 X75.08 Y61.941 E.01967
G1 X74.945 Y62.795 E.02335
G1 X74.795 Y63.507 E.01967
G1 X74.571 Y64.341 E.02335
G1 X74.345 Y65.04 E.01983
G1 X74.16 Y65.539 E.01438
G1 X73.825 Y66.327 E.02314
G1 X73.502 Y66.992 E.01997
G1 X73.088 Y67.738 E.02305
G1 X72.7 Y68.36 E.01983
G1 X72.405 Y68.792 E.01412
G1 X71.884 Y69.484 E.02341
G1 X71.413 Y70.046 E.01983
G1 X71.054 Y70.44 E.01438
G1 X70.449 Y71.045 E.02314
G1 X69.899 Y71.54 E.01998
G1 X69.228 Y72.084 E.02334
G1 X68.639 Y72.512 E.01967
G1 X67.921 Y72.978 E.02314
G1 X67.462 Y73.248 E.01438
G1 X66.814 Y73.592 E.01983
G1 X66.041 Y73.953 E.02304
G1 X65.366 Y74.226 E.01967
G1 X64.546 Y74.509 E.02345
G1 X64.035 Y74.659 E.01438
G1 X63.323 Y74.837 E.01983
G1 X62.486 Y75 E.02304
G1 X61.754 Y75.103 E.01998
G1 X60.904 Y75.178 E.02304
G1 X60.171 Y75.204 E.01983
G1 X59.648 Y75.201 E.01412
G1 X58.783 Y75.156 E.02341
G1 X58.053 Y75.079 E.01983
G1 X57.526 Y75.002 E.01438
G1 X56.686 Y74.839 E.02314
G1 X55.968 Y74.66 E.01997
G1 X55.149 Y74.41 E.02314
G1 X54.648 Y74.231 E.01438
G1 X53.967 Y73.956 E.01983
G1 X53.194 Y73.596 E.02305
G1 X52.546 Y73.252 E.01983
G1 X52.087 Y72.983 E.01438
G1 X51.359 Y72.51 E.02345
G1 X50.77 Y72.082 E.01966
G1 X50.098 Y71.538 E.02336
G1 X49.558 Y71.051 E.01965
G1 X48.945 Y70.439 E.0234
G1 X48.593 Y70.053 E.01412
G1 X48.121 Y69.491 E.01983
G1 X47.608 Y68.81 E.02304
G1 X47.194 Y68.197 E.01997
G1 X46.755 Y67.466 E.02305
G1 X46.413 Y66.823 E.01966
G1 X46.047 Y66.041 E.02334
G1 X45.772 Y65.36 E.01983
G1 X45.593 Y64.859 E.01438
G1 X45.339 Y64.029 E.02344
G1 X45.163 Y63.322 E.0197
G1 X45 Y62.486 E.02302
G1 X44.897 Y61.759 E.01983
G1 X44.845 Y61.228 E.01441
G1 X44.8 Y60.374 E.02311
G1 X44.8 Y59.646 E.01967
G1 X44.844 Y58.783 E.02334
G1 X44.921 Y58.053 E.01983
G1 X44.998 Y57.526 E.01441
G1 X45.161 Y56.686 E.02312
G1 X45.314 Y56.072 E.01708
G1 X45.661 Y56.158 F36000
G1 F6000
G1 X45.685 Y56.061 E.00271
G1 X45.927 Y55.268 E.0224
G1 X46.172 Y54.594 E.01938
G1 X46.371 Y54.111 E.01411
G1 X46.722 Y53.356 E.0225
G1 X47.055 Y52.729 E.01919
G1 X47.49 Y52.004 E.02281
G1 X47.886 Y51.416 E.01916
G1 X48.397 Y50.736 E.02298
G1 X48.73 Y50.334 E.0141
G1 X49.21 Y49.802 E.01938
G1 X49.795 Y49.216 E.02239
G1 X50.335 Y48.729 E.01962
G1 X50.983 Y48.205 E.02252
G1 X51.403 Y47.895 E.0141
G1 X51.997 Y47.494 E.01938
G1 X52.708 Y47.067 E.0224
G1 X53.334 Y46.734 E.01916
G1 X54.099 Y46.376 E.02284
G1 X54.757 Y46.109 E.01916
G1 X55.556 Y45.834 E.02285
G1 X56.238 Y45.637 E.01916
G1 X57.066 Y45.445 E.02298
G1 X57.566 Y45.353 E.01373
G1 X58.29 Y45.252 E.01974
G1 X59.12 Y45.179 E.02253
G1 X59.642 Y45.157 E.0141
G1 X60.353 Y45.157 E.01923
G1 X61.191 Y45.201 E.02268
G1 X61.711 Y45.251 E.0141
G1 X62.421 Y45.352 E.01938
G1 X63.235 Y45.51 E.0224
G1 X63.939 Y45.685 E.01961
G1 X64.736 Y45.928 E.02252
G1 X65.227 Y46.103 E.01409
G1 X65.893 Y46.372 E.01939
G1 X66.644 Y46.723 E.02241
G1 X67.278 Y47.059 E.01938
G1 X67.728 Y47.322 E.01408
G1 X68.441 Y47.786 E.02299
G1 X69.014 Y48.203 E.01915
G1 X69.672 Y48.735 E.02285
G1 X70.198 Y49.21 E.01915
G1 X70.784 Y49.795 E.02239
G1 X71.271 Y50.336 E.01965
G1 X71.792 Y50.979 E.02236
G1 X72.215 Y51.559 E.0194
G1 X72.504 Y51.994 E.01411
G1 X72.933 Y52.708 E.0225
G1 X73.266 Y53.334 E.01917
G1 X73.624 Y54.099 E.02284
G1 X73.891 Y54.757 E.01916
G1 X74.167 Y55.556 E.02285
G1 X74.365 Y56.246 E.01938
G1 X74.488 Y56.752 E.01408
G1 X74.647 Y57.571 E.02253
G1 X74.748 Y58.281 E.01939
G1 X74.799 Y58.801 E.01411
G1 X74.843 Y59.633 E.0225
G1 X74.843 Y60.342 E.01917
G1 X74.8 Y61.186 E.02284
G1 X74.726 Y61.892 E.01916
G1 X74.595 Y62.727 E.02284
G1 X74.448 Y63.421 E.01916
G1 X74.23 Y64.238 E.02284
G1 X74.008 Y64.92 E.01939
G1 X73.827 Y65.409 E.01409
G1 X73.501 Y66.176 E.02253
G1 X73.183 Y66.829 E.01962
G1 X72.782 Y67.554 E.02239
G1 X72.113 Y68.585 E.03321
G1 X71.606 Y69.259 E.02279
G1 X71.145 Y69.81 E.01939
G1 X70.794 Y70.195 E.01409
G1 X70.205 Y70.784 E.02252
G1 X69.665 Y71.27 E.01962
G1 X69.008 Y71.802 E.02284
G1 X68.434 Y72.219 E.01916
G1 X67.735 Y72.673 E.02253
G1 X67.285 Y72.937 E.01409
G1 X66.652 Y73.274 E.01939
M73 P3 R2
G1 X65.901 Y73.624 E.02239
G1 X65.243 Y73.891 E.01917
G1 X64.439 Y74.168 E.02298
G1 X63.939 Y74.315 E.01408
G1 X63.243 Y74.489 E.01939
G1 X62.429 Y74.647 E.02239
G1 X61.71 Y74.748 E.01962
G1 X60.885 Y74.821 E.02239
G1 X59.656 Y74.843 E.03321
G1 X58.814 Y74.8 E.02279
G1 X58.1 Y74.725 E.01939
G1 X57.584 Y74.649 E.01409
G1 X56.766 Y74.491 E.02253
G1 X56.061 Y74.315 E.01962
G1 X55.264 Y74.072 E.02253
G1 X54.773 Y73.897 E.01409
G1 X54.107 Y73.628 E.01939
G1 X53.356 Y73.278 E.02239
G1 X52.722 Y72.941 E.01939
G1 X52.272 Y72.678 E.01408
G1 X51.559 Y72.214 E.02299
G1 X50.986 Y71.797 E.01915
G1 X50.328 Y71.265 E.02286
G1 X49.802 Y70.79 E.01915
G1 X49.205 Y70.194 E.02279
G1 X48.399 Y69.266 E.03321
G1 X47.9 Y68.604 E.02239
G1 X47.494 Y68.003 E.01962
G1 X47.067 Y67.292 E.0224
G1 X46.734 Y66.666 E.01916
G1 X46.376 Y65.901 E.02284
G1 X46.106 Y65.235 E.01939
G1 X45.931 Y64.744 E.01409
G1 X45.683 Y63.931 E.02298
G1 X45.511 Y63.242 E.0192
G1 X45.353 Y62.429 E.02236
G1 X45.252 Y61.719 E.01939
G1 X45.201 Y61.199 E.01411
G1 X45.157 Y60.367 E.0225
G1 X45.157 Y59.658 E.01917
G1 X45.2 Y58.814 E.02284
G1 X45.275 Y58.1 E.01939
G1 X45.351 Y57.583 E.01411
G1 X45.509 Y56.766 E.0225
G1 X45.651 Y56.197 E.01582
G1 X45.998 Y56.284 F36000
G1 F6000
G1 X46.03 Y56.154 E.00362
G1 X46.265 Y55.384 E.02175
G1 X46.699 Y54.252 E.03275
G1 X47.041 Y53.518 E.02189
G1 X47.365 Y52.907 E.01869
G1 X47.79 Y52.199 E.02231
G1 X48.175 Y51.626 E.01866
G1 X48.676 Y50.96 E.02251
G1 X49.001 Y50.566 E.0138
G1 X49.471 Y50.046 E.01894
G1 X50.039 Y49.477 E.02173
G1 X50.569 Y48.999 E.01927
G1 X51.199 Y48.489 E.02191
G1 X52.192 Y47.794 E.03273
G1 X52.881 Y47.379 E.02175
G1 X53.491 Y47.054 E.01866
G1 X54.24 Y46.704 E.02234
G1 X54.879 Y46.445 E.01865
G1 X55.661 Y46.175 E.02234
G1 X56.325 Y45.984 E.01866
G1 X57.136 Y45.796 E.02252
G1 X57.621 Y45.706 E.01332
G1 X58.333 Y45.606 E.01942
G1 X59.141 Y45.535 E.02191
G1 X60.347 Y45.514 E.03259
G1 X61.162 Y45.557 E.02207
