; HEADER_BLOCK_START
; generated by OrcaSlicer 2.3.2-beta2 on 2026-02-28 at 14:50:52
; total layer number: 40
; filament_density: 1.04
; filament_diameter: 1.75
; max_z_height: 8.00
; filament: 1
; HEADER_BLOCK_END

; THUMBNAIL_BLOCK_START

;
; THUMBNAIL_BLOCK_END

; THUMBNAIL_BLOCK_START

;
; THUMBNAIL_BLOCK_END

; external perimeters extrusion width = 0.40mm
; perimeters extrusion width = 0.40mm
; infill extrusion width = 0.40mm
; solid infill extrusion width = 0.40mm
; top infill extrusion width = 0.40mm
; first layer extrusion width = 0.40mm

; external perimeters extrusion width = 0.40mm
; perimeters extrusion width = 0.40mm
; infill extrusion width = 0.40mm
; solid infill extrusion width = 0.40mm
; top infill extrusion width = 0.40mm
; first layer extrusion width = 0.40mm

; external perimeters extrusion width = 0.40mm
; perimeters extrusion width = 0.40mm
; infill extrusion width = 0.40mm
; solid infill extrusion width = 0.40mm
; top infill extrusion width = 0.40mm
; first layer extrusion width = 0.40mm

; external perimeters extrusion width = 0.40mm
; perimeters extrusion width = 0.40mm
; infill extrusion width = 0.40mm
; solid infill extrusion width = 0.40mm
; top infill extrusion width = 0.40mm
; first layer extrusion width = 0.40mm

; external perimeters extrusion width = 0.40mm
; perimeters extrusion width = 0.40mm
; infill extrusion width = 0.40mm
; solid infill extrusion width = 0.40mm
; top infill extrusion width = 0.40mm
; first layer extrusion width = 0.40mm

; external perimeters extrusion width = 0.40mm
; perimeters extrusion width = 0.40mm
; infill extrusion width = 0.40mm
; solid infill extrusion width = 0.40mm
; top infill extrusion width = 0.40mm
; first layer extrusion width = 0.40mm

; external perimeters extrusion width = 0.40mm
; perimeters extrusion width = 0.40mm
; infill extrusion width = 0.40mm
; solid infill extrusion width = 0.40mm
; top infill extrusion width = 0.40mm
; first layer extrusion width = 0.40mm

; external perimeters extrusion width = 0.40mm
; perimeters extrusion width = 0.40mm
; infill extrusion width = 0.40mm
; solid infill extrusion width = 0.40mm
; top infill extrusion width = 0.40mm
; first layer extrusion width = 0.40mm

; external perimeters extrusion width = 0.40mm
; perimeters extrusion width = 0.40mm
; infill extrusion width = 0.40mm
; solid infill extrusion width = 0.40mm
; top infill extrusion width = 0.40mm
; first layer extrusion width = 0.40mm

; external perimeters extrusion width = 0.40mm
; perimeters extrusion width = 0.40mm
; infill extrusion width = 0.40mm
; solid infill extrusion width = 0.40mm
; top infill extrusion width = 0.40mm
; first layer extrusion width = 0.40mm

; external perimeters extrusion width = 0.40mm
; perimeters extrusion width = 0.40mm
; infill extrusion width = 0.40mm
; solid infill extrusion width = 0.40mm
; top infill extrusion width = 0.40mm
; first layer extrusion width = 0.40mm

; external perimeters extrusion width = 0.40mm
; perimeters extrusion width = 0.40mm
; infill extrusion width = 0.40mm
; solid infill extrusion width = 0.40mm
; top infill extrusion width = 0.40mm
; first layer extrusion width = 0.40mm

; external perimeters extrusion width = 0.40mm
; perimeters extrusion width = 0.40mm
; infill extrusion width = 0.40mm
; solid infill extrusion width = 0.40mm
; top infill extrusion width = 0.40mm
; first layer extrusion width = 0.40mm

; external perimeters extrusion width = 0.40mm
; perimeters extrusion width = 0.40mm
; infill extrusion width = 0.40mm
; solid infill extrusion width = 0.40mm
; top infill extrusion width = 0.40mm
; first layer extrusion width = 0.40mm

; external perimeters extrusion width = 0.40mm
; perimeters extrusion width = 0.40mm
; infill extrusion width = 0.40mm
; solid infill extrusion width = 0.40mm
; top infill extrusion width = 0.40mm
; first layer extrusion width = 0.40mm

; EXECUTABLE_BLOCK_START


; Pre-Processed for Cancel-Object support by preprocess_cancellation v0.2.0
; 3 known objects
EXCLUDE_OBJECT_DEFINE NAME=flush_clip_small_stl_id_1142461300904_copy_0 CENTER=73.998,81.935 POLYGON=[[69.7,78.9],[69.7,84.3],[78.3,84.3],[78.3,78.9]]
EXCLUDE_OBJECT_DEFINE NAME=flush_clip_small_stl_id_0_copy_0 CENTER=57.844,60.335 POLYGON=[[41.7,35.7],[41.7,84.3],[78.3,84.3],[78.3,35.7]]
EXCLUDE_OBJECT_DEFINE NAME=flush_clip_small_stl_id_256_copy_0 CENTER=73.998,38.735 POLYGON=[[69.7,35.7],[69.7,41.1],[78.3,41.1],[78.3,35.7]]
M73 P0 R26
;TYPE:Custom
PRINT_START EXTRUDER_TEMP=255 BED_TEMP=105
G90
G21
M83 ; use relative distances for extrusion
; Filament gcode
SET_PRESSURE_ADVANCE ADVANCE=0.04; Override pressure advance value
M106 S0
;LAYER_CHANGE
;Z:0.2
;HEIGHT:0.2
;BEFORE_LAYER_CHANGE
;0.2
G92 E0

G1 E-.8 F1800
;AFTER_LAYER_CHANGE
;0.2
;_SET_FAN_SPEED_CHANGING_LAYER
SET_VELOCITY_LIMIT ACCEL=10000 ACCEL_TO_DECEL=10000
SET_VELOCITY_LIMIT SQUARE_CORNER_VELOCITY=9
; printing object flush_clip_small.stl id:1142461300904 copy 0
EXCLUDE_OBJECT_START NAME=flush_clip_small_stl_id_1142461300904_copy_0
G1 Z.6 F36000
G1 X71.493 Y81.119
G1 Z.6
G1 Z.2
G1 E.8 F1800
;TYPE:Inner wall
;WIDTH:0.4
G1 F6000
G3 X70.569 Y80.805 I2.868 J-9.951 E.02639
G1 X71.336 Y79.515 E.04056
G1 X71.493 Y79.558 E.0044
G1 X71.493 Y81.079 E.04109
G1 E-.56 F1800
;WIPE_START
G1 F6000
G1 X70.569 Y80.805 E-.23139
G1 X70.587 Y80.774 E-.00861
;WIPE_END
G1 Z.6 F36000
G1 X76.506 Y81.119 Z.6
G1 Z.2
G1 E.8 F1800
G1 F6000
G1 X76.507 Y79.557 E.04222
G1 X76.664 Y79.514 E.0044
G1 X77.372 Y80.694 E.03721
G1 X77.431 Y80.805 E.00338
G3 X76.544 Y81.108 I-3.786 J-9.613 E.02535
G1 E-.56 F1800
;WIPE_START
G1 F6000
G1 X76.52 Y80.109 E-.24
;WIPE_END
G1 Z.6 F36000
G1 X76.818 Y83.921 Z.6
G1 Z.2
G1 E.8 F1800
;TYPE:Outer wall
G1 F6000
G1 X77.704 Y83.921 E.02394
G3 X78.121 Y84.028 I-.217 J1.73 E.01168
G1 X78.133 Y84.042 E.00049
G3 X78.045 Y84.199 I-.083 J.057 E.00605
G3 X77.142 Y84.279 I-.674 J-2.498 E.02462
G3 X76.176 Y84.201 I.973 J-18.197 E.02617
G2 X75.194 Y84.271 I-.03 J6.507 E.02665
G3 X72.807 Y84.272 I-1.219 J-110.254 E.06449
G2 X71.331 Y84.247 I-.828 J5.401 E.04
G3 X70.4 Y84.279 I-.702 J-6.981 E.02519
G1 X69.955 Y84.199 E.01221
G3 X69.938 Y84.005 I-.011 J-.097 E.00843
G1 X70.296 Y83.921 E.00993
G1 X71.158 Y83.921 E.02329
G1 X71.223 Y83.815 E.00336
G1 X71.322 Y83.809 E.00269
G3 X71.343 Y83.059 I2.993 J-.29 E.0203
G2 X71.35 Y81.448 I-57.434 J-1.059 E.04355
G3 X70.517 Y81.168 I2.554 J-8.97 E.02374
G3 X70.317 Y80.518 I.188 J-.414 E.02076
G1 X71.063 Y79.276 E.03914
G3 X71.461 Y79.05 I.394 J.231 E.01296
G1 X71.85 Y79.05 E.01051
G1 X71.85 Y81.967 E.07882
G1 X71.854 Y82.915 E.02562
G2 X72.854 Y83.916 I1.016 J-.016 E.04229
G1 X75.073 Y83.92 E.05994
G2 X76.143 Y82.993 I.048 J-1.026 E.04221
G2 X76.15 Y79.05 I-237.451 J-2.378 E.10654
G3 X76.672 Y79.068 I.201 J1.747 E.01416
G3 X76.937 Y79.276 I-.144 J.458 E.0093
G1 X77.683 Y80.518 E.03914
G3 X77.435 Y81.186 I-.384 J.238 E.02217
G1 X76.65 Y81.448 E.02237
G2 X76.693 Y83.507 I18.852 J.639 E.05567
G1 X76.689 Y83.76 E.00686
G1 X76.757 Y83.763 E.00184
G1 X76.803 Y83.884 E.0035
G1 X76.511 Y83.708 F36000
;TYPE:Gap infill
;WIDTH:0.272322
G1 F6000
G1 X75.629 Y84.044 E.01638
G1 X75.683 Y84.039 F36000
;WIDTH:0.450283
G1 F6000
G1 X76.512 Y83.674 E.0279
G1 X76.475 Y82.792 F36000
;WIDTH:0.371518
G1 F6000
G3 X76.239 Y84.028 I-20.866 J-3.342 E.03129
G1 X76.2 Y84.024 F36000
;WIDTH:0.428002
G1 F6000
G1 X76.479 Y83.071 E.02894
G1 X76.385 Y83.263 F36000
;WIDTH:0.257473
G1 F6000
G1 X76.387 Y83.242 E.00034
;WIDTH:0.231534
G1 X76.395 Y83.069 E.00247
;WIDTH:0.191889
G1 X76.399 Y83.024 E.00051
G3 X76.399 Y81.343 I803.926 J-.834 E.01894
G1 E-.56 F1800
;WIPE_START
G1 F6000
G1 X76.399 Y82.343 E-.24
;WIPE_END
G1 Z.6 F36000
G1 X76.328 Y79.323 Z.6
G1 Z.2
G1 E.8 F1800
;WIDTH:0.16593
G1 F6000
G1 X76.697 Y79.274 E.00346
G1 X76.735 Y79.301 F36000
;WIDTH:0.0996379
G1 F6000
G1 X76.328 Y79.26 E.00175
G1 E-.67745 F1800
;WIPE_START
G1 F6000
G1 X76.735 Y79.301 E-.12255
;WIPE_END
G1 Z.6 F36000
G1 X71.298 Y79.28 Z.6
G1 Z.2
G1 E.8 F1800
;WIDTH:0.177757
G1 F6000
G1 X71.468 Y79.296 E.00175
;WIDTH:0.194013
G1 X71.671 Y79.324 E.00235
G1 E-.73846 F1800
;WIPE_START
G1 F6000
G1 X71.468 Y79.296 E-.06154
;WIPE_END
G1 Z.6 F36000
G1 X71.6 Y81.343 Z.6
G1 Z.2
G1 E.8 F1800
;WIDTH:0.192587
G1 F6000
G1 X71.605 Y83.125 E.02018
;WIDTH:0.239804
G1 X71.617 Y83.252 E.0019
;WIDTH:0.28185
G1 X71.628 Y83.362 E.002
;WIDTH:0.306763
G1 X71.725 Y84.031 E.0135
G1 X71.8 Y84.024 F36000
;WIDTH:0.421657
G1 F6000
G1 X71.522 Y83.055 E.0289
G1 X71.497 Y83.741 F36000
;WIDTH:0.192674
G1 F6000
G1 X72.422 Y84.044 E.01103
; stop printing object flush_clip_small.stl id:1142461300904 copy 0
EXCLUDE_OBJECT_END NAME=flush_clip_small_stl_id_1142461300904_copy_0
; printing object flush_clip_small.stl id:0 copy 0
EXCLUDE_OBJECT_START NAME=flush_clip_small_stl_id_0_copy_0
G1 E-.56 F1800
;WIPE_START
G1 F6000
G1 X71.497 Y83.741 E-.24
;WIPE_END
G1 Z.6 F36000
G1 X71.493 Y70.319 Z.6
G1 Z.2
G1 E.8 F1800
;TYPE:Inner wall
;WIDTH:0.4
G1 F6000
G3 X70.569 Y70.005 I2.868 J-9.951 E.02639
G1 X71.336 Y68.715 E.04056
G1 X71.493 Y68.758 E.0044
G1 X71.493 Y70.279 E.04109
G1 E-.56 F1800
;WIPE_START
G1 F6000
G1 X70.569 Y70.005 E-.23139
G1 X70.587 Y69.974 E-.00861
;WIPE_END
G1 Z.6 F36000
G1 X76.506 Y70.32 Z.6
G1 Z.2
G1 E.8 F1800
G1 F6000
G1 X76.507 Y68.757 E.04222
G1 X76.664 Y68.714 E.0044
G1 X77.372 Y69.894 E.03721
G1 X77.431 Y70.005 E.00338
G3 X76.544 Y70.308 I-3.786 J-9.613 E.02535
G1 E-.56 F1800
;WIPE_START
G1 F6000
G1 X76.52 Y69.309 E-.24
;WIPE_END
G1 Z.6 F36000
G1 X76.818 Y73.121 Z.6
G1 Z.2
G1 E.8 F1800
;TYPE:Outer wall
G1 F6000
G1 X77.704 Y73.121 E.02394
G3 X78.121 Y73.228 I-.217 J1.73 E.01168
G1 X78.133 Y73.242 E.00049
G3 X78.045 Y73.399 I-.083 J.057 E.00605
G3 X77.142 Y73.479 I-.674 J-2.498 E.02462
G3 X76.176 Y73.401 I.973 J-18.197 E.02617
G2 X75.194 Y73.471 I-.03 J6.507 E.02665
G3 X72.807 Y73.472 I-1.219 J-110.254 E.06449
G2 X71.331 Y73.447 I-.828 J5.401 E.04
G3 X70.4 Y73.479 I-.702 J-6.981 E.02519
G1 X69.955 Y73.399 E.01221
G3 X69.938 Y73.205 I-.011 J-.097 E.00843
G1 X70.296 Y73.121 E.00993
G1 X71.158 Y73.121 E.02329
G1 X71.223 Y73.015 E.00336
G1 X71.322 Y73.009 E.00269
G3 X71.343 Y72.259 I2.993 J-.29 E.0203
G2 X71.35 Y70.648 I-57.434 J-1.059 E.04355
G3 X70.517 Y70.368 I2.554 J-8.97 E.02374
G3 X70.317 Y69.718 I.188 J-.414 E.02076
G1 X71.063 Y68.476 E.03914
G3 X71.461 Y68.25 I.394 J.231 E.01296
G1 X71.85 Y68.25 E.01051
G1 X71.85 Y71.167 E.07882
G1 X71.854 Y72.115 E.02562
G2 X72.854 Y73.116 I1.016 J-.016 E.04229
G1 X75.073 Y73.12 E.05994
G2 X76.143 Y72.193 I.048 J-1.026 E.04221
G2 X76.15 Y68.25 I-237.451 J-2.378 E.10654
G3 X76.672 Y68.268 I.201 J1.747 E.01416
G3 X76.937 Y68.476 I-.144 J.458 E.0093
G1 X77.683 Y69.718 E.03914
G3 X77.435 Y70.386 I-.384 J.238 E.02217
G1 X76.65 Y70.648 E.02237
G2 X76.693 Y72.707 I18.852 J.639 E.05567
G1 X76.689 Y72.96 E.00686
G1 X76.757 Y72.963 E.00184
G1 X76.803 Y73.084 E.0035
G1 X76.511 Y72.908 F36000
;TYPE:Gap infill
;WIDTH:0.272322
G1 F6000
G1 X75.629 Y73.244 E.01638
G1 X75.683 Y73.239 F36000
;WIDTH:0.450283
G1 F6000
G1 X76.512 Y72.874 E.0279
G1 X76.475 Y71.992 F36000
;WIDTH:0.371518
G1 F6000
G3 X76.239 Y73.228 I-20.866 J-3.342 E.03129
G1 X76.2 Y73.224 F36000
;WIDTH:0.428002
G1 F6000
G1 X76.479 Y72.271 E.02894
G1 X76.385 Y72.463 F36000
;WIDTH:0.257473
G1 F6000
G1 X76.387 Y72.442 E.00034
;WIDTH:0.231534
G1 X76.395 Y72.269 E.00247
;WIDTH:0.191889
G1 X76.399 Y72.224 E.00051
G3 X76.399 Y70.543 I803.926 J-.834 E.01894
G1 E-.56 F1800
;WIPE_START
G1 F6000
G1 X76.399 Y71.543 E-.24
;WIPE_END
G1 Z.6 F36000
G1 X76.328 Y68.523 Z.6
G1 Z.2
G1 E.8 F1800
;WIDTH:0.16593
G1 F6000
G1 X76.697 Y68.474 E.00346
G1 X76.735 Y68.501 F36000
;WIDTH:0.0996379
G1 F6000
G1 X76.328 Y68.46 E.00175
G1 E-.67745 F1800
;WIPE_START
G1 F6000
G1 X76.735 Y68.501 E-.12255
;WIPE_END
G1 Z.6 F36000
G1 X71.298 Y68.48 Z.6
G1 Z.2
G1 E.8 F1800
M73 P0 R25
;WIDTH:0.177757
G1 F6000
G1 X71.468 Y68.496 E.00175
;WIDTH:0.194013
G1 X71.671 Y68.524 E.00235
G1 E-.73846 F1800
;WIPE_START
G1 F6000
G1 X71.468 Y68.496 E-.06154
;WIPE_END
G1 Z.6 F36000
G1 X71.6 Y70.543 Z.6
G1 Z.2
G1 E.8 F1800
;WIDTH:0.192587
G1 F6000
G1 X71.605 Y72.325 E.02018
;WIDTH:0.239804
G1 X71.617 Y72.452 E.0019
;WIDTH:0.28185
G1 X71.628 Y72.562 E.002
;WIDTH:0.306763
G1 X71.725 Y73.231 E.0135
G1 X71.8 Y73.224 F36000
;WIDTH:0.421657
G1 F6000
G1 X71.522 Y72.255 E.0289
G1 X71.497 Y72.941 F36000
;WIDTH:0.192674
G1 F6000
G1 X72.422 Y73.244 E.01103
; stop printing object flush_clip_small.stl id:0 copy 0
EXCLUDE_OBJECT_END NAME=flush_clip_small_stl_id_0_copy_0
; printing object flush_clip_small.stl id:0 copy 0
EXCLUDE_OBJECT_START NAME=flush_clip_small_stl_id_0_copy_0
G1 E-.56 F1800
;WIPE_START
G1 F6000
G1 X71.497 Y72.941 E-.24
;WIPE_END
G1 Z.6 F36000
G1 X71.493 Y59.519 Z.6
G1 Z.2
G1 E.8 F1800
;TYPE:Inner wall
;WIDTH:0.4
G1 F6000
G3 X70.569 Y59.205 I2.868 J-9.951 E.02639
G1 X71.336 Y57.915 E.04056
G1 X71.493 Y57.958 E.0044
G1 X71.493 Y59.479 E.04109
G1 E-.56 F1800
;WIPE_START
G1 F6000
G1 X70.569 Y59.205 E-.23139
G1 X70.587 Y59.174 E-.00861
;WIPE_END
G1 Z.6 F36000
G1 X76.506 Y59.52 Z.6
G1 Z.2
G1 E.8 F1800
G1 F6000
G1 X76.507 Y57.957 E.04222
G1 X76.664 Y57.914 E.0044
G1 X77.372 Y59.094 E.03721
G1 X77.431 Y59.205 E.00338
G3 X76.544 Y59.508 I-3.786 J-9.613 E.02535
G1 E-.56 F1800
;WIPE_START
G1 F6000
G1 X76.52 Y58.509 E-.24
;WIPE_END
G1 Z.6 F36000
G1 X76.818 Y62.321 Z.6
G1 Z.2
G1 E.8 F1800
;TYPE:Outer wall
G1 F6000
G1 X77.704 Y62.321 E.02394
G3 X78.121 Y62.428 I-.217 J1.73 E.01168
G1 X78.133 Y62.442 E.00049
G3 X78.045 Y62.599 I-.083 J.057 E.00605
G3 X77.142 Y62.679 I-.674 J-2.498 E.02462
G3 X76.176 Y62.601 I.973 J-18.197 E.02617
G2 X75.194 Y62.671 I-.03 J6.507 E.02665
G3 X72.807 Y62.672 I-1.219 J-110.254 E.06449
G2 X71.331 Y62.647 I-.828 J5.401 E.04
G3 X70.4 Y62.679 I-.702 J-6.981 E.02519
G1 X69.955 Y62.599 E.01221
G3 X69.938 Y62.405 I-.011 J-.097 E.00843
G1 X70.296 Y62.321 E.00993
G1 X71.158 Y62.321 E.02329
G1 X71.223 Y62.215 E.00336
G1 X71.322 Y62.209 E.00269
G3 X71.343 Y61.459 I2.993 J-.29 E.0203
G2 X71.35 Y59.848 I-57.434 J-1.059 E.04355
G3 X70.517 Y59.568 I2.554 J-8.97 E.02374
G3 X70.317 Y58.918 I.188 J-.414 E.02076
G1 X71.063 Y57.676 E.03914
G3 X71.461 Y57.45 I.394 J.231 E.01296
G1 X71.85 Y57.45 E.01051
G1 X71.85 Y60.367 E.07882
G1 X71.854 Y61.315 E.02562
G2 X72.854 Y62.316 I1.016 J-.016 E.04229
G1 X75.073 Y62.32 E.05994
G2 X76.143 Y61.393 I.048 J-1.026 E.04221
G2 X76.15 Y57.45 I-237.451 J-2.378 E.10654
G3 X76.672 Y57.468 I.201 J1.747 E.01416
G3 X76.937 Y57.676 I-.144 J.458 E.0093
G1 X77.683 Y58.918 E.03914
G3 X77.435 Y59.586 I-.384 J.238 E.02217
G1 X76.65 Y59.848 E.02237
G2 X76.693 Y61.907 I18.852 J.639 E.05567
G1 X76.689 Y62.16 E.00686
G1 X76.757 Y62.163 E.00184
G1 X76.803 Y62.284 E.0035
G1 X76.511 Y62.108 F36000
;TYPE:Gap infill
;WIDTH:0.272322
G1 F6000
G1 X75.629 Y62.444 E.01638
G1 X75.683 Y62.439 F36000
;WIDTH:0.450283
G1 F6000
G1 X76.512 Y62.074 E.0279
G1 X76.475 Y61.192 F36000
;WIDTH:0.371518
G1 F6000
G3 X76.239 Y62.428 I-20.866 J-3.342 E.03129
G1 X76.2 Y62.424 F36000
;WIDTH:0.428002
G1 F6000
G1 X76.479 Y61.471 E.02894
G1 X76.385 Y61.663 F36000
;WIDTH:0.257473
G1 F6000
G1 X76.387 Y61.642 E.00034
;WIDTH:0.231534
G1 X76.395 Y61.469 E.00247
;WIDTH:0.191889
G1 X76.399 Y61.424 E.00051
G3 X76.399 Y59.743 I803.926 J-.834 E.01894
G1 E-.56 F1800
;WIPE_START
G1 F6000
G1 X76.399 Y60.743 E-.24
;WIPE_END
G1 Z.6 F36000
G1 X76.328 Y57.723 Z.6
G1 Z.2
G1 E.8 F1800
;WIDTH:0.16593
G1 F6000
G1 X76.697 Y57.674 E.00346
G1 X76.735 Y57.701 F36000
;WIDTH:0.0996379
G1 F6000
G1 X76.328 Y57.66 E.00175
G1 E-.67745 F1800
;WIPE_START
G1 F6000
G1 X76.735 Y57.701 E-.12255
;WIPE_END
G1 Z.6 F36000
G1 X71.298 Y57.68 Z.6
G1 Z.2
G1 E.8 F1800
;WIDTH:0.177757
G1 F6000
G1 X71.468 Y57.696 E.00175
;WIDTH:0.194013
G1 X71.671 Y57.724 E.00235
G1 E-.73846 F1800
;WIPE_START
G1 F6000
G1 X71.468 Y57.696 E-.06154
;WIPE_END
G1 Z.6 F36000
G1 X71.6 Y59.743 Z.6
G1 Z.2
G1 E.8 F1800
;WIDTH:0.192587
G1 F6000
G1 X71.605 Y61.525 E.02018
;WIDTH:0.239804
G1 X71.617 Y61.652 E.0019
;WIDTH:0.28185
G1 X71.628 Y61.762 E.002
;WIDTH:0.306763
G1 X71.725 Y62.431 E.0135
G1 X71.8 Y62.424 F36000
;WIDTH:0.421657
G1 F6000
