; HEADER_BLOCK_START
; generated by OrcaSlicer 2.3.2-beta2 on 2026-02-25 at 21:13:05
; total layer number: 110
; filament_density: 1.04
; filament_diameter: 1.75
; max_z_height: 22.00
; filament: 1
; HEADER_BLOCK_END

; THUMBNAIL_BLOCK_START

;
; THUMBNAIL_BLOCK_END

; THUMBNAIL_BLOCK_START

;
; THUMBNAIL_BLOCK_END

; external perimeters extrusion width = 0.40mm
; perimeters extrusion width = 0.40mm
; infill extrusion width = 0.40mm
; solid infill extrusion width = 0.40mm
; top infill extrusion width = 0.40mm
; first layer extrusion width = 0.40mm

; external perimeters extrusion width = 0.40mm
; perimeters extrusion width = 0.40mm
; infill extrusion width = 0.40mm
; solid infill extrusion width = 0.40mm
; top infill extrusion width = 0.40mm
; first layer extrusion width = 0.40mm

; EXECUTABLE_BLOCK_START


; Pre-Processed for Cancel-Object support by preprocess_cancellation v0.2.0
; 2 known objects
EXCLUDE_OBJECT_DEFINE NAME=gantry_servo_mount_1_1_stl_id_18296152663326785_copy_0 CENTER=70.994,60.771 POLYGON=[[61.119,30.216],[61.119,89.783],[78.719,89.783],[78.719,30.216]]
EXCLUDE_OBJECT_DEFINE NAME=gantry_servo_arm_1_stl_id_0_copy_0 CENTER=48.939,57.625 POLYGON=[[41.281,40.722],[41.281,75.122],[56.881,75.122],[56.881,40.722]]
M73 P0 R23
;TYPE:Custom
PRINT_START EXTRUDER_TEMP=255 BED_TEMP=105
G90
G21
M83 ; use relative distances for extrusion
; Filament gcode
SET_PRESSURE_ADVANCE ADVANCE=0.04; Override pressure advance value
M106 S0
;LAYER_CHANGE
;Z:0.2
;HEIGHT:0.2
;BEFORE_LAYER_CHANGE
;0.2
G92 E0

G1 E-.8 F1800
;AFTER_LAYER_CHANGE
;0.2
;_SET_FAN_SPEED_CHANGING_LAYER
SET_VELOCITY_LIMIT ACCEL=10000 ACCEL_TO_DECEL=10000
SET_VELOCITY_LIMIT SQUARE_CORNER_VELOCITY=9
; printing object gantry_servo_mount-1-1.stl id:18296152663326785 copy 0
EXCLUDE_OBJECT_START NAME=gantry_servo_mount_1_1_stl_id_18296152663326785_copy_0
G1 Z.6 F36000
G1 X77.147 Y57.446
G1 Z.6
G1 Z.2
G1 E.8 F1800
;TYPE:Outer wall
;WIDTH:0.4
G1 F6000
G1 X77.144 Y57.456 E.00029
G1 X76.704 Y58.34 E.02668
G1 X76.108 Y59.128 E.02668
G1 X75.379 Y59.794 E.02668
G1 X74.539 Y60.314 E.02668
G1 X73.618 Y60.67 E.02668
G1 X72.647 Y60.852 E.02668
G1 X71.66 Y60.852 E.02668
G1 X70.689 Y60.67 E.02668
G1 X69.768 Y60.314 E.02668
G1 X68.929 Y59.794 E.02668
G1 X68.199 Y59.128 E.02668
G1 X67.604 Y58.34 E.02668
G1 X67.163 Y57.456 E.02668
G1 X66.893 Y56.506 E.02668
G1 X66.804 Y55.539 E.02624
G1 X66.804 Y54.407 E.0306
G1 X66.893 Y53.44 E.02624
G1 X67.163 Y52.49 E.02668
G1 X67.604 Y51.606 E.02668
G1 X68.199 Y50.818 E.02668
G1 X68.929 Y50.152 E.02668
G1 X69.768 Y49.633 E.02668
G1 X70.63 Y49.299 E.02498
G1 X71.66 Y49.094 E.02836
G1 X72.647 Y49.094 E.02668
G1 X73.618 Y49.276 E.02668
G1 X74.539 Y49.633 E.02668
G1 X75.379 Y50.152 E.02668
G1 X76.108 Y50.818 E.02668
G1 X76.704 Y51.606 E.02668
G1 X77.144 Y52.49 E.02668
G1 X77.414 Y53.44 E.02668
G1 X77.504 Y54.407 E.02624
G1 X77.504 Y55.539 E.0306
G1 X77.414 Y56.506 E.02624
G1 X77.158 Y57.408 E.02531
G1 E-.56 F1800
;WIPE_START
G1 F6000
G1 X77.144 Y57.456 E-.01216
G1 X76.721 Y58.306 E-.22785
;WIPE_END
G1 Z.6 F36000
G1 X74.834 Y82.527 Z.6
G1 Z.2
G1 E.8 F1800
;TYPE:Inner wall
G1 F6000
G1 X74.894 Y82.672 E.00424
G1 X75.002 Y83.496 E.02245
G1 X74.894 Y84.32 E.02245
G1 X74.576 Y85.087 E.02245
G1 X74.07 Y85.747 E.02245
G1 X73.411 Y86.253 E.02245
G1 X72.643 Y86.571 E.02245
G1 X71.819 Y86.679 E.02245
G1 X70.995 Y86.571 E.02245
G1 X70.227 Y86.253 E.02245
G1 X69.568 Y85.747 E.02245
G1 X69.062 Y85.087 E.02245
G1 X68.744 Y84.32 E.02245
G1 X68.635 Y83.496 E.02245
G1 X68.744 Y82.672 E.02245
G1 X69.062 Y81.904 E.02245
G1 X69.568 Y81.245 E.02245
G1 X70.227 Y80.739 E.02245
G1 X70.995 Y80.421 E.02245
G1 X71.622 Y80.338 E.01709
G1 X71.819 Y80.312 E.00536
G1 X72.643 Y80.421 E.02245
G1 X73.411 Y80.739 E.02245
G1 X74.07 Y81.245 E.02246
G1 X74.576 Y81.904 E.02245
G1 X74.819 Y82.49 E.01713
G1 X74.504 Y82.663 F36000
G1 F6000
G1 X74.546 Y82.765 E.00297
G1 X74.642 Y83.496 E.01991
G1 X74.546 Y84.226 E.01991
G1 X74.264 Y84.907 E.01991
G1 X73.815 Y85.492 E.01991
G1 X73.231 Y85.941 E.01991
G1 X72.55 Y86.223 E.01991
G1 X71.819 Y86.319 E.01991
G1 X71.088 Y86.223 E.01991
G1 X70.407 Y85.941 E.01991
G1 X69.823 Y85.492 E.01991
G1 X69.374 Y84.907 E.01991
G1 X69.092 Y84.226 E.01991
G1 X68.996 Y83.496 E.01991
G1 X69.092 Y82.765 E.01991
G1 X69.374 Y82.084 E.01991
G1 X69.823 Y81.499 E.01991
G1 X70.407 Y81.051 E.01991
G1 X71.088 Y80.769 E.01991
G1 X71.669 Y80.692 E.01582
G1 X71.819 Y80.672 E.00409
G1 X72.55 Y80.769 E.01991
G1 X73.231 Y81.051 E.01991
G1 X73.815 Y81.499 E.01991
G1 X74.264 Y82.084 E.01991
G1 X74.489 Y82.626 E.01586
G1 X74.174 Y82.8 F36000
G1 F6000
G1 X74.198 Y82.858 E.0017
G1 X74.282 Y83.496 E.01737
G1 X74.198 Y84.133 E.01737
G1 X73.952 Y84.727 E.01737
G1 X73.561 Y85.237 E.01737
G1 X73.051 Y85.629 E.01737
G1 X72.456 Y85.875 E.01737
G1 X71.819 Y85.959 E.01737
G1 X71.181 Y85.875 E.01737
G1 X70.587 Y85.629 E.01737
G1 X70.077 Y85.237 E.01737
G1 X69.686 Y84.727 E.01737
G1 X69.44 Y84.133 E.01737
G1 X69.356 Y83.496 E.01737
G1 X69.44 Y82.858 E.01737
G1 X69.686 Y82.264 E.01737
G1 X70.077 Y81.754 E.01737
G1 X70.587 Y81.363 E.01737
G1 X71.181 Y81.116 E.01737
G1 X71.715 Y81.046 E.01455
G1 X71.819 Y81.033 E.00282
G1 X72.456 Y81.116 E.01737
G1 X73.051 Y81.363 E.01737
G1 X73.561 Y81.754 E.01737
G1 X73.952 Y82.264 E.01737
G1 X74.159 Y82.763 E.01459
G1 X73.844 Y82.937 F36000
;TYPE:Outer wall
G1 F6000
G1 X73.85 Y82.951 E.00043
G1 X73.922 Y83.496 E.01483
G1 X73.85 Y84.04 E.01483
G1 X73.64 Y84.547 E.01483
G1 X73.306 Y84.983 E.01483
G1 X72.87 Y85.317 E.01483
G1 X72.363 Y85.527 E.01483
G1 X71.819 Y85.599 E.01483
G1 X71.275 Y85.527 E.01483
G1 X70.767 Y85.317 E.01483
G1 X70.332 Y84.983 E.01483
G1 X69.998 Y84.547 E.01483
G1 X69.788 Y84.04 E.01483
G1 X69.716 Y83.496 E.01483
G1 X69.788 Y82.951 E.01483
G1 X69.998 Y82.444 E.01483
G1 X70.332 Y82.009 E.01483
G1 X70.767 Y81.674 E.01483
G1 X71.275 Y81.464 E.01483
G1 X71.762 Y81.4 E.01328
G1 X71.819 Y81.393 E.00155
G1 X72.363 Y81.464 E.01483
G1 X72.87 Y81.674 E.01483
G1 X73.306 Y82.009 E.01483
G1 X73.64 Y82.444 E.01483
G1 X73.829 Y82.9 E.01332
G1 E-.56 F1800
;WIPE_START
G1 F6000
G1 X73.85 Y82.951 E-.01343
G1 X73.922 Y83.496 E-.13176
G1 X73.87 Y83.887 E-.09481
;WIPE_END
G1 Z.6 F36000
G1 X76.952 Y59.789 Z.6
G1 Z.2
G1 E.8 F1800
;TYPE:Inner wall
G1 F6000
G1 X77.098 Y59.838 E.00416
G1 X77.098 Y84.552 E.66775
G1 X76.818 Y85.183 E.01863
G3 X76.273 Y86.006 I-12.629 J-7.767 E.02667
G1 X75.764 Y86.577 E.02068
G3 X74.995 Y87.196 I-9.676 J-11.222 E.02668
G1 X74.335 Y87.583 E.02068
G3 X72.557 Y88.122 I-2.763 J-5.918 E.05036
G1 X71.681 Y88.169 E.02368
G1 X70.809 Y88.08 E.02368
G3 X69.961 Y87.859 I1.295 J-6.682 E.0237
G3 X69.158 Y87.509 I2.672 J-7.236 E.0237
G3 X68.417 Y87.039 I4.391 J-7.742 E.0237
G3 X67.758 Y86.461 I6.598 J-8.188 E.02369
G3 X67.196 Y85.788 I9.577 J-8.575 E.02369
G3 X66.744 Y85.037 I13.934 J-8.891 E.02369
G3 X66.414 Y84.227 I21.226 J-9.118 E.02364
G1 X66.212 Y83.366 E.02389
G1 X66.14 Y82.441 E.02508
G1 X66.14 Y77.652 E.12939
G1 X62.74 Y77.652 E.09186
G1 X62.74 Y74.495 E.08531
G1 X66.54 Y74.495 E.10267
G1 X66.54 Y58.952 E.41995
G1 X66.686 Y58.903 E.00416
G1 X67.404 Y59.853 E.03217
G1 X68.28 Y60.652 E.03205
G1 X69.289 Y61.277 E.03205
G1 X70.395 Y61.705 E.03205
G1 X71.561 Y61.923 E.03205
G1 X72.747 Y61.923 E.03205
G1 X73.913 Y61.705 E.03205
G1 X75.018 Y61.277 E.03205
G1 X76.027 Y60.652 E.03205
G1 X76.903 Y59.853 E.03205
G1 X76.927 Y59.821 E.00108
G1 E-.56 F1800
;WIPE_START
G1 F6000
G1 X77.098 Y59.838 E-.04107
G1 X77.098 Y60.667 E-.19893
;WIPE_END
G1 Z.6 F36000
G1 X77.309 Y58.724 Z.6
G1 Z.2
G1 E.8 F1800
G1 F6000
G1 X77.455 Y58.773 E.00417
G1 X77.455 Y84.628 E.69858
G1 X77.135 Y85.349 E.02131
G3 X76.543 Y86.239 I-11.87 J-7.245 E.02889
G1 X76.016 Y86.83 E.0214
G3 X75.183 Y87.5 I-9.119 J-10.494 E.02889
G1 X74.499 Y87.901 E.0214
G3 X72.592 Y88.478 I-2.933 J-6.257 E.05404
G1 X71.662 Y88.526 E.02515
G1 X70.736 Y88.43 E.02515
G3 X69.836 Y88.193 I1.385 J-7.094 E.02517
G3 X68.983 Y87.821 I2.847 J-7.68 E.02516
G3 X68.198 Y87.321 I4.673 J-8.216 E.02516
G3 X67.498 Y86.707 I7.014 J-8.688 E.02516
G3 X66.902 Y85.992 I10.175 J-9.097 E.02516
G3 X66.423 Y85.194 I14.798 J-9.431 E.02516
G3 X66.072 Y84.333 I22.553 J-9.676 E.02512
G1 X65.858 Y83.421 E.0253
G1 X65.783 Y82.455 E.0262
G1 X65.783 Y78.009 E.12011
G1 X62.383 Y78.009 E.09186
G1 X62.383 Y74.138 E.10461
G1 X66.183 Y74.138 E.10267
G1 X66.183 Y57.295 E.45508
G1 X66.368 Y57.269 E.00504
G1 X66.495 Y57.715 E.01253
G1 X66.994 Y58.718 E.03026
G1 X67.669 Y59.612 E.03026
G1 X68.496 Y60.366 E.03026
G1 X69.449 Y60.956 E.03026
G1 X70.493 Y61.36 E.03026
G1 X71.594 Y61.566 E.03026
G1 X72.714 Y61.566 E.03026
G1 X73.814 Y61.36 E.03026
G1 X74.859 Y60.956 E.03026
G1 X75.811 Y60.366 E.03026
G1 X76.638 Y59.612 E.03026
G1 X77.284 Y58.756 E.02897
G1 E-.56 F1800
;WIPE_START
G1 F6000
G1 X77.455 Y58.773 E-.04107
G1 X77.455 Y59.602 E-.19893
;WIPE_END
G1 Z.6 F36000
G1 X68.723 Y37.164 Z.6
G1 Z.2
G1 E.8 F1800
G1 F6000
G1 X68.635 Y36.496 E.01821
G1 X68.744 Y35.672 E.02245
G1 X69.062 Y34.904 E.02245
G1 X69.568 Y34.245 E.02245
G1 X70.227 Y33.739 E.02245
G1 X70.995 Y33.421 E.02245
G1 X71.622 Y33.338 E.01709
G1 X71.819 Y33.312 E.00536
G1 X72.643 Y33.421 E.02245
G1 X73.411 Y33.739 E.02245
G1 X74.07 Y34.245 E.02245
G1 X74.576 Y34.904 E.02245
G1 X74.894 Y35.672 E.02245
G1 X75.002 Y36.496 E.02245
G1 X74.894 Y37.32 E.02245
G1 X74.576 Y38.087 E.02245
G1 X74.07 Y38.747 E.02245
G1 X73.411 Y39.253 E.02245
G1 X72.643 Y39.571 E.02245
G1 X71.819 Y39.679 E.02245
G1 X70.995 Y39.571 E.02245
G1 X70.227 Y39.253 E.02245
G1 X69.568 Y38.747 E.02245
G1 X69.062 Y38.087 E.02245
G1 X68.744 Y37.32 E.02245
G1 X68.729 Y37.204 E.00316
G1 X69.077 Y37.117 F36000
G1 F6000
G1 X68.996 Y36.496 E.01694
G1 X69.092 Y35.765 E.01991
G1 X69.374 Y35.084 E.01991
G1 X69.823 Y34.499 E.01991
G1 X70.407 Y34.051 E.01991
G1 X71.088 Y33.769 E.01991
G1 X71.669 Y33.692 E.01582
G1 X71.819 Y33.672 E.00409
G1 X72.55 Y33.769 E.01991
G1 X73.231 Y34.051 E.01991
G1 X73.815 Y34.499 E.01991
G1 X74.264 Y35.084 E.01991
G1 X74.546 Y35.765 E.01991
G1 X74.642 Y36.496 E.01991
G1 X74.546 Y37.226 E.01991
G1 X74.264 Y37.907 E.01991
G1 X73.815 Y38.492 E.01991
G1 X73.231 Y38.941 E.01991
G1 X72.55 Y39.223 E.01991
G1 X71.819 Y39.319 E.01991
G1 X71.088 Y39.223 E.01991
G1 X70.407 Y38.941 E.01991
G1 X69.823 Y38.492 E.01991
G1 X69.374 Y37.907 E.01991
G1 X69.092 Y37.226 E.01991
G1 X69.083 Y37.157 E.00189
G1 X69.431 Y37.071 F36000
G1 F6000
G1 X69.356 Y36.496 E.01567
G1 X69.44 Y35.858 E.01737
G1 X69.686 Y35.264 E.01737
G1 X70.077 Y34.754 E.01737
G1 X70.587 Y34.363 E.01737
G1 X71.181 Y34.116 E.01737
G1 X71.715 Y34.046 E.01455
G1 X71.819 Y34.033 E.00282
G1 X72.456 Y34.116 E.01737
G1 X73.051 Y34.363 E.01737
G1 X73.561 Y34.754 E.01737
G1 X73.952 Y35.264 E.01737
G1 X74.198 Y35.858 E.01737
G1 X74.282 Y36.496 E.01737
G1 X74.198 Y37.133 E.01737
G1 X73.952 Y37.727 E.01737
G1 X73.561 Y38.237 E.01737
G1 X73.051 Y38.629 E.01737
G1 X72.456 Y38.875 E.01737
G1 X71.819 Y38.959 E.01737
G1 X71.181 Y38.875 E.01737
G1 X70.587 Y38.629 E.01737
G1 X70.077 Y38.237 E.01737
G1 X69.686 Y37.727 E.01737
G1 X69.44 Y37.133 E.01737
G1 X69.437 Y37.11 E.00062
G1 X69.785 Y37.024 F36000
;TYPE:Outer wall
G1 F6000
G1 X69.716 Y36.496 E.0144
G1 X69.788 Y35.951 E.01483
G1 X69.998 Y35.444 E.01483
G1 X70.332 Y35.009 E.01483
G1 X70.767 Y34.674 E.01483
G1 X71.275 Y34.464 E.01483
G1 X71.762 Y34.4 E.01328
G1 X71.819 Y34.393 E.00155
G1 X72.363 Y34.464 E.01483
G1 X72.87 Y34.674 E.01483
G1 X73.306 Y35.009 E.01483
G1 X73.64 Y35.444 E.01483
G1 X73.85 Y35.951 E.01483
G1 X73.922 Y36.496 E.01483
G1 X73.85 Y37.04 E.01483
G1 X73.64 Y37.547 E.01483
G1 X73.306 Y37.983 E.01483
G1 X72.87 Y38.317 E.01483
G1 X72.363 Y38.527 E.01483
G1 X71.819 Y38.599 E.01483
G1 X71.275 Y38.527 E.01483
G1 X70.767 Y38.317 E.01483
G1 X70.332 Y37.983 E.01483
G1 X69.998 Y37.547 E.01483
G1 X69.797 Y37.062 E.01418
G1 E-.56 F1800
;WIPE_START
G1 F6000
G1 X69.716 Y36.496 E-.13734
G1 X69.772 Y36.072 E-.10266
;WIPE_END
G1 Z.6 F36000
G1 X77.098 Y50.108 Z.6
G1 Z.2
G1 E.8 F1800
;TYPE:Inner wall
G1 F6000
G1 X76.952 Y50.157 E.00417
G1 X76.903 Y50.093 E.00216
G1 X76.027 Y49.294 E.03205
G1 X75.018 Y48.67 E.03205
G1 X73.913 Y48.241 E.03205
G1 X72.747 Y48.023 E.03205
G1 X71.561 Y48.023 E.03205
G1 X70.395 Y48.241 E.03205
G1 X70.243 Y48.3 E.00439
G1 X69.289 Y48.67 E.02766
G1 X68.28 Y49.294 E.03205
G1 X67.404 Y50.093 E.03205
G1 X66.686 Y51.043 E.03217
G1 X66.54 Y50.994 E.00416
G1 X66.54 Y35.444 E.42015
G1 X66.816 Y34.816 E.01852
G3 X67.852 Y33.436 I5.324 J2.919 E.0468
G3 X68.608 Y32.819 I9.773 J11.198 E.02636
G1 X69.258 Y32.431 E.02045
G3 X71.764 Y31.821 I2.692 J5.609 E.0702
G1 X72.628 Y31.879 E.02341
G1 X72.737 Y31.895 E.00296
G3 X73.579 Y32.1 I-1.24 J6.931 E.02343
G3 X74.38 Y32.431 I-2.664 J7.588 E.02342
G3 X75.121 Y32.879 I-4.481 J8.238 E.02342
G3 X75.785 Y33.436 I-6.888 J8.896 E.02342
G3 X76.357 Y34.087 I-10.269 J9.592 E.02342
G3 X76.822 Y34.816 I-15.513 J10.404 E.02337
G1 X77.098 Y35.444 E.01852
G1 X77.098 Y50.068 E.39512
G1 E-.56 F1800
;WIPE_START
G1 F6000
G1 X76.952 Y50.157 E-.04107
G1 X76.903 Y50.093 E-.01915
G1 X76.35 Y49.588 E-.17978
;WIPE_END
G1 Z.6 F36000
G1 X77.455 Y51.173 Z.6
G1 Z.2
G1 E.8 F1800
G1 F6000
G1 X77.309 Y51.222 E.00417
G1 X76.638 Y50.335 E.03005
G1 X75.811 Y49.58 E.03026
G1 X74.859 Y48.991 E.03026
G1 X73.814 Y48.586 E.03026
G1 X72.714 Y48.38 E.03026
G1 X71.594 Y48.38 E.03026
G1 X70.493 Y48.586 E.03026
G1 X70.372 Y48.633 E.0035
G1 X69.449 Y48.991 E.02676
G1 X68.496 Y49.58 E.03026
G1 X67.669 Y50.335 E.03026
G1 X66.994 Y51.228 E.03026
G1 X66.495 Y52.231 E.03026
G1 X66.368 Y52.677 E.01253
G1 X66.183 Y52.651 E.00504
G1 X66.183 Y35.369 E.46695
G1 X66.498 Y34.651 E.02119
G3 X67.599 Y33.184 I5.72 J3.144 E.04971
G3 X68.418 Y32.517 I9.206 J10.466 E.02855
G1 X69.09 Y32.115 E.02116
G3 X70.97 Y31.524 I2.977 J6.184 E.05342
G1 X71.75 Y31.464 E.02116
G1 X72.668 Y31.524 E.02486
G1 X72.804 Y31.544 E.00371
G3 X73.698 Y31.763 I-1.327 J7.357 E.02487
G3 X74.548 Y32.115 I-2.839 J8.054 E.02487
G3 X75.334 Y32.592 I-4.768 J8.743 E.02487
G3 X76.039 Y33.184 I-7.321 J9.438 E.02487
G3 X76.646 Y33.876 I-10.911 J10.178 E.02487
G3 X77.139 Y34.651 I-16.488 J11.046 E.02483
G1 X77.455 Y35.369 E.02119
G1 X77.455 Y51.133 E.42593
G1 E-.56 F1800
;WIPE_START
G1 F6000
G1 X77.309 Y51.222 E-.04107
G1 X76.809 Y50.561 E-.19893
;WIPE_END
G1 Z.6 F36000
G1 X65.426 Y78.366 Z.6
G1 Z.2
G1 E.8 F1800
G1 F6000
G1 X62.026 Y78.366 E.09186
G1 X62.026 Y73.781 E.12391
G1 X65.826 Y73.781 E.10267
G1 X65.826 Y35.294 E1.03987
G1 X66.181 Y34.485 E.02386
G3 X67.345 Y32.932 I6.116 J3.369 E.05262
G3 X68.228 Y32.214 I8.923 J10.076 E.03074
G1 X68.922 Y31.799 E.02186
G3 X70.93 Y31.169 I3.15 J6.521 E.05705
G1 X71.737 Y31.107 E.02186
G1 X72.708 Y31.169 E.0263
G1 X72.871 Y31.193 E.00445
G3 X73.816 Y31.426 I-1.414 J7.784 E.02632
G3 X74.716 Y31.799 I-3.013 J8.521 E.02632
G3 X75.547 Y32.305 I-5.054 J9.248 E.02632
G3 X76.293 Y32.932 I-7.756 J9.983 E.02632
G3 X76.934 Y33.664 I-11.554 J10.764 E.02631
G3 X77.812 Y35.294 I-5.524 J4.025 E.05016
G1 X77.812 Y52.859 E.47458
G1 X77.627 Y52.884 E.00504
G1 X77.478 Y52.36 E.01472
G1 X77.008 Y51.417 E.02847
G1 X76.373 Y50.576 E.02847
G1 X75.595 Y49.866 E.02847
G1 X74.699 Y49.312 E.02847
G1 X73.716 Y48.931 E.02847
G1 X72.68 Y48.737 E.02847
G1 X71.627 Y48.737 E.02847
G1 X70.591 Y48.931 E.02847
G1 X69.608 Y49.312 E.02847
G1 X68.712 Y49.866 E.02847
G1 X67.934 Y50.576 E.02847
G1 X67.299 Y51.417 E.02847
G1 X66.829 Y52.36 E.02847
G1 X66.541 Y53.374 E.02847
G1 X66.447 Y54.39 E.02758
G1 X66.447 Y55.556 E.03149
G1 X66.541 Y56.572 E.02758
G1 X66.829 Y57.586 E.02847
G1 X67.299 Y58.529 E.02847
G1 X67.934 Y59.37 E.02847
G1 X68.712 Y60.08 E.02847
G1 X69.608 Y60.635 E.02847
G1 X70.591 Y61.015 E.02847
G1 X71.627 Y61.209 E.02847
G1 X72.68 Y61.209 E.02847
G1 X73.716 Y61.015 E.02847
G1 X74.699 Y60.635 E.02847
G1 X75.595 Y60.08 E.02847
G1 X76.373 Y59.37 E.02847
G1 X77.008 Y58.529 E.02847
G1 X77.478 Y57.586 E.02847
G1 X77.627 Y57.062 E.01472
G1 X77.812 Y57.088 E.00504
G1 X77.812 Y84.701 E.74609
G3 X77.452 Y85.516 I-26.608 J-11.277 E.02407
G3 X76.921 Y86.345 I-18.309 J-11.133 E.02662
G3 X76.143 Y87.194 I-10.285 J-8.638 E.03111
