; HEADER_BLOCK_START
; generated by OrcaSlicer 2.3.2-beta2 on 2026-02-20 at 15:12:58
; total layer number: 382
; filament_density: 1.04
; filament_diameter: 1.75
; max_z_height: 76.40
; filament: 1
; HEADER_BLOCK_END

; THUMBNAIL_BLOCK_START

;
; THUMBNAIL_BLOCK_END

; THUMBNAIL_BLOCK_START

;
; THUMBNAIL_BLOCK_END

; external perimeters extrusion width = 0.40mm
; perimeters extrusion width = 0.40mm
; infill extrusion width = 0.40mm
; solid infill extrusion width = 0.40mm
; top infill extrusion width = 0.40mm
; first layer extrusion width = 0.40mm

; EXECUTABLE_BLOCK_START


; Pre-Processed for Cancel-Object support by preprocess_cancellation v0.2.0
; 1 known objects
EXCLUDE_OBJECT_DEFINE NAME=Körper1_id_87_copy_0 CENTER=60.232,59.393 POLYGON=[[10.546,38.087],[10.546,81.913],[109.454,81.913],[109.454,38.087]]
M73 P0 R39
;TYPE:Custom
PRINT_START EXTRUDER_TEMP=255 BED_TEMP=105
G90
G21
M83 ; use relative distances for extrusion
; Filament gcode
SET_PRESSURE_ADVANCE ADVANCE=0.04; Override pressure advance value
M106 S0
;LAYER_CHANGE
;Z:0.2
;HEIGHT:0.2
;BEFORE_LAYER_CHANGE
;0.2
G92 E0

G1 E-.8 F1800
;AFTER_LAYER_CHANGE
;0.2
;_SET_FAN_SPEED_CHANGING_LAYER
SET_VELOCITY_LIMIT ACCEL=10000 ACCEL_TO_DECEL=10000
SET_VELOCITY_LIMIT SQUARE_CORNER_VELOCITY=9
; printing object Körper1 id:87 copy 0
EXCLUDE_OBJECT_START NAME=Körper1_id_87_copy_0
G1 Z.6 F36000
G1 X21.843 Y40.833
G1 Z.6
G1 Z.2
G1 E.8 F1800
;TYPE:Brim
;WIDTH:0.4
G1 F6000
G1 X22.423 Y40.522 E.01778
G1 X23.741 Y39.898 E.0394
G1 X24.381 Y39.633 E.0187
G1 X25.754 Y39.142 E.0394
G1 X26.416 Y38.94 E.0187
G1 X27.83 Y38.586 E.0394
G1 X28.509 Y38.45 E.0187
G1 X29.951 Y38.236 E.0394
G1 X30.64 Y38.168 E.01869
G1 X32.449 Y38.087 E.04894
G1 X87.551 Y38.087 E1.48881
G1 X89.348 Y38.167 E.04859
G1 X90.034 Y38.234 E.01864
G1 X91.477 Y38.448 E.0394
G1 X92.156 Y38.583 E.0187
G1 X93.57 Y38.936 E.0394
G1 X94.233 Y39.137 E.0187
G1 X95.606 Y39.628 E.0394
G1 X96.246 Y39.893 E.0187
G1 X97.564 Y40.516 E.0394
G1 X98.175 Y40.842 E.0187
G1 X99.426 Y41.591 E.0394
G1 X100.001 Y41.975 E.0187
G1 X101.173 Y42.844 E.0394
G1 X101.708 Y43.283 E.0187
G1 X102.789 Y44.262 E.0394
G1 X103.278 Y44.751 E.0187
G1 X104.258 Y45.831 E.0394
G1 X104.697 Y46.366 E.0187
G1 X105.566 Y47.537 E.0394
G1 X105.952 Y48.114 E.01877
G1 X106.705 Y49.37 E.03954
G1 X107.03 Y49.978 E.01863
G1 X107.652 Y51.291 E.03926
G1 X107.917 Y51.931 E.0187
G1 X108.408 Y53.304 E.0394
G1 X108.61 Y53.966 E.0187
G1 X108.964 Y55.38 E.0394
G1 X109.1 Y56.059 E.0187
G1 X109.314 Y57.501 E.0394
G1 X109.382 Y58.19 E.0187
G1 X109.454 Y59.647 E.0394
G1 X109.454 Y60.339 E.0187
G1 X109.383 Y61.795 E.0394
G1 X109.315 Y62.487 E.01877
G1 X109.101 Y63.934 E.03954
G1 X108.966 Y64.611 E.01863
G1 X108.614 Y66.02 E.03926
G1 X108.413 Y66.683 E.0187
G1 X107.922 Y68.056 E.0394
G1 X107.657 Y68.696 E.0187
G1 X107.034 Y70.014 E.0394
G1 X106.708 Y70.625 E.0187
G1 X105.959 Y71.876 E.0394
G1 X105.575 Y72.451 E.0187
G1 X104.706 Y73.623 E.0394
G1 X104.267 Y74.158 E.0187
G1 X103.288 Y75.239 E.0394
G1 X102.799 Y75.728 E.0187
G1 X101.719 Y76.708 E.0394
G1 X101.184 Y77.147 E.0187
G1 X100.013 Y78.016 E.0394
G1 X99.436 Y78.402 E.01877
G1 X98.18 Y79.155 E.03954
G1 X97.572 Y79.48 E.01863
G1 X96.259 Y80.102 E.03926
G1 X95.619 Y80.367 E.0187
G1 X94.246 Y80.858 E.0394
G1 X93.584 Y81.06 E.0187
G1 X92.17 Y81.414 E.0394
G1 X91.491 Y81.55 E.0187
G1 X90.049 Y81.764 E.0394
G1 X89.36 Y81.832 E.01869
G1 X87.551 Y81.913 E.04893
G1 X32.454 Y81.913 E1.48867
G1 X30.652 Y81.833 E.04873
G1 X29.963 Y81.765 E.01871
G1 X28.516 Y81.551 E.03954
G1 X27.839 Y81.416 E.01863
G1 X26.43 Y81.064 E.03926
G1 X25.767 Y80.863 E.0187
G1 X24.394 Y80.372 E.0394
G1 X23.754 Y80.107 E.0187
G1 X22.436 Y79.484 E.0394
G1 X21.825 Y79.158 E.0187
G1 X20.574 Y78.409 E.0394
G1 X19.999 Y78.025 E.0187
G1 X18.827 Y77.156 E.0394
G1 X18.292 Y76.717 E.0187
G1 X17.211 Y75.738 E.0394
G1 X16.722 Y75.249 E.0187
G1 X15.742 Y74.169 E.0394
G1 X15.303 Y73.634 E.0187
G1 X14.434 Y72.463 E.0394
G1 X14.049 Y71.888 E.0187
G1 X13.299 Y70.637 E.0394
G1 X12.972 Y70.027 E.0187
G1 X12.348 Y68.709 E.0394
G1 X12.083 Y68.069 E.0187
G1 X11.592 Y66.696 E.0394
G1 X11.39 Y66.034 E.0187
G1 X11.036 Y64.62 E.0394
G1 X10.9 Y63.941 E.0187
G1 X10.686 Y62.499 E.0394
G1 X10.618 Y61.81 E.0187
G1 X10.546 Y60.353 E.0394
G1 X10.546 Y59.661 E.0187
G1 X10.617 Y58.205 E.0394
G1 X10.684 Y57.516 E.0187
G1 X10.898 Y56.073 E.0394
G1 X11.033 Y55.394 E.0187
G1 X11.386 Y53.98 E.0394
G1 X11.587 Y53.317 E.0187
G1 X12.078 Y51.944 E.0394
G1 X12.343 Y51.304 E.0187
G1 X12.966 Y49.986 E.0394
G1 X13.292 Y49.375 E.0187
G1 X14.041 Y48.124 E.0394
G1 X14.425 Y47.549 E.0187
G1 X15.294 Y46.377 E.0394
G1 X15.733 Y45.842 E.0187
G1 X16.712 Y44.761 E.0394
G1 X17.201 Y44.272 E.0187
G1 X18.281 Y43.292 E.0394
G1 X18.816 Y42.853 E.0187
G1 X19.987 Y41.984 E.0394
G1 X20.562 Y41.599 E.0187
G1 X21.808 Y40.852 E.03924
G1 X21.987 Y41.161 F36000
G1 F6000
G1 X22.582 Y40.843 E.01823
G1 X23.884 Y40.226 E.03893
G1 X24.507 Y39.967 E.01823
G1 X25.863 Y39.482 E.03893
G1 X26.509 Y39.285 E.01823
G1 X27.906 Y38.935 E.03893
G1 X28.568 Y38.803 E.01822
G1 X29.993 Y38.591 E.03893
G1 X30.662 Y38.524 E.01818
G1 X32.455 Y38.444 E.04847
G1 X87.541 Y38.444 E1.48838
G1 X89.325 Y38.523 E.04825
G1 X89.993 Y38.589 E.01814
G1 X91.419 Y38.8 E.03893
G1 X92.08 Y38.932 E.01823
G1 X93.478 Y39.281 E.03893
G1 X94.123 Y39.477 E.01822
G1 X95.475 Y39.96 E.03879
G1 X96.103 Y40.22 E.01837
G1 X97.401 Y40.834 E.03879
G1 X98.001 Y41.154 E.01837
G1 X99.232 Y41.892 E.03879
G1 X99.793 Y42.266 E.01823
G1 X100.951 Y43.124 E.03893
G1 X101.473 Y43.551 E.01823
G1 X102.541 Y44.519 E.03893
G1 X103.018 Y44.995 E.01823
G1 X103.986 Y46.063 E.03893
G1 X104.414 Y46.584 E.01823
G1 X105.276 Y47.745 E.03907
G1 X105.652 Y48.308 E.01829
G1 X106.393 Y49.543 E.03893
G1 X106.712 Y50.141 E.0183
G1 X107.326 Y51.439 E.03879
G1 X107.584 Y52.062 E.01823
G1 X108.068 Y53.413 E.03879
G1 X108.266 Y54.064 E.01837
G1 X108.615 Y55.456 E.03879
G1 X108.747 Y56.118 E.01822
G1 X108.959 Y57.543 E.03893
G1 X109.026 Y58.214 E.01823
G1 X109.097 Y59.653 E.03893
G1 X109.097 Y60.328 E.01822
G1 X109.027 Y61.772 E.03907
G1 X108.96 Y62.446 E.01829
G1 X108.749 Y63.871 E.03893
G1 X108.617 Y64.535 E.0183
G1 X108.268 Y65.928 E.03879
G1 X108.073 Y66.573 E.01822
G1 X107.59 Y67.925 E.03879
G1 X107.33 Y68.553 E.01837
G1 X106.716 Y69.851 E.03879
G1 X106.399 Y70.446 E.01823
G1 X105.658 Y71.682 E.03893
G1 X105.284 Y72.243 E.01823
G1 X104.423 Y73.405 E.03907
G1 X103.995 Y73.927 E.01823
G1 X103.028 Y74.994 E.03893
G1 X102.551 Y75.472 E.01823
G1 X101.487 Y76.436 E.03879
G1 X100.962 Y76.867 E.01837
G1 X99.809 Y77.723 E.03878
G1 X99.242 Y78.102 E.01843
G1 X98.007 Y78.843 E.03893
G1 X97.414 Y79.16 E.01816
G1 X96.116 Y79.774 E.03879
G1 X95.493 Y80.033 E.01823
G1 X94.137 Y80.518 E.03893
G1 X93.491 Y80.715 E.01823
G1 X92.094 Y81.065 E.03893
G1 X91.432 Y81.197 E.01822
G1 X90.007 Y81.409 E.03893
G1 X89.338 Y81.476 E.01818
G1 X87.541 Y81.556 E.0486
G1 X32.464 Y81.556 E1.48811
G1 X30.681 Y81.477 E.04824
G1 X30.005 Y81.411 E.01836
G1 X28.574 Y81.198 E.03907
G1 X27.915 Y81.067 E.01816
G1 X26.527 Y80.72 E.03865
G1 X25.877 Y80.523 E.01837
G1 X24.525 Y80.04 E.03879
G1 X23.902 Y79.782 E.01823
G1 X22.599 Y79.166 E.03893
G1 X21.999 Y78.846 E.01837
G1 X20.763 Y78.106 E.03893
G1 X20.202 Y77.731 E.01823
G1 X19.049 Y76.876 E.03879
G1 X18.523 Y76.445 E.01837
G1 X17.456 Y75.478 E.03893
G1 X16.978 Y75.001 E.01823
G1 X16.014 Y73.937 E.03879
G1 X15.583 Y73.412 E.01837
G1 X14.727 Y72.259 E.03879
G1 X14.352 Y71.699 E.01823
G1 X13.611 Y70.463 E.03893
G1 X13.29 Y69.864 E.01837
G1 X12.676 Y68.566 E.03879
G1 X12.417 Y67.943 E.01823
G1 X11.932 Y66.587 E.03893
G1 X11.735 Y65.941 E.01823
G1 X11.385 Y64.544 E.03893
G1 X11.253 Y63.882 E.01822
G1 X11.041 Y62.457 E.03893
G1 X10.974 Y61.786 E.01823
G1 X10.903 Y60.347 E.03893
G1 X10.903 Y59.672 E.01822
G1 X10.973 Y58.233 E.03893
G1 X11.039 Y57.562 E.01823
G1 X11.249 Y56.137 E.03893
G1 X11.381 Y55.475 E.01823
G1 X11.73 Y54.077 E.03893
G1 X11.926 Y53.432 E.01822
G1 X12.41 Y52.075 E.03893
G1 X12.668 Y51.452 E.01823
G1 X13.284 Y50.149 E.03893
G1 X13.601 Y49.554 E.01823
G1 X14.342 Y48.318 E.03893
G1 X14.716 Y47.757 E.01823
G1 X15.574 Y46.599 E.03893
G1 X16.001 Y46.077 E.01823
G1 X16.969 Y45.009 E.03893
G1 X17.445 Y44.532 E.01823
G1 X18.513 Y43.564 E.03893
G1 X19.034 Y43.136 E.01823
G1 X20.191 Y42.277 E.03893
G1 X20.751 Y41.902 E.01823
G1 X21.953 Y41.181 E.03785
G1 X22.136 Y41.488 F36000
G1 F6000
G1 X22.161 Y41.473 E.00077
G1 X22.74 Y41.163 E.01775
G1 X24.026 Y40.554 E.03846
G1 X24.633 Y40.302 E.01775
G1 X25.973 Y39.822 E.03846
G1 X26.602 Y39.63 E.01775
G1 X27.982 Y39.284 E.03846
G1 X28.626 Y39.155 E.01775
G1 X30.034 Y38.946 E.03846
G1 X30.685 Y38.881 E.01768
G1 X32.46 Y38.801 E.04801
G1 X87.531 Y38.801 E1.48795
G1 X89.303 Y38.88 E.04792
G1 X89.952 Y38.944 E.01763
G1 X91.36 Y39.153 E.03846
G1 X92.004 Y39.281 E.01775
G1 X93.385 Y39.627 E.03846
G1 X94.014 Y39.817 E.01775
G1 X95.344 Y40.293 E.03817
G1 X95.961 Y40.548 E.01804
G1 X97.238 Y41.152 E.03817
G1 X97.827 Y41.466 E.01804
G1 X99.039 Y42.192 E.03817
G1 X99.586 Y42.557 E.01775
G1 X100.729 Y43.404 E.03846
G1 X101.238 Y43.82 E.01775
G1 X102.293 Y44.776 E.03846
G1 X102.757 Y45.24 E.01775
G1 X103.714 Y46.294 E.03846
G1 X104.131 Y46.802 E.01775
G1 X104.985 Y47.953 E.03874
G1 X105.352 Y48.501 E.01781
G1 X106.081 Y49.717 E.03831
G1 X106.394 Y50.304 E.01797
G1 X106.999 Y51.581 E.03817
G1 X107.252 Y52.193 E.01789
G1 X107.728 Y53.523 E.03817
G1 X107.921 Y54.157 E.01789
G1 X108.266 Y55.532 E.03832
G1 X108.395 Y56.176 E.01775
G1 X108.604 Y57.584 E.03846
G1 X108.669 Y58.238 E.01775
G1 X108.74 Y59.659 E.03846
G1 X108.74 Y60.316 E.01775
G1 X108.67 Y61.748 E.03874
G1 X108.606 Y62.404 E.01782
G1 X108.398 Y63.807 E.03831
G1 X108.268 Y64.459 E.01797
G1 X107.925 Y65.83 E.03818
G1 X107.733 Y66.464 E.01789
G1 X107.257 Y67.794 E.03817
G1 X107.004 Y68.406 E.01789
G1 X106.398 Y69.688 E.03832
G1 X106.089 Y70.268 E.01775
G1 X105.358 Y71.489 E.03846
G1 X104.993 Y72.036 E.01775
G1 X104.14 Y73.188 E.03874
G1 X103.723 Y73.695 E.01775
G1 X102.767 Y74.75 E.03845
G1 X102.303 Y75.215 E.01775
G1 X101.256 Y76.164 E.03817
G1 X100.74 Y76.587 E.01804
G1 X99.606 Y77.429 E.03817
G1 X99.049 Y77.802 E.0181
G1 X97.833 Y78.531 E.03831
G1 X97.255 Y78.839 E.01769
G1 X95.974 Y79.446 E.03832
G1 X95.367 Y79.698 E.01775
G1 X94.027 Y80.178 E.03846
G1 X93.398 Y80.37 E.01775
G1 X92.018 Y80.716 E.03846
G1 X91.374 Y80.845 E.01775
G1 X89.966 Y81.054 E.03846
G1 X89.315 Y81.119 E.01768
G1 X87.53 Y81.199 E.04827
G1 X32.475 Y81.199 E1.48755
G1 X30.709 Y81.121 E.04775
G1 X30.046 Y81.056 E.01801
G1 X28.633 Y80.846 E.03859
G1 X27.991 Y80.718 E.01769
G1 X26.625 Y80.376 E.03804
G1 X25.986 Y80.183 E.01803
G1 X24.656 Y79.707 E.03817
G1 X24.049 Y79.456 E.01775
G1 X22.762 Y78.848 E.03845
G1 X22.173 Y78.534 E.01804
G1 X20.952 Y77.802 E.03845
G1 X20.406 Y77.437 E.01775
G1 X19.271 Y76.596 E.03817
G1 X18.755 Y76.173 E.01804
G1 X17.7 Y75.217 E.03845
G1 X17.235 Y74.753 E.01775
G1 X16.286 Y73.706 E.03817
G1 X15.863 Y73.19 E.01803
G1 X15.021 Y72.056 E.03817
G1 X14.655 Y71.51 E.01775
G1 X13.923 Y70.289 E.03845
G1 X13.608 Y69.701 E.01804
G1 X13.004 Y68.424 E.03817
G1 X12.752 Y67.817 E.01775
G1 X12.272 Y66.477 E.03846
G1 X12.08 Y65.848 E.01775
G1 X11.734 Y64.468 E.03846
G1 X11.605 Y63.824 E.01775
G1 X11.396 Y62.416 E.03846
G1 X11.331 Y61.762 E.01775
G1 X11.26 Y60.341 E.03846
G1 X11.26 Y59.684 E.01775
G1 X11.329 Y58.262 E.03846
G1 X11.393 Y57.608 E.01775
G1 X11.601 Y56.2 E.03846
G1 X11.729 Y55.556 E.01775
G1 X12.074 Y54.175 E.03846
G1 X12.264 Y53.546 E.01775
G1 X12.743 Y52.206 E.03846
G1 X12.994 Y51.599 E.01775
G1 X13.602 Y50.312 E.03846
G1 X13.911 Y49.732 E.01775
G1 X14.642 Y48.511 E.03846
G1 X15.007 Y47.964 E.01775
G1 X15.854 Y46.821 E.03846
G1 X16.27 Y46.313 E.01775
G1 X17.226 Y45.257 E.03846
G1 X17.69 Y44.793 E.01775
G1 X18.744 Y43.836 E.03845
G1 X19.252 Y43.419 E.01775
G1 X20.394 Y42.571 E.03846
G1 X20.94 Y42.205 E.01775
G1 X22.102 Y41.508 E.0366
G1 X22.286 Y41.814 F36000
G1 F6000
G1 X22.335 Y41.785 E.00155
G1 X22.898 Y41.483 E.01728
G1 X24.169 Y40.881 E.03798
G1 X24.764 Y40.634 E.01742
G1 X26.083 Y40.161 E.03784
G1 X26.694 Y39.975 E.01728
G1 X28.058 Y39.633 E.03798
G1 X28.685 Y39.508 E.01728
G1 X30.075 Y39.3 E.03798
G1 X30.708 Y39.238 E.01717
G1 X32.466 Y39.159 E.04755
G1 X87.525 Y39.159 E1.48765
G1 X89.28 Y39.237 E.04746
G1 X89.911 Y39.299 E.01713
G1 X91.302 Y39.505 E.03799
G1 X91.929 Y39.63 E.01728
G1 X93.292 Y39.972 E.03798
G1 X93.904 Y40.157 E.01728
G1 X95.213 Y40.625 E.03756
G1 X95.819 Y40.876 E.0177
G1 X97.075 Y41.47 E.03756
G1 X97.653 Y41.778 E.0177
G1 X98.846 Y42.493 E.03756
G1 X99.378 Y42.847 E.01728
G1 X100.508 Y43.684 E.03798
G1 X101.002 Y44.089 E.01728
G1 X102.044 Y45.033 E.03798
G1 X102.497 Y45.484 E.01728
G1 X103.442 Y46.526 E.03798
G1 X103.848 Y47.019 E.01728
G1 X104.695 Y48.161 E.0384
G1 X105.051 Y48.694 E.01734
G1 X105.768 Y49.891 E.0377
G1 X106.076 Y50.467 E.01764
G1 X106.671 Y51.723 E.03756
G1 X106.92 Y52.324 E.01756
G1 X107.388 Y53.633 E.03756
G1 X107.576 Y54.249 E.01742
G1 X107.917 Y55.608 E.03784
G1 X108.042 Y56.235 E.01728
G1 X108.25 Y57.625 E.03798
G1 X108.313 Y58.262 E.01728
G1 X108.383 Y59.666 E.03798
G1 X108.383 Y60.305 E.01728
G1 X108.314 Y61.725 E.0384
G1 X108.251 Y62.363 E.01734
G1 X108.046 Y63.743 E.0377
G1 X107.919 Y64.384 E.01764
G1 X107.581 Y65.732 E.03756
G1 X107.393 Y66.354 E.01756
G1 X106.925 Y67.663 E.03756
G1 X106.678 Y68.259 E.01742
G1 X106.08 Y69.526 E.03784
G1 X105.779 Y70.09 E.01728
G1 X105.057 Y71.296 E.03798
G1 X104.703 Y71.828 E.01728
G1 X103.856 Y72.97 E.0384
G1 X103.451 Y73.464 E.01728
G1 X102.507 Y74.506 E.03798
G1 X102.054 Y74.958 E.01728
G1 X101.025 Y75.892 E.03756
G1 X100.518 Y76.308 E.01771
G1 X99.402 Y77.136 E.03755
G1 X98.855 Y77.501 E.01777
G1 X97.659 Y78.218 E.0377
G1 X97.097 Y78.519 E.01722
G1 X95.831 Y79.119 E.03785
G1 X95.236 Y79.366 E.01742
G1 X93.917 Y79.839 E.03784
G1 X93.306 Y80.025 E.01728
G1 X91.942 Y80.367 E.03798
G1 X91.315 Y80.492 E.01728
G1 X89.925 Y80.7 E.03798
G1 X89.292 Y80.762 E.01717
G1 X87.52 Y80.842 E.04793
G1 X32.485 Y80.842 E1.487
G1 X30.737 Y80.765 E.04726
G1 X30.087 Y80.701 E.01766
G1 X28.691 Y80.493 E.03812
G1 X28.066 Y80.369 E.01722
G1 X26.723 Y80.033 E.03742
G1 X26.096 Y79.843 E.0177
G1 X24.787 Y79.375 E.03756
G1 X24.196 Y79.131 E.01728
G1 X22.925 Y78.53 E.03798
G1 X22.347 Y78.222 E.0177
G1 X21.141 Y77.499 E.03798
G1 X20.609 Y77.144 E.01728
G1 X19.493 Y76.316 E.03756
G1 X18.986 Y75.9 E.0177
G1 X17.944 Y74.957 E.03798
G1 X17.492 Y74.504 E.01728
G1 X16.558 Y73.475 E.03756
G1 X16.143 Y72.968 E.0177
G1 X15.314 Y71.852 E.03756
G1 X14.958 Y71.321 E.01728
G1 X14.235 Y70.115 E.03798
G1 X13.926 Y69.538 E.0177
G1 X13.331 Y68.281 E.03756
G1 X13.084 Y67.686 E.01742
G1 X12.611 Y66.367 E.03784
G1 X12.425 Y65.756 E.01728
G1 X12.083 Y64.392 E.03798
G1 X11.958 Y63.765 E.01728
G1 X11.75 Y62.375 E.03798
G1 X11.687 Y61.738 E.01728
G1 X11.617 Y60.334 E.03798
G1 X11.617 Y59.695 E.01728
G1 X11.685 Y58.291 E.03798
G1 X11.747 Y57.654 E.01728
G1 X11.952 Y56.264 E.03798
G1 X12.077 Y55.636 E.01728
G1 X12.417 Y54.272 E.03798
G1 X12.602 Y53.66 E.01727
G1 X13.075 Y52.337 E.03798
G1 X13.319 Y51.746 E.01728
G1 X13.92 Y50.474 E.03798
G1 X14.221 Y49.91 E.01728
G1 X14.943 Y48.704 E.03798
G1 X15.297 Y48.172 E.01728
G1 X16.134 Y47.042 E.03798
G1 X16.539 Y46.548 E.01728
G1 X17.483 Y45.506 E.03798
G1 X17.934 Y45.053 E.01728
G1 X18.976 Y44.108 E.03798
G1 X19.469 Y43.702 E.01728
G1 X20.598 Y42.864 E.03798
G1 X21.129 Y42.508 E.01728
G1 X22.251 Y41.835 E.03536
G1 X22.435 Y42.141 F36000
G1 F6000
G1 X22.509 Y42.097 E.00232
G1 X23.057 Y41.803 E.0168
G1 X24.311 Y41.209 E.03751
G1 X24.896 Y40.966 E.01709
G1 X26.193 Y40.501 E.03723
G1 X26.787 Y40.32 E.0168
G1 X28.134 Y39.982 E.03751
G1 X28.744 Y39.86 E.0168
G1 X30.117 Y39.655 E.03751
G1 X30.731 Y39.594 E.01667
G1 X32.471 Y39.516 E.04708
G1 X87.52 Y39.516 E1.48735
G1 X89.257 Y39.593 E.047
G1 X89.87 Y39.654 E.01663
G1 X91.243 Y39.858 E.03751
G1 X91.853 Y39.979 E.0168
G1 X93.2 Y40.317 E.03751
G1 X93.795 Y40.497 E.0168
G1 X95.082 Y40.958 E.03695
G1 X95.676 Y41.203 E.01737
G1 X96.913 Y41.788 E.03694
G1 X97.48 Y42.091 E.01737
