; HEADER_BLOCK_START
; generated by OrcaSlicer 2.3.1 on 2026-02-10 at 22:53:55
; total layer number: 50
; filament_density: 1.04
; filament_diameter: 1.75
; max_z_height: 10.00
; HEADER_BLOCK_END

; THUMBNAIL_BLOCK_START

;
; THUMBNAIL_BLOCK_END

; THUMBNAIL_BLOCK_START

;
; THUMBNAIL_BLOCK_END

; external perimeters extrusion width = 0.40mm
; perimeters extrusion width = 0.40mm
; infill extrusion width = 0.40mm
; solid infill extrusion width = 0.40mm
; top infill extrusion width = 0.40mm
; first layer extrusion width = 0.40mm

; external perimeters extrusion width = 0.40mm
; perimeters extrusion width = 0.40mm
; infill extrusion width = 0.40mm
; solid infill extrusion width = 0.40mm
; top infill extrusion width = 0.40mm
; first layer extrusion width = 0.40mm

; external perimeters extrusion width = 0.40mm
; perimeters extrusion width = 0.40mm
; infill extrusion width = 0.40mm
; solid infill extrusion width = 0.40mm
; top infill extrusion width = 0.40mm
; first layer extrusion width = 0.40mm

; EXECUTABLE_BLOCK_START


; Pre-Processed for Cancel-Object support by preprocess_cancellation v0.2.0
; 2 known objects
EXCLUDE_OBJECT_DEFINE NAME=Leviathan_bracket_set_stl_id_2774548873862_copy_0 CENTER=82.720,59.365 POLYGON=[[62.718,11.9],[62.718,108.011],[102.418,108.011],[102.418,11.9]]
EXCLUDE_OBJECT_DEFINE NAME=pcb_din_clip_x3_stl_id_15_copy_0 CENTER=38.769,75.068 POLYGON=[[17.582,40.144],[17.582,108.1],[57.318,108.1],[57.318,40.144]]
M73 P0 R36
;TYPE:Custom
PRINT_START EXTRUDER_TEMP=255 BED_TEMP=105
G90
G21
M83 ; use relative distances for extrusion
; Filament gcode
SET_PRESSURE_ADVANCE ADVANCE=0.04; Override pressure advance value
M106 S0
;LAYER_CHANGE
;Z:0.2
;HEIGHT:0.2
;BEFORE_LAYER_CHANGE
;0.2
G92 E0

G1 E-.8 F1800
;AFTER_LAYER_CHANGE
;0.2
;_SET_FAN_SPEED_CHANGING_LAYER
SET_VELOCITY_LIMIT ACCEL=10000 ACCEL_TO_DECEL=10000
SET_VELOCITY_LIMIT SQUARE_CORNER_VELOCITY=9
; printing object Leviathan_bracket_set.stl id:2774548873862 copy 0
EXCLUDE_OBJECT_START NAME=Leviathan_bracket_set_stl_id_2774548873862_copy_0
G1 Z.6 F36000
G1 X74.636 Y36.407
G1 Z.6
G1 Z.2
G1 E.8 F1800
;TYPE:Inner wall
;WIDTH:0.4
G1 F6000
G3 X76.289 Y39.454 I-2.122 J3.124 E.09732
G1 X76.289 Y60.896 E.57932
G3 X74.721 Y63.881 I-3.765 J-.073 E.09447
G1 X74.822 Y63.985 E.0039
G3 X74.721 Y67.819 I-2.259 J1.859 E.11303
G3 X76.289 Y70.804 I-2.197 J3.058 E.09447
G1 X76.289 Y80.546 E.2632
G3 X68.847 Y80.546 I-3.721 J-.048 E.31333
G1 X68.847 Y70.804 E.2632
G3 X70.412 Y67.821 I3.765 J.073 E.09437
G3 X70.412 Y63.879 I2.175 J-1.971 E.11679
G3 X68.847 Y60.896 I2.2 J-3.056 E.09436
G1 X68.847 Y39.454 E.57932
G3 X70.489 Y36.415 I3.774 J.076 E.09695
G3 X72.327 Y31.441 I2.084 J-2.056 E.17918
G3 X74.664 Y36.379 I.246 J2.905 E.19115
G1 X74.017 Y36.462 F36000
G1 F6000
G3 X75.932 Y39.466 I-1.503 J3.07 E.10124
G1 X75.932 Y60.884 E.5787
G3 X74.133 Y63.824 I-3.357 J-.034 E.09781
G3 X74.133 Y67.876 I-1.575 J2.026 E.12617
G3 X75.932 Y70.816 I-1.602 J3.001 E.09767
G1 X75.932 Y80.534 E.26258
G3 X69.204 Y80.534 I-3.364 J-.036 E.2836
G1 X69.204 Y70.816 E.26258
G3 X70.996 Y67.88 I3.356 J.034 E.09757
G3 X70.996 Y63.82 I1.593 J-2.03 E.12624
G3 X69.204 Y60.884 I1.609 J-2.997 E.09743
G1 X69.204 Y39.466 E.5787
G3 X71.098 Y36.473 I3.375 J.04 E.10073
G1 X70.7 Y36.11 E.01454
G3 X72.363 Y31.797 I1.871 J-1.756 E.15551
G3 X74.05 Y36.439 I.203 J2.554 E.18018
G1 E-.56 F1800
;WIPE_START
G1 F6000
G1 X74.411 Y36.685 E-.10484
G1 X74.758 Y36.946 E-.10409
G1 X74.85 Y37.037 E-.03106
;WIPE_END
G1 Z.6 F36000
G1 X72.049 Y36.532 Z.6
G1 Z.2
G1 E.8 F1800
G1 F6000
G1 X71.503 Y36.285 E.01621
G3 X72.399 Y32.152 I1.073 J-1.931 E.15248
G3 X73.294 Y36.431 I.165 J2.199 E.17149
G1 X73.301 Y36.588 E.00427
G3 X75.575 Y39.477 I-.746 J2.927 E.1068
G1 X75.575 Y60.873 E.57808
G3 X73.773 Y63.603 I-3.039 J-.046 E.09334
G1 X73.354 Y63.769 E.01219
G3 X74.623 Y65.039 I-.923 J2.192 E.04974
G3 X73.753 Y67.714 I-2.099 J.796 E.08214
G1 X73.356 Y67.93 E.01223
G3 X75.357 Y69.722 I-.942 J3.066 E.0749
G3 X75.575 Y70.827 I-3.15 J1.196 E.03058
G1 X75.575 Y80.523 E.26196
G3 X69.561 Y80.523 I-3.007 J-.025 E.25391
G1 X69.561 Y70.827 E.26196
G3 X71.363 Y68.097 I3.039 J.046 E.09334
G1 X71.805 Y67.922 E.01284
G3 X71.803 Y63.779 I.772 J-2.072 E.14502
G3 X70.414 Y62.947 I1.052 J-3.332 E.04415
G3 X69.561 Y60.873 I2.218 J-2.124 E.06204
G1 X69.561 Y39.477 E.57808
G3 X72.01 Y36.54 I3.041 J.046 E.11174
G1 E-.56 F1800
;WIPE_START
G1 F6000
G1 X71.503 Y36.285 E-.13623
G1 X71.212 Y36.094 E-.0835
G1 X71.15 Y36.037 E-.02027
;WIPE_END
G1 Z.6 F36000
G1 X70.72 Y65.889 Z.6
G1 Z.2
G1 E.8 F1800
;TYPE:Outer wall
G1 F6000
G1 X70.712 Y65.85 E.00108
G3 X71.675 Y64.228 I1.849 J.002 E.05349
G3 X72.435 Y64.007 I.936 J1.8 E.02151
G3 X70.734 Y66.141 I.126 J1.845 E.23095
G1 X70.722 Y65.929 E.00575
G1 E-.56 F1800
;WIPE_START
G1 F6000
G1 X70.712 Y65.85 E-.01915
G1 X70.74 Y65.561 E-.06976
G1 X70.81 Y65.272 E-.07126
G1 X70.919 Y65.01 E-.06818
G1 X70.945 Y64.969 E-.01165
;WIPE_END
G1 Z.6 F36000
G1 X70.773 Y68.905 Z.6
G1 Z.2
G1 E.8 F1800
G1 F6000
G1 X70.849 Y68.834 E.00281
G3 X72.399 Y68.205 I1.723 J2.019 E.04597
G3 X75.218 Y70.839 I.161 J2.654 E.11665
G1 X75.218 Y80.511 E.26134
G3 X69.918 Y80.511 I-2.65 J-.014 E.22421
G1 X69.918 Y70.839 E.26134
G3 X70.667 Y69.005 I2.655 J.015 E.05483
G1 X70.744 Y68.933 E.00286
G1 E-.56 F1800
;WIPE_START
G1 F6000
G1 X70.849 Y68.834 E-.03454
G1 X71.126 Y68.627 E-.08303
G1 X71.416 Y68.464 E-.07981
G1 X71.58 Y68.397 E-.04262
;WIPE_END
G1 Z.6 F36000
G1 X70.303 Y62.218 Z.6
G1 Z.2
G1 E.8 F1800
G1 F6000
G1 X70.258 Y62.147 E.00227
G3 X69.918 Y60.861 I2.31 J-1.299 E.03631
G1 X69.918 Y39.489 E.57746
G3 X72.399 Y36.855 I2.655 J.015 E.10756
G3 X75.218 Y39.489 I.161 J2.654 E.11665
G1 X75.218 Y60.861 E.57746
G3 X70.447 Y62.436 I-2.65 J-.014 E.17857
G1 X70.325 Y62.251 E.00597
G1 E-.56 F1800
;WIPE_START
G1 F6000
G1 X70.258 Y62.147 E-.02976
G1 X70.111 Y61.843 E-.0809
G1 X69.986 Y61.434 E-.10269
G1 X69.965 Y61.325 E-.02664
;WIPE_END
G1 Z.6 F36000
G1 X72.594 Y36.196 Z.6
G1 Z.2
G1 E.8 F1800
G1 F6000
G1 X72.512 Y36.2 E.00222
G3 X71.675 Y32.728 I.049 J-1.848 E.13069
G3 X72.435 Y32.507 I.936 J1.8 E.02151
G3 X72.8 Y36.185 I.126 J1.845 E.15385
G1 X72.634 Y36.194 E.00449
G1 E-.56 F1800
;WIPE_START
G1 F6000
G1 X72.512 Y36.2 E-.02935
G1 X72.223 Y36.169 E-.06973
G1 X71.941 Y36.091 E-.0702
G1 X71.675 Y35.972 E-.06988
G1 X71.673 Y35.97 E-.00084
;WIPE_END
G1 Z.6 F36000
G1 X64.91 Y102.153 Z.6
G1 Z.2
G1 E.8 F1800
;TYPE:Inner wall
G1 F6000
G1 X66.751 Y94.059 E.22427
G2 X67.289 Y89.267 I-21.14 J-4.801 E.13056
G1 X67.289 Y30.733 E1.58154
G2 X66.751 Y25.941 I-21.678 J.008 E.13057
G1 X64.91 Y17.847 E.22427
G2 X67.503 Y17.265 I.665 J-3.104 E.0741
G1 X68.381 Y21.123 E.1069
G2 X75.19 Y29.276 I11.417 J-2.615 E.2979
G3 X77.847 Y33.266 I-1.649 J3.978 E.13735
G1 X77.847 Y86.734 E1.44464
G3 X75.19 Y90.724 I-4.306 J.012 E.13736
G2 X68.381 Y98.877 I4.608 J10.769 E.29789
G1 X67.502 Y102.742 E.10709
G2 X64.949 Y102.145 I-1.943 J2.553 E.07297
G1 X64.424 Y102.679 F36000
G1 F6000
G1 X66.402 Y93.983 E.24095
G2 X66.932 Y89.264 I-20.802 J-4.726 E.12858
G1 X66.932 Y30.736 E1.58136
G2 X66.402 Y26.017 I-21.332 J.006 E.12859
G1 X64.424 Y17.322 E.24093
G2 X67.713 Y16.579 I1.135 J-2.631 E.09742
G1 X68.728 Y21.039 E.12357
G2 X75.341 Y28.953 I11.072 J-2.532 E.28924
G3 X78.204 Y33.259 I-1.8 J4.302 E.1481
G1 X78.204 Y86.741 E1.44504
G3 X75.341 Y91.047 I-4.663 J.005 E.1481
G2 X68.728 Y98.961 I4.459 J10.446 E.28924
G1 X67.713 Y103.421 E.12357
G2 X64.461 Y102.663 I-2.153 J1.883 E.09637
G1 X63.881 Y103.454 F36000
G1 F6000
G1 X66.053 Y93.907 E.26455
G2 X66.575 Y89.26 I-20.464 J-4.651 E.1266
G1 X66.575 Y30.74 E1.58118
G2 X66.053 Y26.093 I-20.986 J.004 E.1266
G1 X63.881 Y16.546 E.26455
G2 X67.639 Y16.076 I1.68 J-1.826 E.11641
G1 X67.868 Y15.65 E.01306
G1 X69.075 Y20.955 E.14699
G2 X75.492 Y28.629 I10.727 J-2.449 E.28059
G3 X78.561 Y33.252 I-1.951 J4.626 E.15884
G1 X78.561 Y86.748 E1.44543
G3 X75.492 Y91.371 I-5.021 J-.003 E.15885
G2 X69.075 Y99.045 I4.31 J10.124 E.28059
G1 X67.868 Y104.35 E.14699
G2 X65.598 Y102.792 I-2.35 J.991 E.0786
G2 X63.911 Y103.428 I-.009 J2.533 E.0498
G1 E-.56 F1800
;WIPE_START
G1 F6000
G1 X64.13 Y102.452 E-.24
;WIPE_END
G1 Z.6 F36000
G1 X66.601 Y16.573 Z.6
G1 Z.2
G1 E.8 F1800
;TYPE:Outer wall
G1 F6000
G1 X66.41 Y16.675 E.00586
G3 X63.697 Y13.865 I-.834 J-1.91 E.13677
G3 X65.506 Y12.683 I1.873 J.892 E.06141
G3 X66.935 Y16.345 I.056 J2.088 E.13833
G3 X66.684 Y16.53 I-1.359 J-1.58 E.00845
G1 X66.637 Y16.554 E.00142
G1 E-.56 F1800
;WIPE_START
G1 F6000
G1 X66.41 Y16.675 E-.06166
G1 X66.198 Y16.753 E-.05431
G1 X65.89 Y16.825 E-.07585
G1 X65.69 Y16.842 E-.04818
;WIPE_END
G1 Z.6 F36000
G1 X64.661 Y103.357 Z.6
G1 Z.2
G1 E.8 F1800
G1 F6000
G1 X64.69 Y103.343 E.00087
G3 X65.505 Y103.153 I.863 J1.854 E.02276
G3 X67.312 Y106.367 I.07 J2.075 E.12258
G3 X63.58 Y104.659 I-1.743 J-1.123 E.15994
G3 X64.422 Y103.494 I1.973 J.539 E.03968
G1 X64.627 Y103.377 E.00636
G1 E-.56 F1800
;WIPE_START
G1 F6000
G1 X64.69 Y103.343 E-.0173
G1 X64.978 Y103.234 E-.07386
G1 X65.278 Y103.169 E-.07358
G1 X65.505 Y103.153 E-.0547
G1 X65.59 Y103.158 E-.02055
;WIPE_END
G1 Z.6 F36000
G1 X64.256 Y107.292 Z.6
G1 Z.2
G1 E.8 F1800
G1 F6000
G1 X64.244 Y107.275 E.00055
G3 X63.204 Y104.707 I1.326 J-2.032 E.07968
G2 X63.55 Y103.298 I-41.093 J-10.858 E.0392
G1 X65.704 Y93.831 E.26233
G2 X66.218 Y89.257 I-20.126 J-4.576 E.12462
G1 X66.218 Y30.743 E1.581
G2 X65.704 Y26.169 I-20.639 J.002 E.12462
G2 X63.44 Y16.227 I-1045.639 J232.928 E.27549
G3 X63.155 Y15.004 I15.219 J-4.19 E.03394
G3 X65.667 Y12.326 I2.42 J-.247 E.11242
G3 X67.935 Y14.217 I-.099 J2.424 E.08576
G2 X68.233 Y15.642 I40.497 J-7.72 E.03932
G1 X69.422 Y20.87 E.14488
G2 X75.642 Y28.305 I10.382 J-2.366 E.27194
G3 X78.918 Y33.244 I-2.103 J4.95 E.16959
G1 X78.918 Y86.756 E1.44583
G3 X75.642 Y91.695 I-5.378 J-.011 E.16959
G2 X69.422 Y99.13 I4.161 J9.801 E.27194
G2 X68.127 Y104.835 I594.96 J138.052 E.15808
G3 X67.854 Y106.064 I-15.699 J-2.843 E.03402
G3 X64.493 Y107.417 I-2.283 J-.821 E.1105
G1 X64.292 Y107.31 E.00617
G1 E-.56 F1800
;WIPE_START
G1 F6000
G1 X64.244 Y107.275 E-.01421
G1 X64.01 Y107.111 E-.06872
G1 X63.753 Y106.861 E-.0859
G1 X63.575 Y106.635 E-.06923
G1 X63.571 Y106.628 E-.00194
;WIPE_END
G1 Z.6 F36000
G1 X63.543 Y104.19 Z.6
G1 Z.2
G1 E.8 F1800
;TYPE:Gap infill
;WIDTH:0.118705
G1 F6000
G1 X63.593 Y104.057 E.00082
;WIDTH:0.141731
G3 X63.721 Y103.857 I.379 J.101 E.0018
;WIDTH:0.113581
G1 X63.796 Y103.779 E.00058
;WIDTH:0.0941982
G1 X63.838 Y103.739 E.00022
G1 E-.78267 F1800
;WIPE_START
G1 F6000
G1 X63.796 Y103.779 E-.01733
;WIPE_END
G1 Z.6 F36000
G1 X67.768 Y104.588 Z.6
G1 Z.2
G1 E.8 F1800
;WIDTH:0.123268
G1 F6000
G1 X67.828 Y104.748 E.00104
;WIDTH:0.153237
G1 X67.871 Y104.868 E.00106
;WIDTH:0.155892
G1 X67.87 Y104.956 E.00075
;WIDTH:0.115084
G1 X67.854 Y105.165 E.00115
G1 E-.73709 F1800
;WIPE_START
G1 F6000
G1 X67.87 Y104.956 E-.06291
;WIPE_END
G1 Z.6 F36000
G1 X73.132 Y68.055 Z.6
G1 Z.2
G1 E.8 F1800
;WIDTH:0.140815
G1 F6000
G1 X72.92 Y67.999 E.00162
;WIDTH:0.188548
G1 X72.849 Y67.949 E.00095
G1 X72.88 Y67.927 E.00042
;WIDTH:0.172567
G1 X72.911 Y67.904 E.00038
;WIDTH:0.131597
G1 X73.063 Y67.849 E.00108
;WIDTH:0.0988218
G1 X73.148 Y67.815 E.00039
G1 X72.849 Y67.949 F36000
;WIDTH:0.199739
G1 F6000
G1 X72.749 Y67.947 E.00119
G3 X72.346 Y67.946 I-.198 J-5.126 E.00478
;WIDTH:0.190005
G1 X72.313 Y67.921 E.00047
;WIDTH:0.146683
G1 X72.279 Y67.896 E.00033
;WIDTH:0.114889
G1 X72.143 Y67.855 E.00077
G1 E-.75734 F1800
;WIPE_START
G1 F6000
G1 X72.279 Y67.896 E-.04266
;WIPE_END
G1 Z.6 F36000
G1 X72.144 Y63.845 Z.6
G1 Z.2
G1 E.8 F1800
;WIDTH:0.113734
G1 F6000
G1 X72.273 Y63.806 E.00072
;WIDTH:0.145849
G1 X72.306 Y63.78 E.00033
;WIDTH:0.191023
G1 X72.34 Y63.754 E.00048
;WIDTH:0.199355
G1 X72.309 Y63.735 E.00043
;WIDTH:0.170843
G1 X72.278 Y63.717 E.00035
;WIDTH:0.135917
G1 X72.123 Y63.677 E.00113
;WIDTH:0.115251
G1 X72.004 Y63.645 E.00067
G1 X72.34 Y63.754 F36000
;WIDTH:0.199932
G1 F6000
G3 X72.749 Y63.753 I.212 J5.638 E.00486
G1 X72.845 Y63.751 E.00114
G1 X72.88 Y63.725 F36000
;WIDTH:0.157742
G1 F6000
G1 X72.916 Y63.7 E.00038
;WIDTH:0.113956
G1 X73.119 Y63.647 E.00113
G1 X72.984 Y63.822 F36000
;WIDTH:0.145277
G1 F6000
G1 X72.906 Y63.794 E.00065
;WIDTH:0.192798
G1 X72.845 Y63.751 E.00085
G1 X72.88 Y63.725 E.0005
G1 X72.984 Y63.822 F36000
;WIDTH:0.118829
G1 F6000
G1 X73.148 Y63.885 E.00101
G1 E-.74741 F1800
;WIPE_START
G1 F6000
G1 X72.984 Y63.822 E-.05259
;WIPE_END
G1 Z.6 F36000
G1 X73.123 Y36.6 Z.6
G1 Z.2
G1 E.8 F1800
;WIDTH:0.198774
G1 F6000
G1 X72.498 Y36.455 E.00756
;WIDTH:0.179408
G1 X72.394 Y36.427 E.00111
;WIDTH:0.145601
G1 X72.291 Y36.399 E.00083
;WIDTH:0.118219
G1 X72.143 Y36.355 E.00088
G1 X72.346 Y36.362 F36000
;WIDTH:0.303491
G1 F6000
G1 X72.536 Y36.442 E.00406
;WIDTH:0.327051
G1 X72.725 Y36.522 E.00443
;WIDTH:0.376271
G2 X73.119 Y36.516 I.102 J-6.005 E.00993
G1 E-.68187 F1800
;WIPE_START
G1 F6000
G1 X72.725 Y36.522 E-.11813
;WIPE_END
G1 Z.6 F36000
G1 X71.469 Y36.513 Z.6
G1 Z.2
G1 E.8 F1800
;WIDTH:0.107772
G1 F6000
G1 X71.323 Y36.407 E.00089
G1 E-.74587 F1800
;WIPE_START
G1 F6000
G1 X71.469 Y36.513 E-.05413
;WIPE_END
G1 Z.6 F36000
G1 X66.262 Y17.95 Z.6
G1 Z.2
G1 E.8 F1800
;TYPE:Bottom surface
;WIDTH:0.4008
G1 F12600
G1 X67.384 Y17.95 E.0304
G1 X67.466 Y18.308 E.00994
G1 X65.289 Y18.308 E.05894
G1 X65.371 Y18.666 E.00994
G1 X67.547 Y18.666 E.05894
G1 X67.629 Y19.024 E.00994
G1 X65.452 Y19.024 E.05894
G1 X65.534 Y19.382 E.00994
G1 X67.71 Y19.382 E.05894
G1 X67.791 Y19.74 E.00994
G1 X65.615 Y19.74 E.05894
G1 X65.696 Y20.098 E.00994
G1 X67.873 Y20.098 E.05894
G1 X67.954 Y20.456 E.00994
G1 X65.778 Y20.456 E.05894
G1 X65.859 Y20.814 E.00994
G1 X68.036 Y20.814 E.05893
G1 X68.117 Y21.171 E.00994
G1 X65.941 Y21.171 E.05893
G1 X66.022 Y21.529 E.00994
G1 X68.209 Y21.529 E.05922
G2 X68.304 Y21.887 I3.069 J-.624 E.01003
G1 X66.104 Y21.887 E.05959
G1 X66.185 Y22.245 E.00994
G1 X68.42 Y22.245 E.06052
G2 X68.541 Y22.603 I3.081 J-.841 E.01023
G1 X66.266 Y22.603 E.06159
G1 X66.348 Y22.961 E.00994
G1 X68.68 Y22.961 E.06316
G2 X68.829 Y23.319 I3.095 J-1.077 E.0105
G1 X66.429 Y23.319 E.06498
G1 X66.511 Y23.677 E.00994
G1 X68.993 Y23.677 E.06723
G2 X69.173 Y24.034 I3.112 J-1.338 E.01085
G1 X66.592 Y24.034 E.06989
G1 X66.673 Y24.392 E.00994
G1 X69.364 Y24.392 E.07285
G2 X69.578 Y24.75 I3.127 J-1.627 E.0113
G1 X66.755 Y24.75 E.07644
G1 X66.836 Y25.108 E.00994
G1 X69.801 Y25.108 E.08028
G1 X70.05 Y25.466 E.01181
G1 X66.918 Y25.466 E.08482
G1 X66.999 Y25.824 E.00994
G1 X70.316 Y25.824 E.08982
G1 X70.598 Y26.182 E.01234
G1 X67.075 Y26.182 E.09541
G1 X67.149 Y26.54 E.0099
G1 X70.914 Y26.54 E.10196
G2 X71.251 Y26.897 I3.19 J-2.665 E.01332
G1 X67.215 Y26.897 E.1093
G1 X67.276 Y27.255 E.00983
G1 X71.612 Y27.255 E.11744
G1 X72.016 Y27.613 E.0146
G1 X67.331 Y27.613 E.12686
G1 X67.378 Y27.971 E.00977
G1 X72.458 Y27.971 E.13756
G2 X72.944 Y28.329 I3.263 J-3.925 E.01636
G1 X67.424 Y28.329 E.14949
G1 X67.457 Y28.687 E.00973
G1 X73.487 Y28.687 E.16329
G2 X74.104 Y29.045 I3.329 J-5.029 E.01933
G1 X67.49 Y29.045 E.1791
G3 X67.513 Y29.403 I-4.788 J.48 E.00971
G1 X74.819 Y29.403 E.19785
G1 X75.559 Y29.761 E.02225
G1 X67.533 Y29.761 E.21734
G3 X67.546 Y30.118 I-4.791 J.352 E.0097
G1 X76.084 Y30.118 E.2312
G3 X76.475 Y30.476 I-2.022 J2.605 E.01438
G1 X67.552 Y30.476 E.24163
G3 X67.557 Y30.834 I-9.594 J.306 E.00969
G1 X76.774 Y30.834 E.24959
G3 X77.012 Y31.192 I-1.892 J1.515 E.01165
G1 X67.557 Y31.192 E.25603
G1 X67.557 Y31.55 E.00969
G1 X71.032 Y31.55 E.09409
G1 X70.607 Y31.829 E.01377
G1 X70.521 Y31.908 E.00316
G1 X67.557 Y31.908 E.08025
G1 X67.557 Y32.266 E.00969
G1 X70.158 Y32.266 E.07043
G2 X69.897 Y32.624 I1.247 J1.183 E.01202
G1 X67.557 Y32.624 E.06337
G1 X67.557 Y32.981 E.00969
G1 X69.689 Y32.981 E.05773
G1 X69.54 Y33.339 E.0105
G1 X67.557 Y33.339 E.05369
G1 X67.557 Y33.697 E.00969
G1 X69.451 Y33.697 E.0513
G2 X69.397 Y34.055 I1.067 J.345 E.00985
G1 X67.557 Y34.055 E.04983
G1 X67.557 Y34.413 E.00969
G1 X69.379 Y34.413 E.04933
G1 X69.407 Y34.771 E.00972
G1 X67.557 Y34.771 E.0501
G1 X67.557 Y35.129 E.00969
G1 X69.48 Y35.129 E.05208
G2 X69.592 Y35.487 I1.179 J-.172 E.0102
