; HEADER_BLOCK_START
; generated by OrcaSlicer 2.3.2-rc on 2026-03-01 at 16:56:10
; total layer number: 69
; filament_density: 1.04
; filament_diameter: 1.75
; max_z_height: 12.40
; filament: 1
; HEADER_BLOCK_END

; THUMBNAIL_BLOCK_START

;
; THUMBNAIL_BLOCK_END

; THUMBNAIL_BLOCK_START

;
; THUMBNAIL_BLOCK_END

; external perimeters extrusion width = 0.40mm
; perimeters extrusion width = 0.40mm
; infill extrusion width = 0.40mm
; solid infill extrusion width = 0.40mm
; top infill extrusion width = 0.40mm
; support material extrusion width = 0.40mm
; first layer extrusion width = 0.40mm

; external perimeters extrusion width = 0.40mm
; perimeters extrusion width = 0.40mm
; infill extrusion width = 0.40mm
; solid infill extrusion width = 0.40mm
; top infill extrusion width = 0.40mm
; support material extrusion width = 0.40mm
; first layer extrusion width = 0.40mm

; external perimeters extrusion width = 0.40mm
; perimeters extrusion width = 0.40mm
; infill extrusion width = 0.40mm
; solid infill extrusion width = 0.40mm
; top infill extrusion width = 0.40mm
; support material extrusion width = 0.40mm
; first layer extrusion width = 0.40mm

; EXECUTABLE_BLOCK_START


; Pre-Processed for Cancel-Object support by preprocess_cancellation v0.2.0
; 3 known objects
EXCLUDE_OBJECT_DEFINE NAME=matchstick_light_deflector_v1_stl_id_15_copy_0 CENTER=53.593,95.883 POLYGON=[[16.805,84.374],[16.805,108.174],[103.195,108.174],[103.195,84.374]]
EXCLUDE_OBJECT_DEFINE NAME=matchstick_light_deflector_v1_stl_id_0_copy_0 CENTER=60.894,44.917 POLYGON=[[27.204,11.891],[27.204,78.79],[94.075,78.79],[94.075,11.891]]
EXCLUDE_OBJECT_DEFINE NAME=mounting_brackets_2020_stl_id_254_copy_0 CENTER=28.175,62.219 POLYGON=[[19.373,46.347],[19.373,78.915],[36.996,78.915],[36.996,46.347]]
M73 P0 R20
;TYPE:Custom
PRINT_START EXTRUDER_TEMP=255 BED_TEMP=105
G90
G21
M83 ; use relative distances for extrusion
; Filament gcode
SET_PRESSURE_ADVANCE ADVANCE=0.04; Override pressure advance value
M106 S0
;LAYER_CHANGE
;Z:0.2
;HEIGHT:0.2
;BEFORE_LAYER_CHANGE
;0.2
G92 E0

G1 E-.8 F1800
;AFTER_LAYER_CHANGE
;0.2
;_SET_FAN_SPEED_CHANGING_LAYER
SET_VELOCITY_LIMIT ACCEL=10000 ACCEL_TO_DECEL=10000
SET_VELOCITY_LIMIT SQUARE_CORNER_VELOCITY=9
; printing object matchstick-light-deflector-v1.stl id:15 copy 0
EXCLUDE_OBJECT_START NAME=matchstick_light_deflector_v1_stl_id_15_copy_0
G1 Z.6 F36000
G1 X33.417 Y92.485
G1 Z.6
G1 Z.2
G1 E.8 F1800
;TYPE:Support
;WIDTH:0.4
G1 F6000
G1 X33.417 Y99.903 E.20043
G1 X33.814 Y99.903 E.01072
G1 X33.814 Y92.646 E.19608
G1 X34.211 Y92.646 E.01072
G1 X34.211 Y100.064 E.20043
G1 X34.655 Y100.171 F36000
G1 F6000
G1 X34.655 Y92.325 E.212
G1 X33.055 Y92.325 E.04324
G1 X33.055 Y100.225 E.21345
G1 X34.655 Y100.225 E.04324
G1 E-.56 F1800
;WIPE_START
G1 F6000
G1 X33.655 Y100.225 E-.24
;WIPE_END
G1 Z.6 F36000
G1 X59.665 Y92.303 Z.6
G1 Z.2
G1 E.8 F1800
;TYPE:Support interface
G1 F6000
G1 X59.676 Y93.527 E.03306
G1 X58.453 Y92.303 E.04675
G1 X58.033 Y92.303 E.01134
G1 X58.033 Y93.096 E.02141
G1 X59.676 Y94.739 E.06279
G1 X59.676 Y95.951 E.03275
G1 X58.033 Y94.308 E.06279
G1 X58.033 Y95.52 E.03275
G1 X59.676 Y97.163 E.06279
G1 X59.676 Y98.375 E.03275
G1 X58.033 Y96.732 E.06279
G1 X58.033 Y97.944 E.03275
G1 X59.676 Y99.587 E.06279
G1 X59.676 Y100.246 E.0178
G1 X59.123 Y100.246 E.01495
G1 X58.033 Y99.156 E.04165
G1 X58.033 Y100.246 E.02945
G1 X58.945 Y100.246 E.02463
G1 E-.56 F1800
;WIPE_START
G1 F6000
G1 X58.033 Y100.246 E-.21875
G1 X58.033 Y100.157 E-.02125
;WIPE_END
G1 Z.6 F36000
G1 X70.033 Y99.214 Z.6
G1 Z.2
G1 E.8 F1800
G1 F6000
G1 X70.033 Y100.246 E.02789
G1 X71.244 Y100.246 E.03272
G1 X70.033 Y99.035 E.04627
G1 X70.033 Y97.823 E.03275
G1 X71.676 Y99.466 E.06279
G1 X71.676 Y98.254 E.03275
G1 X70.033 Y96.611 E.06279
G1 X70.033 Y95.399 E.03275
G1 X71.676 Y97.042 E.06279
G1 X71.676 Y95.83 E.03275
G1 X70.033 Y94.187 E.06279
G1 X70.033 Y92.975 E.03275
G1 X71.676 Y94.618 E.06279
G1 X71.676 Y93.406 E.03275
G1 X70.574 Y92.303 E.04213
G1 X71.676 Y92.303 E.02979
G1 X71.676 Y93.227 E.02497
G1 E-.56 F1800
;WIPE_START
G1 F6000
G1 X71.676 Y92.303 E-.22177
G1 X71.6 Y92.303 E-.01823
;WIPE_END
G1 Z.6 F36000
G1 X88.176 Y92.758 Z.6
G1 Z.2
G1 E.8 F1800
G1 F6000
G1 X88.176 Y92.303 E.01229
G1 X87.543 Y92.303 E.01711
G1 X88.176 Y92.936 E.0242
G1 X88.176 Y94.148 E.03275
G1 X86.533 Y92.505 E.06279
G1 X86.533 Y93.717 E.03275
G1 X88.176 Y95.361 E.06279
G1 X88.176 Y96.573 E.03275
G1 X86.533 Y94.929 E.06279
G1 X86.533 Y96.142 E.03275
G1 X88.176 Y97.785 E.06279
G1 X88.176 Y98.997 E.03275
G1 X86.533 Y97.354 E.06279
G1 X86.533 Y98.566 E.03275
G1 X88.176 Y100.209 E.06279
G1 X87.001 Y100.246 E.03176
G1 X86.533 Y99.778 E.01789
G1 X86.533 Y100.246 E.01265
G1 X86.823 Y100.246 E.00782
G1 E-.56 F1800
;WIPE_START
G1 F6000
G1 X86.533 Y100.246 E-.0695
G1 X86.533 Y99.778 E-.11235
G1 X86.704 Y99.949 E-.05814
;WIPE_END
G1 Z.6 F36000
G1 X44.525 Y93.226 Z.6
G1 Z.2
G1 E.8 F1800
;TYPE:Inner wall
G1 F6000
;_SUPP_INTERFACE_FAN_END
G1 X44.526 Y91.596 E.04406
G1 X47.683 Y91.596 E.08531
G1 X47.684 Y93.226 E.04406
G1 X46.105 Y92.803 E.04417
G1 X44.564 Y93.216 E.0431
G1 X44.168 Y93.975 F36000
G1 F6000
G1 X44.169 Y91.239 E.07392
G1 X48.04 Y91.239 E.1046
G1 X48.041 Y93.974 E.07391
G1 X47.656 Y93.588 E.01473
G1 X46.105 Y93.173 E.04339
G1 X44.554 Y93.588 E.04339
G1 X44.196 Y93.946 E.01367
G1 X43.82 Y94.828 F36000
G1 F6000
G1 X43.81 Y94.837 E.00036
G1 X43.812 Y90.882 E.10688
G1 X48.397 Y90.882 E.12389
G1 X48.398 Y94.837 E.10687
G1 X47.471 Y93.909 E.03546
G1 X46.105 Y93.542 E.03821
G1 X44.739 Y93.909 E.03821
G1 X43.848 Y94.8 E.03404
G1 X44.054 Y95.115 F36000
;TYPE:Outer wall
G1 F6000
G1 X44.058 Y95.094 E.00056
G1 X44.923 Y94.229 E.03307
G1 X45.545 Y94.062 E.01739
G1 X46.105 Y93.912 E.01565
G1 X47.286 Y94.229 E.03304
G1 X48.151 Y95.094 E.03306
G3 X48.434 Y96.272 I-12.429 J3.613 E.03273
G3 X48.15 Y97.454 I-17.992 J-3.691 E.03287
G1 X47.286 Y98.32 E.03306
G1 X46.105 Y98.637 E.03304
G1 X44.923 Y98.32 E.03304
G1 X44.058 Y97.455 E.03307
G3 X43.775 Y96.275 I13.706 J-3.922 E.0328
G1 X44.044 Y95.154 E.03115
G1 E-.56 F1800
;WIPE_START
G1 F6000
G1 X44.058 Y95.094 E-.01458
G1 X44.722 Y94.43 E-.22542
;WIPE_END
G1 Z.6 F36000
G1 X44.525 Y99.323 Z.6
G1 Z.2
G1 E.8 F1800
;TYPE:Inner wall
G1 F6000
G1 X46.105 Y99.746 E.04418
G1 X47.684 Y99.323 E.04417
G1 X47.683 Y100.953 E.04405
G1 X44.526 Y100.953 E.08531
G1 X44.525 Y99.363 E.04298
G1 X44.168 Y98.574 F36000
G1 F6000
G1 X44.554 Y98.961 E.01475
G1 X46.105 Y99.376 E.04339
G1 X47.656 Y98.961 E.04339
G1 X48.041 Y98.575 E.01472
G1 X48.041 Y101.31 E.07391
G1 X44.169 Y101.31 E.10461
G1 X44.168 Y98.614 E.07284
G1 E-.56 F1800
;WIPE_START
G1 F6000
G1 X44.554 Y98.961 E-.12439
G1 X45.019 Y99.085 E-.11561
;WIPE_END
G1 Z.6 F36000
G1 X48.398 Y101.482 Z.6
G1 Z.2
G1 E.8 F1800
G1 F6000
G1 X48.398 Y101.667 E.00502
G1 X43.812 Y101.667 E.1239
G1 X43.81 Y97.712 E.10688
G1 X44.739 Y98.64 E.03548
G1 X46.105 Y99.007 E.03821
G1 X47.471 Y98.64 E.03822
G1 X48.398 Y97.711 E.03546
G1 X48.398 Y99.875 E.05845
G1 X48.398 Y101.442 E.04234
G1 E-.56 F1800
;WIPE_START
G1 F6000
G1 X48.398 Y101.667 E-.0542
G1 X47.623 Y101.667 E-.1858
;WIPE_END
G1 Z.6 F36000
G1 X18.041 Y101.31 Z.6
G1 Z.2
G1 E.8 F1800
G1 F6000
G1 X17.669 Y101.31 E.01004
G1 X17.669 Y91.239 E.27213
G1 X18.041 Y91.239 E.01004
G1 X18.041 Y101.27 E.27105
G1 X18.398 Y101.667 F36000
G1 F6000
G1 X17.312 Y101.667 E.02934
G1 X17.312 Y90.882 E.29142
G1 X18.398 Y90.882 E.02934
G1 X18.398 Y101.627 E.29034
G1 E-.56 F1800
;WIPE_START
G1 F6000
G1 X17.398 Y101.664 E-.24
;WIPE_END
G1 Z.6 F36000
G1 X43.455 Y101.125 Z.6
G1 Z.2
G1 E.8 F1800
;TYPE:Outer wall
G1 F6000
G1 X18.755 Y101.125 E.66737
G1 X18.755 Y91.425 E.26208
G1 X43.455 Y91.425 E.66737
G1 X43.453 Y95.276 E.10407
G2 X43.445 Y96.769 I20.779 J.858 E.04035
G1 X43.455 Y101.085 E.1166
G1 E-.56 F1800
;WIPE_START
G1 F6000
G1 X42.455 Y101.086 E-.24
;WIPE_END
G1 Z.6 F36000
G1 X48.755 Y101.125 Z.6
G1 Z.2
G1 E.8 F1800
G1 F6000
G1 X103.045 Y101.125 E1.46688
G1 X103.045 Y102.024 E.02432
G1 X16.955 Y102.024 E2.32609
G1 X16.955 Y90.525 E.31072
G1 X103.045 Y90.525 E2.32609
G1 X103.045 Y91.425 E.02432
G1 X48.755 Y91.425 E1.46688
G2 X48.761 Y95.59 I210.133 J1.786 E.11254
G3 X48.755 Y99.875 I-382.214 J1.623 E.11577
G1 X48.755 Y101.085 E.03269
G1 X48.576 Y101.575 F36000
;TYPE:Gap infill
;WIDTH:0.585824
G1 F6000
G1 X102.867 Y101.575 E2.23025
G1 E-.56 F1800
;WIPE_START
G1 F6000
G1 X101.867 Y101.575 E-.24
;WIPE_END
G1 Z.6 F36000
G1 X102.867 Y90.975 Z.6
G1 Z.2
G1 E.8 F1800
;WIDTH:0.585842
G1 F6000
G1 X48.576 Y90.975 E2.23033
G1 E-.56 F1800
;WIPE_START
G1 F6000
G1 X49.576 Y90.975 E-.24
;WIPE_END
G1 Z.6 F36000
G1 X44.633 Y91.899 Z.6
G1 Z.2
G1 E.8 F1800
;TYPE:Bottom surface
;WIDTH:0.471415
G1 F12600
G1 X47.416 Y91.899 E.09023
G1 X47.416 Y92.328 E.01389
G1 X44.793 Y92.328 E.08503
G1 X44.793 Y92.756 E.01389
G1 X45.245 Y92.756 E.01464
G1 X46.105 Y92.526 E.02886
G1 X46.965 Y92.756 E.02886
G1 X47.577 Y92.756 E.01984
G1 E-.65714 F1800
;WIPE_START
G1 F12600
G1 X46.965 Y92.756 E-.08744
G1 X46.59 Y92.656 E-.05542
;WIPE_END
G1 Z.6 F36000
G1 X48.466 Y95.157 Z.6
M73 P1 R20
G1 Z.2
G1 E.8 F1800
;TYPE:Gap infill
;WIDTH:0.189143
G1 F6000
G1 X48.495 Y95.375 E.00243
;WIDTH:0.169399
G1 X48.525 Y95.592 E.0021
;WIDTH:0.129911
G1 X48.555 Y95.81 E.00145
;WIDTH:0.100582
G1 X48.569 Y95.935 E.00055
G1 X48.564 Y96.624 F36000
;WIDTH:0.107768
G1 F6000
G1 X48.544 Y96.785 E.0008
;WIDTH:0.141411
G1 X48.524 Y96.948 E.00122
;WIDTH:0.175908
G1 X48.495 Y97.169 E.00225
;WIDTH:0.193508
G1 X48.466 Y97.391 E.00255
G1 E-.73295 F1800
;WIPE_START
G1 F6000
G1 X48.495 Y97.169 E-.06705
;WIPE_END
G1 Z.6 F36000
G1 X44.633 Y100.082 Z.6
G1 Z.2
G1 E.8 F1800
;TYPE:Bottom surface
;WIDTH:0.471415
G1 F12600
G1 X47.416 Y100.082 E.09023
G1 X47.416 Y100.51 E.01389
G1 X44.633 Y100.51 E.09023
G1 E-.65714 F1800
;WIPE_START
G1 F12600
G1 X45.633 Y100.51 E-.14286
;WIPE_END
G1 Z.6 F36000
G1 X43.633 Y101.575 Z.6
G1 Z.2
G1 E.8 F1800
;TYPE:Gap infill
;WIDTH:0.585824
G1 F6000
G1 X18.576 Y101.575 E1.02935
G1 E-.56 F1800
;WIPE_START
G1 F6000
G1 X19.576 Y101.575 E-.24
;WIPE_END
G1 Z.6 F36000
G1 X18.576 Y90.975 Z.6
G1 Z.2
G1 E.8 F1800
;WIDTH:0.585842
G1 F6000
G1 X43.633 Y90.975 E1.02938
G1 E-.56 F1800
M73 P1 R19
;WIPE_START
G1 F6000
G1 X42.633 Y90.975 E-.24
;WIPE_END
G1 Z.6 F36000
G1 X43.744 Y95.156 Z.6
G1 Z.2
G1 E.8 F1800
;WIDTH:0.209285
G1 F6000
G1 X43.716 Y95.366 E.00266
;WIDTH:0.171609
G1 X43.688 Y95.576 E.00206
;WIDTH:0.13153
G1 X43.656 Y95.811 E.0016
;WIDTH:0.109505
G1 X43.64 Y95.944 E.00067
G1 X43.64 Y96.605 F36000
;WIDTH:0.109505
G1 F6000
G1 X43.656 Y96.738 E.00067
;WIDTH:0.13153
G1 X43.688 Y96.973 E.0016
;WIDTH:0.17161
G1 X43.716 Y97.183 E.00206
;WIDTH:0.209286
G1 X43.744 Y97.393 E.00266
; stop printing object matchstick-light-deflector-v1.stl id:15 copy 0
EXCLUDE_OBJECT_END NAME=matchstick_light_deflector_v1_stl_id_15_copy_0
; printing object matchstick-light-deflector-v1.stl id:0 copy 0
EXCLUDE_OBJECT_START NAME=matchstick_light_deflector_v1_stl_id_0_copy_0
G1 E-.73655 F1800
;WIPE_START
G1 F6000
G1 X43.716 Y97.183 E-.06345
;WIPE_END
G1 Z.6 F36000
G1 X70.148 Y59.457 Z.6
G1 Z.2
G1 E.8 F1800
;TYPE:Support
;WIDTH:0.4
G1 F6000
G1 X70.148 Y59.994 E.01451
G1 X70.544 Y60.391 E.01516
G1 X70.544 Y59.288 E.02981
G1 X70.941 Y58.891 E.01516
G1 X70.941 Y60.245 E.03658
G1 X71.338 Y59.848 E.01516
G1 X71.338 Y58.494 E.03658
G1 X71.735 Y58.097 E.01516
G1 X71.735 Y59.451 E.03658
G1 X72.132 Y59.055 E.01516
G1 X72.132 Y57.701 E.03658
G1 X72.528 Y57.304 E.01516
G1 X72.528 Y58.658 E.03658
G1 X72.925 Y58.261 E.01516
G1 X72.925 Y56.907 E.03658
G1 X73.322 Y56.51 E.01516
G1 X73.322 Y57.864 E.03658
G1 X73.719 Y57.468 E.01516
G1 X73.719 Y56.114 E.03658
G1 X74.115 Y55.717 E.01516
G1 X74.115 Y57.071 E.03658
G1 X74.512 Y56.674 E.01516
G1 X74.512 Y55.32 E.03658
G1 X74.909 Y54.923 E.01516
G1 X74.909 Y56.277 E.03658
G1 X75.306 Y55.881 E.01516
G1 X75.306 Y54.889 E.0268
G1 X75.702 Y55.285 E.01516
G1 X75.702 Y55.711 E.0115
G1 X76.218 Y55.347 F36000
G1 F6000
G1 X75.125 Y54.253 E.04179
G1 X69.538 Y59.839 E.21345
G1 X70.67 Y60.971 E.04324
G1 X76.256 Y55.385 E.21345
G1 E-.56 F1800
;WIPE_START
G1 F6000
G1 X75.549 Y56.092 E-.24
;WIPE_END
G1 Z.6 F36000
G1 X52.795 Y42.611 Z.6
G1 Z.2
G1 E.8 F1800
;TYPE:Support interface
G1 F6000
G1 X52.537 Y42.869 E.00985
G1 X53.699 Y44.031 E.0444
G1 X54.083 Y43.646 E.01468
G1 X52.922 Y42.485 E.0444
G1 X53.528 Y41.879 E.02316
G1 X54.689 Y43.04 E.0444
G1 X55.296 Y42.434 E.02316
G1 X54.134 Y41.273 E.0444
G1 X54.74 Y40.666 E.02316
G1 X55.902 Y41.828 E.0444
G1 X56.508 Y41.222 E.02316
G1 X55.346 Y40.06 E.0444
G1 X55.952 Y39.454 E.02316
G1 X57.114 Y40.616 E.0444
G1 X57.72 Y40.01 E.02316
G1 X56.558 Y38.848 E.0444
G1 X57.164 Y38.242 E.02316
G1 X58.326 Y39.404 E.0444
G1 X58.932 Y38.798 E.02316
G1 X57.77 Y37.636 E.0444
G1 X58.154 Y37.252 E.01468
G1 X59.316 Y38.414 E.0444
G1 X59.058 Y38.672 E.00985
G1 E-.56 F1800
;WIPE_START
G1 F6000
G1 X59.316 Y38.414 E-.08751
G1 X58.867 Y37.965 E-.15249
;WIPE_END
G1 Z.6 F36000
G1 X50.573 Y30.187 Z.6
G1 Z.2
G1 E.8 F1800
G1 F6000
G1 X50.831 Y29.929 E.00985
G1 X49.669 Y28.767 E.0444
G1 X49.285 Y29.151 E.01468
G1 X50.447 Y30.313 E.0444
G1 X49.84 Y30.919 E.02316
G1 X48.679 Y29.757 E.0444
G1 X48.073 Y30.363 E.02316
G1 X49.234 Y31.525 E.0444
G1 X48.628 Y32.131 E.02316
G1 X47.466 Y30.969 E.0444
G1 X46.86 Y31.575 E.02316
G1 X48.022 Y32.737 E.0444
G1 X47.416 Y33.343 E.02316
G1 X46.254 Y32.181 E.0444
G1 X45.648 Y32.787 E.02316
G1 X46.81 Y33.949 E.0444
G1 X46.204 Y34.555 E.02316
G1 X45.042 Y33.393 E.0444
G1 X44.436 Y33.999 E.02316
G1 X45.598 Y35.161 E.0444
G1 X45.214 Y35.545 E.01468
G1 X44.052 Y34.383 E.0444
G1 X44.31 Y34.126 E.00985
G1 E-.56 F1800
;WIPE_START
G1 F6000
G1 X44.052 Y34.383 E-.08751
G1 X44.501 Y34.833 E-.15249
;WIPE_END
G1 Z.6 F36000
G1 X33.025 Y22.841 Z.6
G1 Z.2
G1 E.8 F1800
G1 F6000
G1 X32.767 Y23.098 E.00985
G1 X33.9 Y24.232 E.0433
G1 X34.284 Y23.848 E.01468
G1 X33.151 Y22.714 E.0433
G1 X33.757 Y22.108 E.02316
G1 X34.89 Y23.241 E.0433
G1 X35.497 Y22.635 E.02316
G1 X34.363 Y21.502 E.0433
G1 X34.969 Y20.896 E.02316
G1 X36.103 Y22.029 E.0433
G1 X36.709 Y21.423 E.02316
G1 X35.575 Y20.29 E.0433
G1 X36.182 Y19.684 E.02316
G1 X37.315 Y20.817 E.0433
G1 X37.921 Y20.211 E.02316
G1 X36.788 Y19.078 E.0433
G1 X37.394 Y18.472 E.02316
G1 X38.527 Y19.605 E.0433
G1 X39.133 Y18.999 E.02316
G1 X38 Y17.866 E.0433
G1 X38.384 Y17.482 E.01468
G1 X39.517 Y18.615 E.0433
G1 X39.259 Y18.873 E.00985
G1 E-.56 F1800
;WIPE_START
G1 F6000
G1 X39.517 Y18.615 E-.08751
G1 X39.068 Y18.166 E-.15249
;WIPE_END
G1 Z.6 F36000
G1 X64.312 Y47.386 Z.6
G1 Z.2
G1 E.8 F1800
;TYPE:Outer wall
G1 F6000
;_SUPP_INTERFACE_FAN_END
G1 X64.33 Y47.376 E.00056
G1 X65.115 Y47.375 E.02121
G1 X65.554 Y47.375 E.01186
G1 X66.613 Y47.987 E.03304
G1 X67.224 Y49.046 E.03304
G1 X67.224 Y50.269 E.03307
G3 X66.59 Y51.305 I-12.464 J-6.918 E.0328
G3 X65.555 Y51.938 I-7.954 J-11.831 E.0328
G1 X64.331 Y51.939 E.03307
G1 X63.272 Y51.327 E.03304
G1 X62.66 Y50.268 E.03304
G1 X62.661 Y49.044 E.03307
G3 X63.295 Y48.009 I12.463 J6.917 E.0328
G1 X64.278 Y47.407 E.03115
G1 E-.56 F1800
;WIPE_START
G1 F6000
G1 X64.33 Y47.376 E-.01458
G1 X65.115 Y47.375 E-.1884
G1 X65.269 Y47.375 E-.03703
;WIPE_END
G1 Z.6 F36000
G1 X61.67 Y50.696 Z.6
G1 Z.2
G1 E.8 F1800
;TYPE:Inner wall
G1 F6000
G1 X62.488 Y52.112 E.04418
G1 X63.903 Y52.929 E.04417
G1 X62.75 Y54.082 E.04405
G1 X60.518 Y51.849 E.08531
G1 X61.642 Y50.724 E.04298
G1 X61.946 Y49.914 F36000
G1 F6000
G1 X61.946 Y50.46 E.01475
G1 X62.749 Y51.85 E.04339
G1 X64.14 Y52.653 E.04339
G1 X64.685 Y52.653 E.01473
G1 X62.75 Y54.587 E.0739
G1 X60.013 Y51.849 E.1046
G1 X61.918 Y49.942 E.07284
G1 X62.304 Y49.051 F36000
G1 F6000
G1 X62.303 Y50.364 E.03548
G1 X63.01 Y51.589 E.03821
G1 X64.235 Y52.296 E.03821
G1 X65.547 Y52.295 E.03545
G1 X62.75 Y55.092 E.10686
G1 X59.508 Y51.849 E.12389
G1 X62.276 Y49.079 E.1058
G1 E-.56 F1800
;WIPE_START
G1 F6000
G1 X62.297 Y50.079 E-.24
;WIPE_END
G1 Z.6 F36000
G1 X70.246 Y48.101 Z.6
G1 Z.2
G1 E.8 F1800
;TYPE:Outer wall
G1 F6000
G1 X88.065 Y65.92 E.68088
G1 X81.206 Y72.779 E.26209
G1 X63.387 Y54.96 E.68088
G2 X67.304 Y51.051 I-407.697 J-412.478 E.14954
