; HEADER_BLOCK_START
; generated by OrcaSlicer 2.3.1 on 2026-02-02 at 16:01:27
; total layer number: 234
; filament_density: 1.04
; filament_diameter: 1.75
; max_z_height: 46.80
; HEADER_BLOCK_END

; THUMBNAIL_BLOCK_START

;
; THUMBNAIL_BLOCK_END

; THUMBNAIL_BLOCK_START

;
; THUMBNAIL_BLOCK_END

; external perimeters extrusion width = 0.40mm
; perimeters extrusion width = 0.40mm
; infill extrusion width = 0.40mm
; solid infill extrusion width = 0.40mm
; top infill extrusion width = 0.40mm
; first layer extrusion width = 0.40mm

; EXECUTABLE_BLOCK_START


; Pre-Processed for Cancel-Object support by preprocess_cancellation v0.2.0
; 1 known objects
EXCLUDE_OBJECT_DEFINE NAME=mini_fridge_inner_latch_Rev_C_v1_3mm_stl_id_14699889308119072768_copy_0 CENTER=59.969,61.876 POLYGON=[[43.461,39.975],[43.461,76.104],[76.536,76.104],[76.536,39.975]]
M73 P0 R15
;TYPE:Custom
PRINT_START EXTRUDER_TEMP=250 BED_TEMP=110
G90
G21
M83 ; use relative distances for extrusion
; Filament gcode
SET_PRESSURE_ADVANCE ADVANCE=0.04; Override pressure advance value
M106 S0
;LAYER_CHANGE
;Z:0.2
;HEIGHT:0.2
;BEFORE_LAYER_CHANGE
;0.2
G92 E0

G1 E-.8 F1800
;AFTER_LAYER_CHANGE
;0.2
;_SET_FAN_SPEED_CHANGING_LAYER
SET_VELOCITY_LIMIT ACCEL=10000 ACCEL_TO_DECEL=10000
SET_VELOCITY_LIMIT SQUARE_CORNER_VELOCITY=9
; printing object mini_fridge_inner_latch Rev C v1 -3mm.stl id:14699889308119072768 copy 0
EXCLUDE_OBJECT_START NAME=mini_fridge_inner_latch_Rev_C_v1_3mm_stl_id_14699889308119072768_copy_0
G1 Z.6 F36000
G1 X46.667 Y46.773
G1 Z.6
G1 Z.2
G1 E.8 F1800
;TYPE:Brim
;WIDTH:0.4
G1 F6000
G1 X47.427 Y46.097 E.02749
G1 X48.249 Y45.497 E.02749
G1 X49.124 Y44.979 E.02749
G1 X50.046 Y44.548 E.02748
G1 X51.131 Y44.171 E.03105
G1 X52.174 Y43.922 E.02897
G1 X52.847 Y43.831 E.01836
G1 X52.955 Y43.775 E.00327
G1 X53.666 Y43.003 E.02836
G1 X54.426 Y42.327 E.02748
G1 X55.248 Y41.727 E.02749
G1 X56.123 Y41.209 E.02749
G1 X57.045 Y40.778 E.02748
G1 X58.13 Y40.401 E.03105
G1 X59.173 Y40.152 E.02897
G1 X60.181 Y40.015 E.0275
G1 X61.098 Y39.975 E.02478
G1 X63.769 Y39.975 E.07219
G1 X64.79 Y40.025 E.02761
G1 X65.797 Y40.172 E.02749
G1 X66.785 Y40.415 E.02749
G1 X67.743 Y40.752 E.02746
G1 X68.874 Y41.293 E.03387
G1 X69.824 Y41.874 E.03008
G1 X70.633 Y42.49 E.02748
G1 X71.38 Y43.181 E.02749
G1 X72.056 Y43.941 E.02749
G1 X72.656 Y44.763 E.02749
G1 X73.174 Y45.639 E.02749
G1 X73.605 Y46.56 E.02747
G1 X73.997 Y47.698 E.03253
G1 X74.231 Y48.688 E.02748
G1 X74.368 Y49.697 E.0275
G1 X74.408 Y50.613 E.02478
G1 X74.408 Y58.463 E.21209
G1 X74.44 Y58.565 E.00289
G1 X74.833 Y59.128 E.01856
G1 X75.338 Y60.013 E.02752
G1 X75.713 Y60.833 E.02437
G1 X76.057 Y61.792 E.02752
G1 X76.302 Y62.757 E.02691
G1 X76.478 Y63.863 E.03025
G1 X76.536 Y64.911 E.02837
G1 X76.501 Y65.928 E.02749
G1 X76.345 Y67.059 E.03083
G1 X76.112 Y68.051 E.02754
G1 X75.921 Y68.65 E.01698
G1 X75.491 Y69.724 E.03127
G1 X75.018 Y70.624 E.02748
G1 X74.461 Y71.476 E.02749
G1 X73.824 Y72.269 E.02749
G1 X73.114 Y72.996 E.02744
G1 X71.99 Y73.906 E.03907
G1 X71.038 Y74.514 E.03054
G1 X70.13 Y74.972 E.02748
G1 X69.182 Y75.341 E.02749
G1 X68.202 Y75.616 E.02749
G1 X67.202 Y75.796 E.02745
G1 X65.837 Y75.884 E.03696
G1 X59.621 Y75.882 E.16794
G1 X57.037 Y76.077 E.07002
G1 X56.016 Y76.104 E.02761
G1 X55.001 Y76.034 E.02749
G1 X53.997 Y75.865 E.02749
G1 X53.016 Y75.601 E.02746
G1 X51.847 Y75.147 E.03387
G1 X50.857 Y74.639 E.03008
G1 X50.003 Y74.086 E.02748
G1 X49.207 Y73.453 E.02749
G1 X48.475 Y72.746 E.02749
G1 X47.815 Y71.972 E.02749
G1 X47.233 Y71.138 E.02749
G1 X46.734 Y70.251 E.02748
G1 X46.281 Y69.211 E.03064
G1 X45.953 Y68.191 E.02896
G1 X45.739 Y67.196 E.0275
G1 X45.676 Y66.728 E.01275
G1 X45.466 Y66.203 E.0153
G1 X45.242 Y65.567 E.0182
G1 X44.927 Y64.478 E.03065
G1 X44.778 Y63.821 E.0182
G1 X44.658 Y63.159 E.01819
G1 X44.516 Y61.98 E.03208
G1 X44.264 Y61.418 E.01663
G1 X43.871 Y60.28 E.03253
G1 X43.638 Y59.29 E.02748
G1 X43.501 Y58.281 E.0275
G1 X43.461 Y57.365 E.02478
G1 X43.461 Y54.383 E.08057
G1 X43.51 Y53.363 E.02761
G1 X43.657 Y52.356 E.02749
G1 X43.901 Y51.368 E.02749
G1 X44.238 Y50.409 E.02746
G1 X44.778 Y49.278 E.03387
G1 X45.36 Y48.329 E.03008
G1 X45.976 Y47.52 E.02748
G1 X46.64 Y46.802 E.02641
G1 X46.902 Y47.045 F36000
G1 F6000
G1 X46.914 Y47.032 E.00047
G1 X47.648 Y46.378 E.02656
G1 X48.441 Y45.798 E.02656
G1 X49.287 Y45.298 E.02656
G1 X50.185 Y44.878 E.0268
G1 X51.226 Y44.516 E.02977
G1 X52.234 Y44.275 E.02801
G1 X52.886 Y44.186 E.01778
G1 X53.016 Y44.144 E.00367
G1 X53.226 Y44.007 E.0068
G1 X53.913 Y43.262 E.02738
G1 X54.646 Y42.608 E.02654
G1 X55.449 Y42.023 E.02684
G1 X56.286 Y41.528 E.02628
G1 X57.174 Y41.112 E.0265
G1 X58.225 Y40.746 E.03007
G1 X59.233 Y40.505 E.02801
G1 X60.218 Y40.371 E.02685
G1 X61.108 Y40.332 E.02406
G1 X63.763 Y40.332 E.07176
G1 X64.761 Y40.381 E.02698
G1 X65.733 Y40.524 E.02656
G1 X66.687 Y40.759 E.02656
G1 X67.612 Y41.085 E.02649
G1 X68.699 Y41.605 E.03254
G1 X69.617 Y42.166 E.02909
G1 X70.407 Y42.767 E.02681
G1 X71.128 Y43.435 E.02656
G1 X71.774 Y44.162 E.02628
G1 X72.36 Y44.964 E.02684
G1 X72.855 Y45.801 E.02628
G1 X73.271 Y46.689 E.02648
G1 X73.655 Y47.803 E.03184
G1 X73.88 Y48.758 E.02652
G1 X74.012 Y49.733 E.02659
G1 X74.05 Y50.623 E.02406
G1 X74.05 Y58.454 E.2116
G1 X74.069 Y58.573 E.00324
G1 X74.153 Y58.779 E.00602
G1 X74.533 Y59.324 E.01794
G1 X75.018 Y60.171 E.02638
G1 X75.383 Y60.972 E.02378
G1 X75.713 Y61.892 E.0264
G1 X75.951 Y62.825 E.02602
G1 X76.122 Y63.896 E.0293
G1 X76.179 Y64.91 E.02746
G1 X76.144 Y65.903 E.02684
G1 X75.994 Y66.988 E.0296
G1 X75.766 Y67.96 E.02696
G1 X75.584 Y68.533 E.01624
G1 X75.168 Y69.569 E.03017
G1 X74.713 Y70.439 E.02652
G1 X74.168 Y71.269 E.02684
G1 X73.552 Y72.035 E.02656
G1 X72.868 Y72.735 E.02644
G1 X71.776 Y73.619 E.03796
G1 X70.856 Y74.206 E.0295
G1 X69.98 Y74.648 E.02651
G1 X69.063 Y75.003 E.02656
G1 X68.127 Y75.266 E.02628
G1 X67.165 Y75.439 E.02642
G1 X65.829 Y75.526 E.03617
G1 X59.625 Y75.525 E.16762
G1 X57.021 Y75.72 E.07055
G1 X56.028 Y75.747 E.02684
G1 X55.037 Y75.678 E.02684
G1 X54.078 Y75.517 E.02628
G1 X53.133 Y75.263 E.02646
G1 X51.999 Y74.823 E.03285
G1 X51.041 Y74.332 E.02909
G1 X50.216 Y73.799 E.02653
G1 X49.439 Y73.181 E.02684
G1 X48.732 Y72.497 E.02656
G1 X48.101 Y71.757 E.02628
G1 X47.538 Y70.952 E.02656
G1 X47.052 Y70.087 E.0268
G1 X46.614 Y69.08 E.02967
G1 X46.297 Y68.093 E.028
G1 X46.092 Y67.139 E.02638
G1 X46.003 Y66.585 E.01516
G1 X45.583 Y65.461 E.03241
G1 X45.273 Y64.385 E.03025
G1 X45.128 Y63.747 E.01769
G1 X45.012 Y63.108 E.01754
G1 X44.872 Y61.945 E.03166
G1 X44.839 Y61.826 E.00335
G1 X44.595 Y61.282 E.0161
G1 X44.214 Y60.175 E.03162
G1 X43.989 Y59.22 E.02652
G1 X43.857 Y58.255 E.02632
G1 X43.818 Y57.355 E.02432
G1 X43.818 Y54.395 E.07999
G1 X43.866 Y53.402 E.02684
G1 X44.009 Y52.42 E.02684
G1 X44.245 Y51.465 E.02656
G1 X44.571 Y50.541 E.02649
G1 X45.09 Y49.454 E.03254
G1 X45.652 Y48.536 E.02909
G1 X46.246 Y47.754 E.02653
G1 X46.875 Y47.074 E.02501
G1 X47.137 Y47.316 F36000
G1 F6000
G1 X47.161 Y47.291 E.00094
G1 X47.868 Y46.66 E.02562
G1 X48.634 Y46.1 E.02562
G1 X49.449 Y45.616 E.02562
G1 X50.325 Y45.207 E.02612
G1 X51.322 Y44.861 E.0285
G1 X52.295 Y44.627 E.02705
G1 X52.927 Y44.54 E.01724
G1 X53.215 Y44.44 E.00824
G1 X53.496 Y44.241 E.00932
G1 X54.16 Y43.521 E.02646
G1 X54.867 Y42.89 E.0256
G1 X55.65 Y42.319 E.02618
G1 X56.457 Y41.842 E.02535
G1 X57.304 Y41.445 E.02525
G1 X58.321 Y41.091 E.02909
G1 X59.294 Y40.857 E.02704
G1 X60.255 Y40.727 E.0262
G1 X61.118 Y40.689 E.02334
G1 X63.752 Y40.689 E.07118
G1 X64.731 Y40.738 E.02648
G1 X65.669 Y40.876 E.02562
G1 X66.59 Y41.103 E.02562
G1 X67.48 Y41.418 E.02552
G1 X68.523 Y41.916 E.03122
G1 X69.411 Y42.459 E.02811
G1 X70.181 Y43.044 E.02614
G1 X70.869 Y43.682 E.02534
G1 X71.493 Y44.382 E.02535
G1 X72.064 Y45.165 E.02618
G1 X72.541 Y45.973 E.02535
G1 X72.937 Y46.818 E.02521
G1 X73.313 Y47.907 E.03114
G1 X73.529 Y48.828 E.02556
G1 X73.656 Y49.77 E.02567
G1 X73.693 Y50.633 E.02334
G1 X73.693 Y58.448 E.21115
G1 X73.715 Y58.622 E.00475
G1 X73.866 Y58.991 E.01077
G1 X74.233 Y59.519 E.01737
G1 X74.697 Y60.33 E.02525
G1 X75.054 Y61.111 E.02319
G1 X75.37 Y61.992 E.02528
G1 X75.6 Y62.892 E.02512
G1 X75.765 Y63.928 E.02835
G1 X75.821 Y64.909 E.02654
G1 X75.787 Y65.878 E.02619
G1 X75.643 Y66.918 E.02838
G1 X75.421 Y67.869 E.02638
G1 X75.246 Y68.415 E.0155
G1 X74.846 Y69.414 E.02908
G1 X74.407 Y70.253 E.02557
G1 X73.882 Y71.055 E.0259
G1 X73.281 Y71.802 E.0259
G1 X72.623 Y72.475 E.02544
G1 X71.562 Y73.332 E.03684
G1 X70.674 Y73.898 E.02845
G1 X69.83 Y74.323 E.02555
G1 X68.945 Y74.666 E.02562
G1 X68.042 Y74.919 E.02535
G1 X67.127 Y75.083 E.0251
G1 X65.821 Y75.169 E.03538
G1 X59.629 Y75.168 E.16729
G1 X57.005 Y75.363 E.07109
G1 X56.041 Y75.389 E.02607
G1 X55.074 Y75.322 E.02618
G1 X54.149 Y75.166 E.02534
G1 X53.249 Y74.925 E.02518
G1 X52.151 Y74.499 E.03184
G1 X51.224 Y74.025 E.02811
G1 X50.421 Y73.505 E.02586
G1 X49.671 Y72.908 E.0259
G1 X48.997 Y72.256 E.02534
G1 X48.387 Y71.543 E.02535
G1 X47.844 Y70.766 E.02562
G1 X47.37 Y69.923 E.02613
G1 X46.947 Y68.949 E.02869
G1 X46.642 Y67.996 E.02704
G1 X46.444 Y67.076 E.02543
G1 X46.334 Y66.45 E.01715
G1 X45.924 Y65.353 E.03166
G1 X45.618 Y64.293 E.0298
G1 X45.478 Y63.678 E.01705
G1 X45.366 Y63.058 E.01701
G1 X45.214 Y61.843 E.03308
G1 X45.162 Y61.673 E.00481
G1 X44.925 Y61.146 E.01562
G1 X44.556 Y60.071 E.03072
G1 X44.341 Y59.16 E.02529
G1 X44.214 Y58.227 E.02542
G1 X44.175 Y57.345 E.02387
G1 X44.175 Y54.406 E.07942
G1 X44.221 Y53.442 E.02607
G1 X44.359 Y52.494 E.0259
G1 X44.589 Y51.563 E.0259
G1 X44.904 Y50.672 E.02552
G1 X45.402 Y49.63 E.03122
G1 X45.945 Y48.742 E.02811
G1 X46.517 Y47.988 E.02558
G1 X47.11 Y47.346 E.0236
G1 X47.372 Y47.588 F36000
G1 F6000
G1 X47.408 Y47.55 E.00141
G1 X48.089 Y46.941 E.02469
G1 X48.826 Y46.401 E.02469
G1 X49.612 Y45.935 E.02468
G1 X50.465 Y45.536 E.02544
G1 X51.417 Y45.206 E.02723
G1 X52.356 Y44.98 E.02609
G1 X52.966 Y44.895 E.01665
G1 X53.326 Y44.78 E.01021
G1 X53.427 Y44.728 E.00306
G1 X53.766 Y44.475 E.01141
G1 X54.407 Y43.779 E.02558
G1 X55.088 Y43.171 E.02466
G1 X55.851 Y42.615 E.02552
G1 X56.62 Y42.16 E.02414
G1 X57.434 Y41.779 E.02429
G1 X58.416 Y41.435 E.02812
G1 X59.354 Y41.21 E.02607
G1 X60.292 Y41.082 E.02555
G1 X61.128 Y41.046 E.02261
G1 X63.741 Y41.047 E.0706
G1 X64.701 Y41.094 E.02599
G1 X65.605 Y41.228 E.02469
G1 X66.492 Y41.448 E.02469
G1 X67.349 Y41.751 E.02455
G1 X68.348 Y42.228 E.02991
G1 X69.204 Y42.751 E.02712
G1 X69.955 Y43.322 E.02547
G1 X70.617 Y43.936 E.02441
G1 X71.211 Y44.603 E.02414
G1 X71.768 Y45.366 E.02552
G1 X72.222 Y46.135 E.02414
G1 X72.603 Y46.947 E.02423
G1 X72.97 Y48.012 E.03044
G1 X73.178 Y48.898 E.0246
G1 X73.3 Y49.807 E.02476
G1 X73.336 Y50.643 E.02262
G1 X73.336 Y58.442 E.21072
G1 X73.36 Y58.655 E.00578
G1 X73.533 Y59.118 E.01335
G1 X73.934 Y59.714 E.01941
G1 X74.377 Y60.489 E.02413
G1 X74.724 Y61.25 E.0226
G1 X75.026 Y62.091 E.02416
G1 X75.248 Y62.96 E.02423
G1 X75.409 Y63.961 E.0274
G1 X75.463 Y64.908 E.02562
G1 X75.43 Y65.852 E.02553
G1 X75.293 Y66.848 E.02716
G1 X75.075 Y67.778 E.0258
G1 X74.908 Y68.298 E.01476
G1 X74.523 Y69.26 E.028
G1 X74.101 Y70.067 E.02462
G1 X73.596 Y70.84 E.02495
G1 X73.01 Y71.568 E.02524
G1 X72.377 Y72.214 E.02443
G1 X71.348 Y73.045 E.03573
G1 X70.493 Y73.59 E.0274
G1 X69.68 Y73.998 E.02459
G1 X68.827 Y74.328 E.02469
G1 X67.967 Y74.569 E.02414
G1 X67.09 Y74.727 E.02407
G1 X65.813 Y74.812 E.03459
G1 X59.633 Y74.811 E.16696
G1 X56.99 Y75.006 E.07162
G1 X56.054 Y75.032 E.0253
G1 X55.111 Y74.966 E.02552
G1 X54.231 Y74.818 E.02414
G1 X53.366 Y74.586 E.02418
G1 X52.302 Y74.175 E.03082
G1 X51.408 Y73.718 E.02712
G1 X50.625 Y73.211 E.02519
G1 X49.903 Y72.636 E.02496
G1 X49.261 Y72.015 E.02414
G1 X48.674 Y71.328 E.02442
G1 X48.15 Y70.579 E.02468
G1 X47.688 Y69.759 E.02545
G1 X47.28 Y68.818 E.0277
G1 X46.986 Y67.897 E.02612
G1 X46.666 Y66.317 E.04355
G1 X46.265 Y65.245 E.03095
G1 X45.963 Y64.201 E.02934
G1 X45.829 Y63.609 E.01642
G1 X45.719 Y63.007 E.01652
G1 X45.553 Y61.731 E.03478
G1 X45.485 Y61.522 E.00592
G1 X45.256 Y61.01 E.01516
G1 X44.901 Y59.977 E.02952
G1 X44.692 Y59.089 E.02463
G1 X44.571 Y58.2 E.02425
G1 X44.532 Y57.339 E.02328
G1 X44.532 Y54.412 E.0791
G1 X44.577 Y53.482 E.02516
G1 X44.709 Y52.567 E.02496
G1 X44.933 Y51.66 E.02524
G1 X45.237 Y50.804 E.02455
G1 X45.714 Y49.805 E.02991
G1 X46.237 Y48.948 E.02713
G1 X46.788 Y48.221 E.02464
G1 X47.345 Y47.617 E.0222
G1 X47.608 Y47.86 F36000
G1 F6000
G1 X47.655 Y47.808 E.00188
G1 X48.31 Y47.223 E.02376
G1 X49.019 Y46.703 E.02376
G1 X49.774 Y46.254 E.02373
G1 X50.605 Y45.866 E.02476
G1 X51.513 Y45.55 E.02597
G1 X52.417 Y45.332 E.02514
G1 X53.084 Y45.233 E.0182
G1 X53.495 Y45.094 E.01174
G1 X53.645 Y45.01 E.00463
G1 X54.034 Y44.711 E.01327
G1 X54.654 Y44.038 E.02472
G1 X55.309 Y43.453 E.02371
G1 X56.043 Y42.916 E.02458
G1 X56.782 Y42.479 E.02321
G1 X57.564 Y42.112 E.02332
G1 X58.512 Y41.78 E.02714
G1 X59.415 Y41.563 E.0251
G1 X60.328 Y41.438 E.0249
G1 X61.138 Y41.404 E.02189
G1 X63.729 Y41.404 E.07002
G1 X64.671 Y41.451 E.02549
G1 X65.541 Y41.58 E.02375
G1 X66.394 Y41.792 E.02375
G1 X67.217 Y42.084 E.02359
G1 X68.172 Y42.54 E.02861
G1 X68.998 Y43.044 E.02613
G1 X69.728 Y43.599 E.02479
G1 X70.358 Y44.183 E.0232
G1 X70.93 Y44.824 E.0232
G1 X71.472 Y45.567 E.02487
G1 X71.909 Y46.307 E.0232
G1 X72.269 Y47.076 E.02296
G1 X72.628 Y48.117 E.02973
G1 X72.827 Y48.968 E.02363
G1 X72.944 Y49.843 E.02384
G1 X72.979 Y50.653 E.02191
G1 X72.979 Y58.437 E.21031
G1 X73.003 Y58.682 E.00666
G1 X73.195 Y59.233 E.01575
G1 X73.632 Y59.906 E.02169
G1 X74.056 Y60.648 E.0231
G1 X74.395 Y61.389 E.02201
G1 X74.686 Y62.201 E.02331
G1 X74.897 Y63.028 E.02306
G1 X75.053 Y63.995 E.02645
G1 X75.105 Y64.907 E.02469
G1 X75.073 Y65.827 E.02487
G1 X74.942 Y66.778 E.02594
G1 X74.729 Y67.687 E.02521
G1 X74.571 Y68.181 E.01402
G1 X74.2 Y69.105 E.02692
G1 X73.795 Y69.882 E.02366
G1 X73.303 Y70.634 E.02429
G1 X72.739 Y71.335 E.02429
G1 X72.132 Y71.953 E.02342
G1 X71.134 Y72.757 E.03463
G1 X70.311 Y73.281 E.02636
G1 X69.53 Y73.673 E.02362
G1 X68.709 Y73.99 E.02376
G1 X67.892 Y74.219 E.02295
G1 X67.052 Y74.371 E.02305
G1 X65.804 Y74.454 E.03379
G1 X59.637 Y74.454 E.16663
G1 X56.974 Y74.649 E.07214
G1 X56.067 Y74.674 E.02453
G1 X55.148 Y74.61 E.02487
G1 X54.312 Y74.469 E.02293
G1 X53.482 Y74.248 E.02319
G1 X52.453 Y73.85 E.02981
G1 X51.592 Y73.411 E.02613
G1 X50.839 Y72.924 E.02423
G1 X50.135 Y72.364 E.0243
G1 X49.518 Y71.766 E.02321
G1 X48.96 Y71.113 E.02322
G1 X48.455 Y70.393 E.02374
G1 X48.006 Y69.595 E.02476
G1 X47.613 Y68.687 E.02671
G1 X47.331 Y67.801 E.02512
G1 X47.017 Y66.255 E.04264
G1 X46.605 Y65.136 E.03222
G1 X46.309 Y64.109 E.02887
G1 X46.178 Y63.535 E.01591
G1 X46.073 Y62.955 E.01593
G1 X45.89 Y61.612 E.03661
G1 X45.809 Y61.372 E.00685
G1 X45.587 Y60.874 E.01471
G1 X45.246 Y59.883 E.02833
G1 X45.043 Y59.019 E.02397
G1 X44.927 Y58.173 E.02308
G1 X44.889 Y57.334 E.02269
G1 X44.889 Y54.418 E.07879
G1 X44.933 Y53.521 E.02426
G1 X45.06 Y52.641 E.02402
G1 X45.278 Y51.758 E.02457
G1 X45.569 Y50.936 E.02358
G1 X46.026 Y49.981 E.02861
G1 X46.53 Y49.154 E.02615
G1 X47.059 Y48.455 E.02369
G1 X47.581 Y47.889 E.0208
G1 X47.843 Y48.131 F36000
G1 F6000
G1 X47.902 Y48.067 E.00234
G1 X48.532 Y47.504 E.02282
G1 X49.212 Y47.004 E.02282
G1 X49.937 Y46.573 E.02279
G1 X50.745 Y46.195 E.02408
G1 X51.608 Y45.895 E.02471
G1 X52.481 Y45.684 E.02426
G1 X53.127 Y45.587 E.01765
G1 X53.677 Y45.401 E.01568
G1 X53.868 Y45.289 E.00599
G1 X54.245 Y44.999 E.01285
G1 X54.902 Y44.296 E.026
G1 X55.53 Y43.734 E.02275
G1 X56.236 Y43.218 E.02363
G1 X56.945 Y42.798 E.02228
G1 X57.694 Y42.445 E.02236
G1 X58.608 Y42.125 E.02616
G1 X59.476 Y41.915 E.02413
G1 X60.365 Y41.794 E.02424
G1 X61.148 Y41.761 E.02116
G1 X63.717 Y41.761 E.06944
G1 X64.641 Y41.807 E.025
G1 X65.477 Y41.932 E.02282
G1 X66.296 Y42.136 E.02282
G1 X67.085 Y42.416 E.02262
G1 X67.997 Y42.852 E.02731
G1 X68.792 Y43.336 E.02515
G1 X69.502 Y43.876 E.02411
G1 X70.099 Y44.43 E.02199
G1 X70.648 Y45.045 E.02227
G1 X71.176 Y45.768 E.0242
G1 X71.59 Y46.469 E.022
G1 X71.936 Y47.206 E.02198
G1 X72.286 Y48.221 E.02902
G1 X72.476 Y49.038 E.02266
G1 X72.589 Y49.879 E.02293
