; HEADER_BLOCK_START
; generated by OrcaSlicer 2.3.2-beta2 on 2026-02-20 at 14:29:01
; total layer number: 137
; filament_density: 1.04
; filament_diameter: 1.75
; max_z_height: 23.00
; filament: 1
; HEADER_BLOCK_END

; THUMBNAIL_BLOCK_START

;
; THUMBNAIL_BLOCK_END

; THUMBNAIL_BLOCK_START

;
; THUMBNAIL_BLOCK_END

; external perimeters extrusion width = 0.40mm
; perimeters extrusion width = 0.40mm
; infill extrusion width = 0.40mm
; solid infill extrusion width = 0.40mm
; top infill extrusion width = 0.40mm
; support material extrusion width = 0.40mm
; first layer extrusion width = 0.40mm

; EXECUTABLE_BLOCK_START


; Pre-Processed for Cancel-Object support by preprocess_cancellation v0.2.0
; 1 known objects
EXCLUDE_OBJECT_DEFINE NAME=Nobsound_Holder_stl_id_87_copy_0 CENTER=60.507,62.904 POLYGON=[[13.867,35.165],[13.867,85.639],[106.133,85.639],[106.133,35.165]]
M73 P0 R27
;TYPE:Custom
PRINT_START EXTRUDER_TEMP=255 BED_TEMP=105
G90
G21
M83 ; use relative distances for extrusion
; Filament gcode
SET_PRESSURE_ADVANCE ADVANCE=0.04; Override pressure advance value
M106 S0
;LAYER_CHANGE
;Z:0.2
;HEIGHT:0.2
;BEFORE_LAYER_CHANGE
;0.2
G92 E0

G1 E-.8 F1800
;AFTER_LAYER_CHANGE
;0.2
;_SET_FAN_SPEED_CHANGING_LAYER
SET_VELOCITY_LIMIT ACCEL=10000 ACCEL_TO_DECEL=10000
SET_VELOCITY_LIMIT SQUARE_CORNER_VELOCITY=9
; printing object Nobsound Holder.stl id:87 copy 0
EXCLUDE_OBJECT_START NAME=Nobsound_Holder_stl_id_87_copy_0
G1 Z.6 F36000
G1 X47.304 Y43.897
G1 Z.6
G1 Z.2
G1 E.8 F1800
;TYPE:Support
;WIDTH:0.4
G1 F6000
G1 X47.304 Y52.561 E.23409
G1 X47.701 Y52.561 E.01072
G1 X47.701 Y44.058 E.22975
G1 X48.097 Y44.058 E.01072
G1 X48.097 Y52.561 E.22975
G1 X48.494 Y52.561 E.01072
G1 X48.494 Y44.058 E.22975
G1 X48.891 Y44.058 E.01072
G1 X48.891 Y52.561 E.22975
G1 X49.288 Y52.561 E.01072
G1 X49.288 Y44.058 E.22975
G1 X49.684 Y44.058 E.01072
G1 X49.684 Y52.561 E.22975
G1 X50.081 Y52.561 E.01072
G1 X50.081 Y38.343 E.38414
G1 X50.478 Y38.343 E.01072
G1 X50.478 Y52.561 E.38414
G1 X50.875 Y52.561 E.01072
G1 X50.875 Y38.343 E.38414
G1 X51.271 Y38.343 E.01072
G1 X51.271 Y52.561 E.38414
G1 X51.668 Y52.561 E.01072
G1 X51.668 Y38.343 E.38414
G1 X52.065 Y38.343 E.01072
G1 X52.065 Y52.561 E.38414
G1 X52.462 Y52.561 E.01072
G1 X52.462 Y38.343 E.38414
G1 X52.629 Y38.343 E.00452
G1 X52.629 Y35.486 E.0772
G1 X52.858 Y35.486 E.0062
G1 X52.858 Y52.561 E.46133
G1 X53.255 Y52.561 E.01072
G1 X53.255 Y35.486 E.46133
G1 X53.652 Y35.486 E.01072
G1 X53.652 Y52.561 E.46133
G1 X54.049 Y52.561 E.01072
G1 X54.049 Y35.486 E.46133
G1 X54.445 Y35.486 E.01072
G1 X54.445 Y52.561 E.46133
G1 X54.842 Y52.561 E.01072
G1 X54.842 Y35.486 E.46133
G1 X55.239 Y35.486 E.01072
G1 X55.239 Y52.561 E.46133
G1 X55.636 Y52.561 E.01072
G1 X55.636 Y35.486 E.46133
G1 X56.032 Y35.486 E.01072
G1 X56.032 Y52.561 E.46133
G1 X56.429 Y52.561 E.01072
G1 X56.429 Y35.486 E.46133
G1 X56.826 Y35.486 E.01072
G1 X56.826 Y52.561 E.46133
G1 X57.223 Y52.561 E.01072
G1 X57.223 Y35.486 E.46133
G1 X57.619 Y35.486 E.01072
G1 X57.619 Y52.561 E.46133
G1 X58.016 Y52.561 E.01072
G1 X58.016 Y35.486 E.46133
G1 X58.413 Y35.486 E.01072
G1 X58.413 Y52.561 E.46133
G1 X58.81 Y52.561 E.01072
G1 X58.81 Y35.486 E.46133
G1 X59.206 Y35.486 E.01072
G1 X59.206 Y52.561 E.46133
G1 X59.603 Y52.561 E.01072
G1 X59.603 Y35.486 E.46133
G1 X60 Y35.486 E.01072
G1 X60 Y52.561 E.46133
G1 X60.397 Y52.561 E.01072
G1 X60.397 Y35.486 E.46133
G1 X60.794 Y35.486 E.01072
G1 X60.794 Y52.561 E.46133
G1 X61.19 Y52.561 E.01072
G1 X61.19 Y35.486 E.46133
G1 X61.587 Y35.486 E.01072
G1 X61.587 Y52.561 E.46133
G1 X61.984 Y52.561 E.01072
G1 X61.984 Y35.486 E.46133
G1 X62.381 Y35.486 E.01072
G1 X62.381 Y52.561 E.46133
G1 X62.777 Y52.561 E.01072
G1 X62.777 Y35.486 E.46133
G1 X63.174 Y35.486 E.01072
G1 X63.174 Y52.561 E.46133
G1 X63.571 Y52.561 E.01072
G1 X63.571 Y35.486 E.46133
G1 X63.968 Y35.486 E.01072
G1 X63.968 Y52.561 E.46133
G1 X64.364 Y52.561 E.01072
G1 X64.364 Y35.486 E.46133
G1 X64.761 Y35.486 E.01072
G1 X64.761 Y52.561 E.46133
G1 X65.158 Y52.561 E.01072
G1 X65.158 Y35.486 E.46133
G1 X65.555 Y35.486 E.01072
G1 X65.555 Y52.561 E.46133
G1 X65.951 Y52.561 E.01072
G1 X65.951 Y35.486 E.46133
G1 X66.348 Y35.486 E.01072
G1 X66.348 Y52.561 E.46133
G1 X66.745 Y52.561 E.01072
G1 X66.745 Y35.486 E.46133
G1 X67.142 Y35.486 E.01072
G1 X67.142 Y52.561 E.46133
G1 X67.538 Y52.561 E.01072
G1 X67.538 Y38.343 E.38414
G1 X67.935 Y38.343 E.01072
G1 X67.935 Y52.561 E.38414
G1 X68.332 Y52.561 E.01072
G1 X68.332 Y38.343 E.38414
G1 X68.729 Y38.343 E.01072
G1 X68.729 Y52.561 E.38414
G1 X69.125 Y52.561 E.01072
G1 X69.125 Y38.343 E.38414
G1 X69.522 Y38.343 E.01072
G1 X69.522 Y52.561 E.38414
G1 X69.919 Y52.561 E.01072
G1 X69.919 Y38.343 E.38414
G1 X70.228 Y38.343 E.00836
G1 X70.228 Y44.058 E.15439
G1 X70.316 Y44.058 E.00236
G1 X70.316 Y52.561 E.22975
G1 X70.712 Y52.561 E.01072
G1 X70.712 Y44.058 E.22975
G1 X71.109 Y44.058 E.01072
G1 X71.109 Y52.561 E.22975
G1 X71.506 Y52.561 E.01072
G1 X71.506 Y44.058 E.22975
G1 X71.903 Y44.058 E.01072
G1 X71.903 Y52.561 E.22975
G1 X72.299 Y52.561 E.01072
G1 X72.299 Y44.058 E.22975
G1 X72.696 Y44.058 E.01072
G1 X72.696 Y52.721 E.23409
G1 X67.693 Y38.022 F36000
G1 F6000
G1 X70.55 Y38.022 E.0772
G1 X70.55 Y43.736 E.15439
G1 X73.407 Y43.736 E.0772
G1 X73.407 Y52.882 E.24711
G1 X46.593 Y52.882 E.72448
G1 X46.593 Y43.736 E.24711
G1 X49.45 Y43.736 E.0772
G1 X49.45 Y38.022 E.15439
G1 X52.307 Y38.022 E.0772
G1 X52.307 Y35.165 E.0772
G1 X67.693 Y35.165 E.41569
G1 X67.693 Y37.968 E.07575
G1 E-.56 F1800
;WIPE_START
G1 F6000
G1 X67.693 Y36.968 E-.24
;WIPE_END
G1 Z.6 F36000
G1 X73.764 Y48.362 Z.6
G1 Z.2
G1 E.8 F1800
;TYPE:Brim
G1 F6000
G1 X87.501 Y48.362 E.37116
G1 X88.989 Y48.425 E.04025
G1 X89.439 Y48.467 E.0122
G1 X90.695 Y48.641 E.03426
G1 X91.141 Y48.725 E.01225
G1 X92.375 Y49.015 E.03426
G1 X92.811 Y49.138 E.01225
G1 X94.014 Y49.541 E.03426
G1 X94.437 Y49.705 E.01225
G1 X95.597 Y50.217 E.03426
G1 X96.003 Y50.419 E.01225
G1 X97.111 Y51.035 E.03426
G1 X97.497 Y51.274 E.01225
G1 X98.543 Y51.99 E.03426
G1 X98.905 Y52.263 E.01225
G1 X99.881 Y53.073 E.03426
G1 X100.216 Y53.378 E.01225
G1 X101.113 Y54.275 E.03426
G1 X101.419 Y54.61 E.01225
G1 X102.229 Y55.585 E.03426
G1 X102.503 Y55.947 E.01225
G1 X103.219 Y56.993 E.03426
G1 X103.458 Y57.378 E.01225
G1 X104.076 Y58.486 E.03426
G1 X104.278 Y58.892 E.01225
G1 X104.791 Y60.052 E.03426
G1 X104.955 Y60.475 E.01225
G1 X105.358 Y61.677 E.03426
G1 X105.482 Y62.113 E.01225
G1 X105.773 Y63.347 E.03426
G1 X105.856 Y63.793 E.01225
G1 X106.032 Y65.049 E.03426
G1 X106.074 Y65.5 E.01225
G1 X106.133 Y66.767 E.03426
G1 X106.133 Y67.221 E.01225
G1 X106.075 Y68.487 E.03426
G1 X106.033 Y68.939 E.01225
G1 X105.859 Y70.195 E.03426
G1 X105.775 Y70.641 E.01225
G1 X105.485 Y71.875 E.03426
G1 X105.362 Y72.311 E.01225
G1 X104.959 Y73.514 E.03426
G1 X104.795 Y73.937 E.01225
G1 X104.283 Y75.097 E.03426
G1 X104.081 Y75.503 E.01225
G1 X103.465 Y76.611 E.03426
G1 X103.226 Y76.997 E.01225
G1 X102.51 Y78.043 E.03426
G1 X102.237 Y78.405 E.01225
G1 X101.427 Y79.381 E.03426
G1 X101.122 Y79.716 E.01225
G1 X100.225 Y80.613 E.03426
G1 X99.89 Y80.919 E.01225
G1 X98.915 Y81.729 E.03426
G1 X98.553 Y82.002 E.01225
G1 X97.507 Y82.719 E.03426
G1 X97.122 Y82.958 E.01225
G1 X96.014 Y83.576 E.03426
G1 X95.609 Y83.778 E.01223
G1 X94.024 Y84.455 E.04658
G1 X92.823 Y84.858 E.03421
G1 X92.387 Y84.982 E.01225
G1 X91.153 Y85.273 E.03426
G1 X90.707 Y85.356 E.01225
G1 X89.451 Y85.532 E.03426
G1 X89 Y85.574 E.01224
G1 X87.501 Y85.638 E.04055
G1 X32.504 Y85.639 E1.48597
G1 X31.011 Y85.575 E.04037
G1 X30.561 Y85.533 E.01221
G1 X29.305 Y85.359 E.03426
G1 X28.859 Y85.275 E.01225
G1 X27.625 Y84.985 E.03426
G1 X27.189 Y84.862 E.01225
G1 X25.986 Y84.459 E.03426
G1 X25.563 Y84.295 E.01225
G1 X24.403 Y83.783 E.03426
G1 X23.998 Y83.582 E.01223
G1 X23.26 Y83.171 E.02281
G1 X22.502 Y82.725 E.02378
G1 X21.457 Y82.01 E.03421
G1 X21.095 Y81.737 E.01225
G1 X20.119 Y80.927 E.03426
G1 X19.784 Y80.622 E.01225
G1 X18.887 Y79.725 E.03426
G1 X18.581 Y79.39 E.01225
G1 X17.771 Y78.415 E.03426
G1 X17.498 Y78.054 E.01223
G1 X16.78 Y77.006 E.03433
G1 X16.542 Y76.622 E.01221
G1 X15.924 Y75.514 E.03426
G1 X15.722 Y75.108 E.01225
G1 X15.209 Y73.948 E.03426
G1 X15.045 Y73.525 E.01225
G1 X14.642 Y72.323 E.03426
G1 X14.518 Y71.887 E.01225
G1 X14.227 Y70.653 E.03426
G1 X14.144 Y70.207 E.01225
G1 X13.968 Y68.951 E.03426
G1 X13.926 Y68.5 E.01225
G1 X13.867 Y67.233 E.03426
G1 X13.867 Y66.779 E.01225
G1 X13.925 Y65.513 E.03426
G1 X13.967 Y65.061 E.01225
G1 X14.141 Y63.805 E.03426
G1 X14.225 Y63.359 E.01225
G1 X14.515 Y62.125 E.03426
G1 X14.638 Y61.689 E.01225
G1 X15.041 Y60.486 E.03426
G1 X15.205 Y60.063 E.01225
G1 X15.717 Y58.903 E.03426
G1 X15.919 Y58.497 E.01225
G1 X16.535 Y57.389 E.03426
G1 X16.774 Y57.003 E.01225
G1 X17.49 Y55.957 E.03426
G1 X17.763 Y55.595 E.01225
G1 X18.573 Y54.619 E.03426
G1 X18.878 Y54.284 E.01225
G1 X19.775 Y53.387 E.03426
G1 X20.11 Y53.081 E.01225
G1 X21.085 Y52.271 E.03426
G1 X21.447 Y51.998 E.01225
G1 X22.493 Y51.281 E.03426
G1 X22.878 Y51.042 E.01225
G1 X23.986 Y50.424 E.03426
G1 X24.392 Y50.222 E.01225
G1 X25.552 Y49.709 E.03426
G1 X25.975 Y49.545 E.01225
G1 X27.177 Y49.142 E.03426
G1 X27.613 Y49.018 E.01225
G1 X28.847 Y48.727 E.03426
G1 X29.292 Y48.644 E.01223
G1 X30.55 Y48.468 E.03433
G1 X31 Y48.426 E.01221
G1 X32.267 Y48.367 E.03426
G1 X46.236 Y48.362 E.37743
G1 X46.236 Y52.956 E.12413
G1 X46.256 Y53.003 E.00139
G1 X32.5 Y53.003 E.37167
G1 X31.205 Y53.064 E.03503
G1 X29.925 Y53.243 E.03493
G1 X28.666 Y53.539 E.03493
G1 X27.441 Y53.95 E.03493
G1 X26.258 Y54.473 E.03493
G1 X25.129 Y55.102 E.03493
G1 X24.063 Y55.833 E.03493
G1 X23.068 Y56.659 E.03493
G1 X22.154 Y57.573 E.03493
G1 X21.329 Y58.568 E.03493
G1 X20.598 Y59.635 E.03493
G1 X19.97 Y60.765 E.03493
G1 X19.448 Y61.947 E.03493
G1 X19.037 Y63.173 E.03493
G1 X18.744 Y64.415 E.03448
G1 X18.565 Y65.696 E.03493
G1 X18.504 Y66.987 E.03493
G1 X18.562 Y68.279 E.03493
G1 X18.74 Y69.559 E.03493
G1 X19.035 Y70.818 E.03493
G1 X19.444 Y72.044 E.03493
G1 X19.965 Y73.227 E.03493
G1 X20.602 Y74.371 E.03537
G1 X21.339 Y75.445 E.03519
G1 X22.165 Y76.439 E.03493
G1 X23.08 Y77.352 E.03493
G1 X24.076 Y78.177 E.03493
G1 X25.143 Y78.907 E.03493
G1 X26.258 Y79.527 E.03449
G1 X27.456 Y80.056 E.03537
G1 X28.682 Y80.465 E.03493
G1 X29.932 Y80.759 E.03468
G1 X31.212 Y80.937 E.03493
G1 X32.492 Y80.996 E.03461
G1 X87.5 Y80.997 E1.48627
G1 X88.804 Y80.935 E.03528
G1 X90.084 Y80.756 E.03493
G1 X91.334 Y80.461 E.03468
G1 X92.544 Y80.056 E.03449
G1 X93.727 Y79.535 E.03493
G1 X94.865 Y78.902 E.03518
G1 X95.937 Y78.167 E.03512
G1 X96.932 Y77.341 E.03493
G1 X97.835 Y76.439 E.03448
G1 X98.661 Y75.445 E.03493
G1 X99.398 Y74.371 E.03518
G1 X100.03 Y73.235 E.03512
G1 X100.552 Y72.053 E.03493
G1 X100.965 Y70.818 E.03518
G1 X101.257 Y69.575 E.03448
G1 X101.435 Y68.304 E.03468
G1 X101.496 Y66.996 E.03537
G1 X101.436 Y65.705 E.03493
G1 X101.257 Y64.425 E.03493
G1 X100.965 Y63.182 E.03448
G1 X100.556 Y61.956 E.03493
G1 X100.035 Y60.773 E.03493
G1 X99.398 Y59.629 E.03537
G1 X98.667 Y58.563 E.03493
G1 X97.841 Y57.568 E.03493
G1 X96.92 Y56.648 E.03518
G1 X95.924 Y55.823 E.03493
G1 X94.857 Y55.093 E.03493
G1 X93.727 Y54.465 E.03493
G1 X92.544 Y53.944 E.03493
G1 X91.318 Y53.535 E.03493
G1 X90.068 Y53.241 E.03468
G1 X88.804 Y53.065 E.03448
G1 X87.508 Y53.004 E.03506
G1 X73.744 Y53.003 E.37189
G1 X73.764 Y52.956 E.00139
G1 X73.764 Y48.402 E.12306
G1 X74.168 Y48.737 F36000
G1 F6000
G1 X74.228 Y48.719 E.0017
G1 X87.495 Y48.719 E.35847
G1 X88.968 Y48.782 E.03982
M73 P1 R27
G1 X89.4 Y48.822 E.01173
G1 X90.64 Y48.994 E.03382
G1 X91.069 Y49.075 E.01181
G1 X92.288 Y49.361 E.03382
G1 X92.708 Y49.48 E.01181
G1 X93.895 Y49.878 E.03382
G1 X94.302 Y50.036 E.01181
G1 X95.447 Y50.541 E.03382
G1 X95.839 Y50.736 E.01181
G1 X96.932 Y51.345 E.03381
G1 X97.304 Y51.575 E.01181
G1 X98.336 Y52.282 E.03382
G1 X98.685 Y52.545 E.01181
G1 X99.645 Y53.341 E.03368
G1 X99.971 Y53.639 E.01194
G1 X100.856 Y54.523 E.03382
G1 X101.151 Y54.846 E.01181
G1 X101.951 Y55.809 E.03381
G1 X102.214 Y56.158 E.01181
G1 X102.922 Y57.19 E.03382
G1 X103.152 Y57.562 E.01181
G1 X103.759 Y58.65 E.03368
G1 X103.956 Y59.046 E.01194
G1 X104.46 Y60.186 E.03368
G1 X104.619 Y60.598 E.01194
G1 X105.016 Y61.78 E.03368
G1 X105.136 Y62.2 E.01181
G1 X105.423 Y63.419 E.03382
G1 X105.504 Y63.853 E.01194
G1 X105.677 Y65.088 E.03368
G1 X105.718 Y65.523 E.01181
G1 X105.776 Y66.773 E.03382
G1 X105.776 Y67.21 E.01181
G1 X105.719 Y68.46 E.03382
G1 X105.679 Y68.895 E.01181
G1 X105.506 Y70.135 E.03382
G1 X105.426 Y70.565 E.01181
G1 X105.14 Y71.783 E.03382
G1 X105.021 Y72.203 E.01181
G1 X104.624 Y73.39 E.03382
G1 X104.466 Y73.798 E.01181
G1 X103.961 Y74.943 E.03382
G1 X103.767 Y75.334 E.01181
G1 X103.158 Y76.428 E.03382
G1 X102.928 Y76.8 E.01181
G1 X102.221 Y77.832 E.03382
G1 X101.958 Y78.181 E.01181
G1 X101.156 Y79.148 E.03395
G1 X100.861 Y79.471 E.01181
G1 X99.977 Y80.356 E.03382
G1 X99.654 Y80.651 E.01181
G1 X98.691 Y81.451 E.03382
G1 X98.342 Y81.714 E.01181
G1 X97.31 Y82.422 E.03382
G1 X96.938 Y82.652 E.01181
G1 X95.845 Y83.261 E.03382
G1 X95.456 Y83.455 E.01174
G1 X93.9 Y84.12 E.04571
G1 X92.72 Y84.516 E.03365
G1 X92.295 Y84.637 E.01194
G1 X91.081 Y84.923 E.03368
G1 X90.647 Y85.004 E.01194
G1 X89.412 Y85.177 E.03368
G1 X88.978 Y85.217 E.01177
G1 X87.491 Y85.281 E.04023
G1 X32.514 Y85.281 E1.48543
G1 X31.033 Y85.218 E.04005
G1 X30.6 Y85.178 E.01174
G1 X29.365 Y85.006 E.03368
G1 X28.931 Y84.925 E.01194
G1 X27.717 Y84.64 E.03368
G1 X27.292 Y84.52 E.01194
G1 X26.11 Y84.124 E.03368
G1 X25.702 Y83.966 E.01181
G1 X24.553 Y83.459 E.03395
G1 X24.162 Y83.265 E.01179
G1 X23.439 Y82.862 E.02237
G1 X22.69 Y82.421 E.02346
G1 X21.668 Y81.721 E.03349
G1 X21.319 Y81.458 E.01181
G1 X20.352 Y80.656 E.03395
G1 X20.029 Y80.361 E.01181
G1 X19.147 Y79.48 E.03368
G1 X18.849 Y79.154 E.01194
G1 X18.052 Y78.195 E.03368
G1 X17.789 Y77.847 E.01179
G1 X17.077 Y76.809 E.03402
G1 X16.848 Y76.438 E.01176
G1 X16.241 Y75.35 E.03368
G1 X16.044 Y74.954 E.01194
G1 X15.538 Y73.809 E.03382
G1 X15.381 Y73.402 E.01181
G1 X14.984 Y72.22 E.03368
G1 X14.863 Y71.795 E.01194
G1 X14.577 Y70.581 E.03368
G1 X14.496 Y70.147 E.01194
G1 X14.323 Y68.912 E.03368
G1 X14.282 Y68.477 E.01181
G1 X14.224 Y67.227 E.03382
G1 X14.224 Y66.79 E.01181
G1 X14.282 Y65.535 E.03395
G1 X14.322 Y65.1 E.01181
G1 X14.494 Y63.865 E.03368
G1 X14.575 Y63.431 E.01194
G1 X14.86 Y62.217 E.03368
G1 X14.98 Y61.792 E.01194
G1 X15.376 Y60.61 E.03368
G1 X15.534 Y60.202 E.01181
G1 X16.039 Y59.057 E.03382
G1 X16.233 Y58.666 E.01181
G1 X16.845 Y57.568 E.03395
G1 X17.075 Y57.196 E.01181
G1 X17.779 Y56.168 E.03368
G1 X18.045 Y55.815 E.01194
G1 X18.841 Y54.855 E.03368
G1 X19.139 Y54.529 E.01194
G1 X20.02 Y53.647 E.03368
G1 X20.343 Y53.352 E.01181
G1 X21.309 Y52.549 E.03395
G1 X21.658 Y52.286 E.01181
G1 X22.686 Y51.581 E.03368
G1 X23.062 Y51.348 E.01194
G1 X24.155 Y50.739 E.03382
G1 X24.546 Y50.544 E.01181
G1 X25.686 Y50.04 E.03368
G1 X26.098 Y49.881 E.01194
G1 X27.285 Y49.483 E.03382
G1 X27.705 Y49.363 E.01181
G1 X28.919 Y49.077 E.03368
G1 X29.352 Y48.996 E.01192
G1 X30.594 Y48.822 E.03388
G1 X31.028 Y48.782 E.01176
G1 X32.278 Y48.724 E.03382
G1 X45.772 Y48.719 E.3646
G1 X45.861 Y48.766 E.00271
G1 X45.879 Y48.826 E.0017
G1 X45.879 Y52.539 E.10033
G1 X45.832 Y52.628 E.00271
G1 X45.772 Y52.646 E.0017
G1 X32.503 Y52.646 E.35853
G1 X31.151 Y52.711 E.03656
G1 X29.838 Y52.896 E.03582
G1 X28.548 Y53.202 E.03582
G1 X27.292 Y53.626 E.03582
G1 X26.08 Y54.163 E.03582
G1 X24.923 Y54.81 E.03582
G1 X23.831 Y55.561 E.03582
G1 X22.812 Y56.41 E.03582
G1 X21.876 Y57.349 E.03582
G1 X21.031 Y58.37 E.03582
G1 X20.284 Y59.465 E.03582
G1 X19.641 Y60.625 E.03582
G1 X19.108 Y61.838 E.03582
G1 X18.688 Y63.096 E.03581
G1 X18.39 Y64.371 E.03537
G1 X18.212 Y65.641 E.03467
G1 X18.147 Y66.965 E.03582
G1 X18.205 Y68.29 E.03582
G1 X18.385 Y69.603 E.03582
G1 X18.686 Y70.895 E.03582
G1 X19.104 Y72.153 E.03582
G1 X19.637 Y73.367 E.03582
G1 X20.288 Y74.54 E.03627
G1 X21.041 Y75.643 E.03609
G1 X21.888 Y76.663 E.03582
G1 X22.825 Y77.601 E.03582
G1 X23.878 Y78.475 E.03697
G1 X24.937 Y79.199 E.03467
G1 X26.08 Y79.837 E.03537
