; HEADER_BLOCK_START
; generated by OrcaSlicer 2.3.2-beta2 on 2026-02-23 at 18:20:00
; total layer number: 75
; filament_density: 1.04
; filament_diameter: 1.75
; max_z_height: 15.00
; filament: 1
; HEADER_BLOCK_END

; THUMBNAIL_BLOCK_START

;
; THUMBNAIL_BLOCK_END

; THUMBNAIL_BLOCK_START

;
; THUMBNAIL_BLOCK_END

; external perimeters extrusion width = 0.40mm
; perimeters extrusion width = 0.40mm
; infill extrusion width = 0.40mm
; solid infill extrusion width = 0.40mm
; top infill extrusion width = 0.40mm
; first layer extrusion width = 0.40mm

; EXECUTABLE_BLOCK_START


; Pre-Processed for Cancel-Object support by preprocess_cancellation v0.2.0
; 1 known objects
EXCLUDE_OBJECT_DEFINE NAME=O2S_Wirestrain_Lock_id_90194313238_copy_0 CENTER=60.030,57.699 POLYGON=[[49.679,49.065],[49.679,70.935],[70.321,70.935],[70.321,49.065]]
M73 P0 R3
;TYPE:Custom
PRINT_START EXTRUDER_TEMP=255 BED_TEMP=105
G90
G21
M83 ; use relative distances for extrusion
; Filament gcode
SET_PRESSURE_ADVANCE ADVANCE=0.04; Override pressure advance value
M106 S0
;LAYER_CHANGE
;Z:0.2
;HEIGHT:0.2
;BEFORE_LAYER_CHANGE
;0.2
G92 E0

G1 E-.8 F1800
;AFTER_LAYER_CHANGE
;0.2
;_SET_FAN_SPEED_CHANGING_LAYER
SET_VELOCITY_LIMIT ACCEL=10000 ACCEL_TO_DECEL=10000
SET_VELOCITY_LIMIT SQUARE_CORNER_VELOCITY=9
; printing object O2S Wirestrain_Lock id:90194313238 copy 0
EXCLUDE_OBJECT_START NAME=O2S_Wirestrain_Lock_id_90194313238_copy_0
G1 Z.6 F36000
G1 X49.952 Y54.376
G1 Z.6
G1 Z.2
G1 E.8 F1800
;TYPE:Brim
;WIDTH:0.4
G1 F6000
G1 X50.008 Y54.174 E.00565
G1 X50.231 Y53.572 E.01734
G1 X50.44 Y53.126 E.01332
G1 X50.681 Y52.694 E.01335
G1 X50.951 Y52.282 E.01332
G1 X51.25 Y51.89 E.01332
G1 X51.578 Y51.517 E.01343
G1 X52.291 Y50.8 E.02733
G1 X52.552 Y50.555 E.00967
G1 X53.029 Y50.175 E.01647
G1 X53.456 Y49.896 E.01378
G1 X54.008 Y49.606 E.01685
G1 X54.697 Y49.34 E.01996
G1 X55.188 Y49.207 E.01374
G1 X55.8 Y49.104 E.01676
G1 X56.54 Y49.065 E.02003
G1 X57.162 Y49.104 E.01684
G1 X57.778 Y49.209 E.01688
G1 X58.269 Y49.342 E.01375
G1 X58.959 Y49.609 E.01998
G1 X59.411 Y49.842 E.01375
G1 X59.905 Y50.159 E.01585
G1 X60.034 Y50.184 E.00355
G1 X60.539 Y49.87 E.01607
G1 X60.991 Y49.633 E.01378
G1 X61.569 Y49.396 E.01688
G1 X62.167 Y49.222 E.01683
G1 X62.894 Y49.098 E.01993
G1 X63.55 Y49.065 E.01775
G1 X64.162 Y49.1 E.01655
G1 X64.753 Y49.195 E.01618
G1 X65.249 Y49.323 E.01385
G1 X65.836 Y49.537 E.01687
G1 X66.495 Y49.867 E.01994
G1 X67.017 Y50.208 E.01683
G1 X67.5 Y50.603 E.01687
G1 X68.511 Y51.613 E.0386
G1 X69.034 Y52.26 E.02249
G1 X69.383 Y52.801 E.01739
G1 X69.549 Y53.104 E.00933
G1 X69.759 Y53.551 E.01334
G1 X69.985 Y54.152 E.01734
G1 X70.194 Y54.965 E.02268
G1 X70.27 Y55.454 E.01337
G1 X70.311 Y55.945 E.01332
G1 X70.321 Y60.614 E.12615
G1 X70.303 Y61.209 E.01609
G1 X70.202 Y62.173 E.02619
G1 X70.011 Y63.122 E.02616
G1 X69.806 Y63.832 E.01995
G1 X69.463 Y64.734 E.02608
G1 X69.035 Y65.603 E.02617
G1 X68.669 Y66.216 E.01929
G1 X68.398 Y66.614 E.01302
G1 X67.947 Y67.2 E.01998
G1 X67.297 Y67.914 E.02608
G1 X66.775 Y68.401 E.01929
G1 X66.014 Y69.002 E.0262
G1 X65.4 Y69.411 E.01992
G1 X64.983 Y69.653 E.01304
G1 X64.555 Y69.877 E.01305
G1 X63.904 Y70.169 E.01929
G1 X62.988 Y70.494 E.02624
G1 X62.277 Y70.682 E.01987
G1 X61.806 Y70.777 E.01299
G1 X60.844 Y70.902 E.0262
G1 X59.878 Y70.935 E.02614
G1 X58.912 Y70.879 E.02614
G1 X57.956 Y70.732 E.02614
G1 X57.017 Y70.496 E.02614
G1 X56.104 Y70.173 E.02617
G1 X55.453 Y69.881 E.01929
G1 X55.026 Y69.659 E.01299
G1 X54.2 Y69.152 E.02619
G1 X53.425 Y68.571 E.02617
G1 X52.874 Y68.081 E.01992
G1 X52.534 Y67.741 E.01299
G1 X51.899 Y67.009 E.0262
G1 X51.336 Y66.222 E.02614
G1 X50.849 Y65.386 E.02614
G1 X50.442 Y64.508 E.02614
G1 X50.12 Y63.595 E.02617
G1 X49.937 Y62.905 E.01929
G1 X49.841 Y62.432 E.01305
G1 X49.767 Y61.955 E.01304
G1 X49.698 Y61.219 E.01997
G1 X49.679 Y60.616 E.0163
G1 X49.679 Y56.282 E.1171
G1 X49.712 Y55.622 E.01784
G1 X49.802 Y54.987 E.01734
G1 X49.875 Y54.65 E.00932
G1 X49.941 Y54.414 E.00661
G1 X50.293 Y54.503 F36000
G1 F6000
G1 X50.346 Y54.291 E.0059
G1 X50.563 Y53.706 E.01686
G1 X50.76 Y53.285 E.01256
G1 X50.985 Y52.883 E.01245
G1 X51.24 Y52.492 E.01263
G1 X51.524 Y52.12 E.01263
G1 X51.841 Y51.759 E.01299
G1 X52.783 Y50.828 E.03578
G1 X53.243 Y50.462 E.01588
G1 X53.641 Y50.201 E.01286
G1 X54.15 Y49.934 E.01553
G1 X54.803 Y49.682 E.01891
G1 X55.27 Y49.556 E.01306
G1 X55.845 Y49.459 E.01577
G1 X56.532 Y49.423 E.01858
G1 X57.127 Y49.461 E.01609
G1 X57.696 Y49.557 E.01561
G1 X58.163 Y49.684 E.01307
G1 X58.817 Y49.938 E.01896
G1 X59.237 Y50.154 E.01277
G1 X59.704 Y50.454 E.01498
G1 X59.953 Y50.532 E.00705
G1 X60.134 Y50.525 E.0049
G1 X60.229 Y50.483 E.0028
G1 X60.714 Y50.182 E.01542
G1 X61.137 Y49.959 E.01294
G1 X61.692 Y49.732 E.0162
G1 X62.253 Y49.569 E.01578
G1 X62.927 Y49.455 E.01846
G1 X63.555 Y49.423 E.01699
G1 X64.129 Y49.456 E.01554
G1 X64.675 Y49.544 E.01494
G1 X65.148 Y49.666 E.01321
G1 X65.7 Y49.868 E.01587
G1 X66.312 Y50.174 E.01849
G1 X66.801 Y50.493 E.01578
G1 X67.264 Y50.872 E.01617
G1 X68.248 Y51.856 E.03761
G1 X68.741 Y52.466 E.02116
G1 X69.074 Y52.981 E.01658
G1 X69.432 Y53.694 E.02155
G1 X69.645 Y54.265 E.01647
G1 X69.842 Y55.032 E.02141
G1 X69.915 Y55.493 E.0126
G1 X69.954 Y55.965 E.0128
G1 X69.963 Y60.607 E.12544
G1 X69.946 Y61.181 E.01551
G1 X69.847 Y62.124 E.02562
G1 X69.665 Y63.033 E.02505
G1 X69.468 Y63.714 E.01915
G1 X69.137 Y64.587 E.02521
G1 X68.719 Y65.436 E.02558
G1 X68.369 Y66.021 E.01842
G1 X68.11 Y66.402 E.01245
G1 X67.67 Y66.974 E.0195
G1 X67.046 Y67.66 E.02505
G1 X66.545 Y68.127 E.0185
G1 X65.808 Y68.71 E.0254
G1 X65.209 Y69.109 E.01944
G1 X64.402 Y69.554 E.0249
G1 X63.766 Y69.839 E.01882
G1 X62.879 Y70.154 E.02545
G1 X62.199 Y70.333 E.01899
G1 X61.751 Y70.424 E.01235
G1 X60.81 Y70.545 E.02564
G1 X59.877 Y70.578 E.02523
G1 X58.945 Y70.522 E.02523
G1 X58.022 Y70.38 E.02523
G1 X57.116 Y70.152 E.02523
G1 X56.233 Y69.839 E.02531
G1 X55.611 Y69.56 E.01841
G1 X55.199 Y69.346 E.01256
G1 X54.397 Y68.853 E.02543
G1 X53.655 Y68.297 E.02506
G1 X53.122 Y67.823 E.01927
G1 X52.793 Y67.495 E.01255
G1 X52.183 Y66.791 E.02517
G1 X51.639 Y66.032 E.02523
G1 X51.168 Y65.225 E.02524
G1 X50.776 Y64.378 E.02523
G1 X50.463 Y63.494 E.02534
G1 X50.284 Y62.821 E.01882
G1 X50.122 Y61.914 E.0249
G1 X50.054 Y61.193 E.01955
G1 X50.037 Y60.609 E.01579
G1 X50.037 Y56.288 E.11675
G1 X50.067 Y55.661 E.01696
M73 P1 R3
G1 X50.153 Y55.054 E.01658
G1 X50.283 Y54.542 E.01426
G1 X50.629 Y54.63 F36000
G1 F6000
G1 X50.69 Y54.392 E.00662
G1 X50.894 Y53.84 E.01591
G1 X51.076 Y53.451 E.0116
G1 X51.288 Y53.071 E.01177
G1 X51.53 Y52.701 E.01194
G1 X51.798 Y52.349 E.01193
G1 X52.104 Y52.002 E.01251
G1 X53.017 Y51.1 E.03468
G1 X53.456 Y50.749 E.0152
G1 X53.827 Y50.507 E.01194
G1 X54.293 Y50.263 E.01422
G1 X54.909 Y50.023 E.01786
G1 X55.351 Y49.904 E.01237
G1 X55.878 Y49.816 E.01445
G1 X56.524 Y49.781 E.01748
G1 X57.08 Y49.815 E.01504
G1 X57.614 Y49.906 E.01465
G1 X58.057 Y50.026 E.01238
G1 X58.665 Y50.262 E.01763
G1 X59.063 Y50.467 E.01209
G1 X59.501 Y50.748 E.01406
G1 X59.839 Y50.87 E.00972
G1 X59.976 Y50.888 E.00372
G1 X60.138 Y50.882 E.00437
G1 X60.281 Y50.849 E.00398
G1 X61.281 Y50.287 E.031
G1 X61.815 Y50.068 E.01559
G1 X62.339 Y49.917 E.01473
G1 X62.959 Y49.811 E.01701
G1 X63.559 Y49.781 E.01623
G1 X64.096 Y49.812 E.01451
G1 X64.597 Y49.893 E.01371
G1 X65.047 Y50.009 E.01256
G1 X65.563 Y50.199 E.01488
G1 X66.128 Y50.482 E.01706
G1 X66.594 Y50.786 E.01504
G1 X67.028 Y51.141 E.01516
G1 X67.986 Y52.1 E.03662
G1 X68.447 Y52.671 E.01983
G1 X68.76 Y53.154 E.01554
G1 X69.106 Y53.842 E.02082
G1 X69.305 Y54.377 E.01543
G1 X69.491 Y55.099 E.02014
G1 X69.56 Y55.539 E.01203
G1 X69.597 Y55.984 E.01207
G1 X69.606 Y60.601 E.12472
G1 X69.59 Y61.153 E.01494
G1 X69.493 Y62.075 E.02505
G1 X69.318 Y62.944 E.02395
G1 X69.13 Y63.597 E.01836
G1 X68.807 Y64.449 E.02461
G1 X68.403 Y65.269 E.02471
G1 X68.069 Y65.826 E.01754
G1 X67.823 Y66.19 E.01188
G1 X67.393 Y66.748 E.01902
G1 X66.794 Y67.405 E.02403
G1 X66.315 Y67.853 E.01772
G1 X65.601 Y68.419 E.02461
G1 X65.019 Y68.805 E.01888
G1 X64.246 Y69.232 E.02386
G1 X63.629 Y69.509 E.01827
G1 X62.769 Y69.813 E.02466
G1 X62.121 Y69.984 E.0181
G1 X61.697 Y70.07 E.0117
G1 X60.786 Y70.189 E.02481
G1 X59.886 Y70.22 E.02432
G1 X58.988 Y70.167 E.02433
G1 X58.088 Y70.028 E.0246
G1 X57.215 Y69.808 E.02433
G1 X56.362 Y69.506 E.02444
G1 X55.77 Y69.24 E.01754
G1 X55.372 Y69.033 E.01212
G1 X54.594 Y68.555 E.02468
G1 X53.885 Y68.022 E.02396
G1 X53.369 Y67.565 E.01862
G1 X53.052 Y67.248 E.01211
G1 X52.466 Y66.574 E.02414
G1 X51.942 Y65.842 E.02433
G1 X51.488 Y65.064 E.02433
G1 X51.109 Y64.248 E.02432
G1 X50.805 Y63.393 E.02451
G1 X50.635 Y62.748 E.01803
G1 X50.477 Y61.87 E.0241
G1 X50.411 Y61.168 E.01906
G1 X50.394 Y60.602 E.01529
G1 X50.394 Y56.294 E.11639
G1 X50.423 Y55.7 E.01608
G1 X50.503 Y55.128 E.0156
G1 X50.62 Y54.668 E.01282
G1 X50.966 Y54.756 F36000
G1 F6000
G1 X51.033 Y54.493 E.00734
G1 X51.226 Y53.974 E.01495
G1 X51.396 Y53.611 E.01084
G1 X51.592 Y53.259 E.01088
G1 X51.82 Y52.91 E.01126
G1 X52.072 Y52.579 E.01124
G1 X52.366 Y52.244 E.01204
G1 X53.25 Y51.371 E.03358
G1 X53.67 Y51.036 E.01452
G1 X54.012 Y50.813 E.01102
G1 X54.436 Y50.591 E.01292
G1 X55.015 Y50.365 E.0168
G1 X55.432 Y50.253 E.01168
G1 X55.912 Y50.172 E.01313
G1 X56.517 Y50.139 E.01637
G1 X57.033 Y50.17 E.01399
G1 X57.533 Y50.254 E.01368
G1 X57.95 Y50.367 E.0117
G1 X58.513 Y50.586 E.01631
G1 X58.887 Y50.778 E.01136
G1 X59.39 Y51.087 E.01596
G1 X59.708 Y51.202 E.00913
G1 X59.998 Y51.245 E.00792
G1 X60.222 Y51.229 E.00608
G1 X60.467 Y51.155 E.0069
G1 X61.431 Y50.612 E.0299
G1 X61.938 Y50.404 E.0148
G1 X62.424 Y50.265 E.01367
G1 X62.992 Y50.168 E.01556
G1 X63.564 Y50.139 E.01546
G1 X64.062 Y50.168 E.01349
G1 X64.518 Y50.242 E.01249
G1 X64.945 Y50.352 E.01191
G1 X65.427 Y50.53 E.01388
G1 X65.945 Y50.789 E.01564
G1 X66.388 Y51.078 E.01429
G1 X66.792 Y51.41 E.01414
G1 X67.724 Y52.343 E.03563
G1 X68.154 Y52.876 E.01852
G1 X68.447 Y53.326 E.0145
G1 X68.78 Y53.991 E.02008
G1 X68.966 Y54.49 E.01439
G1 X69.14 Y55.167 E.01889
G1 X69.205 Y55.578 E.01124
G1 X69.24 Y55.995 E.01132
G1 X69.249 Y60.594 E.12425
G1 X69.233 Y61.133 E.01458
G1 X69.138 Y62.026 E.02426
G1 X68.972 Y62.855 E.02285
G1 X68.793 Y63.48 E.01756
G1 X68.477 Y64.31 E.02401
G1 X68.086 Y65.102 E.02384
G1 X67.77 Y65.632 E.01668
G1 X67.535 Y65.978 E.01131
G1 X67.116 Y66.521 E.01853
G1 X66.543 Y67.151 E.02301
G1 X66.085 Y67.579 E.01693
G1 X65.395 Y68.127 E.02381
G1 X64.83 Y68.502 E.01832
G1 X64.09 Y68.91 E.02283
G1 X63.492 Y69.179 E.01771
G1 X62.659 Y69.473 E.02387
G1 X62.043 Y69.636 E.01722
G1 X61.642 Y69.717 E.01106
G1 X60.752 Y69.832 E.02425
G1 X59.886 Y69.862 E.02342
G1 X59.02 Y69.811 E.02342
G1 X58.154 Y69.677 E.02369
G1 X57.314 Y69.464 E.02342
G1 X56.491 Y69.172 E.02358
G1 X55.928 Y68.92 E.01667
G1 X55.545 Y68.72 E.01168
G1 X54.791 Y68.256 E.02392
G1 X54.114 Y67.748 E.02286
G1 X53.616 Y67.307 E.01796
G1 X53.311 Y67.002 E.01167
G1 X52.75 Y66.356 E.02312
G1 X52.245 Y65.652 E.02342
G1 X51.807 Y64.903 E.02342
G1 X51.442 Y64.117 E.02342
G1 X51.148 Y63.291 E.02368
G1 X50.985 Y62.675 E.01724
G1 X50.832 Y61.826 E.0233
G1 X50.767 Y61.142 E.01856
G1 X50.751 Y60.595 E.01479
G1 X50.751 Y56.3 E.11603
G1 X50.779 Y55.738 E.0152
G1 X50.853 Y55.203 E.01461
G1 X50.957 Y54.795 E.01137
G1 X51.303 Y54.883 F36000
G1 F6000
G1 X51.376 Y54.594 E.00805
G1 X51.557 Y54.109 E.01399
G1 X51.716 Y53.771 E.01009
G1 X51.896 Y53.447 E.01001
G1 X52.11 Y53.119 E.01057
G1 X52.346 Y52.808 E.01054
G1 X52.629 Y52.487 E.01156
G1 X53.484 Y51.642 E.03248
G1 X53.883 Y51.323 E.01383
G1 X54.197 Y51.12 E.0101
G1 X54.579 Y50.919 E.01164
G1 X55.121 Y50.707 E.01575
G1 X55.514 Y50.601 E.01098
G1 X55.945 Y50.529 E.01182
G1 X56.51 Y50.497 E.01528
G1 X56.987 Y50.525 E.01293
G1 X57.451 Y50.602 E.0127
G1 X57.844 Y50.709 E.011
G1 X58.371 Y50.914 E.01529
G1 X58.714 Y51.091 E.0104
G1 X59.277 Y51.426 E.01772
G1 X59.665 Y51.557 E.01104
G1 X60.032 Y51.6 E.00998
G1 X60.335 Y51.567 E.00825
G1 X60.559 Y51.5 E.00632
G1 X61.582 Y50.937 E.03155
G1 X62.061 Y50.74 E.01398
G1 X62.51 Y50.612 E.0126
G1 X63.025 Y50.525 E.01413
G1 X63.568 Y50.497 E.01469
G1 X64.028 Y50.525 E.01246
G1 X64.44 Y50.591 E.01127
G1 X64.843 Y50.695 E.01125
G1 X65.29 Y50.861 E.01287
G1 X65.761 Y51.097 E.01423
G1 X66.181 Y51.37 E.01353
G1 X66.556 Y51.678 E.01312
G1 X67.461 Y52.587 E.03465
G1 X67.861 Y53.082 E.01721
G1 X68.133 Y53.499 E.01346
G1 X68.454 Y54.139 E.01933
G1 X68.626 Y54.602 E.01335
G1 X68.788 Y55.235 E.01764
G1 X68.85 Y55.617 E.01046
G1 X68.883 Y56.006 E.01055
G1 X68.892 Y60.587 E.12377
G1 X68.876 Y61.113 E.01421
G1 X68.784 Y61.977 E.02347
G1 X68.625 Y62.766 E.02176
G1 X68.455 Y63.363 E.01676
G1 X68.151 Y64.163 E.02314
G1 X67.77 Y64.935 E.02325
G1 X67.47 Y65.437 E.01581
G1 X67.247 Y65.766 E.01073
G1 X66.839 Y66.295 E.01805
G1 X66.291 Y66.897 E.02199
G1 X65.855 Y67.306 E.01615
G1 X65.188 Y67.835 E.02301
G1 X64.641 Y68.199 E.01776
G1 X63.934 Y68.588 E.0218
G1 X63.355 Y68.848 E.01716
G1 X62.55 Y69.133 E.02308
G1 X61.965 Y69.287 E.01635
G1 X61.587 Y69.364 E.01041
G1 X60.718 Y69.476 E.02369
G1 X59.885 Y69.505 E.02251
G1 X59.053 Y69.455 E.02251
G1 X58.22 Y69.325 E.02278
G1 X57.413 Y69.12 E.02251
G1 X56.62 Y68.839 E.02272
G1 X56.087 Y68.599 E.0158
G1 X55.718 Y68.407 E.01124
G1 X54.988 Y67.958 E.02316
G1 X54.343 Y67.474 E.02178
G1 X53.864 Y67.05 E.01731
G1 X53.57 Y66.756 E.01122
G1 X53.034 Y66.138 E.0221
G1 X52.547 Y65.461 E.02252
G1 X52.126 Y64.742 E.02252
G1 X51.775 Y63.986 E.02251
M73 P2 R3
G1 X51.491 Y63.19 E.02285
G1 X51.335 Y62.601 E.01645
G1 X51.187 Y61.782 E.02251
G1 X51.124 Y61.116 E.01806
G1 X51.108 Y60.588 E.01428
G1 X51.108 Y56.307 E.11568
G1 X51.134 Y55.777 E.01433
G1 X51.204 Y55.277 E.01362
G1 X51.294 Y54.921 E.00992
G1 X51.64 Y55.009 F36000
G1 F6000
G1 X51.716 Y54.706 E.00845
G1 X51.885 Y54.251 E.01311
G1 X52.204 Y53.628 E.01891
G1 X52.4 Y53.328 E.00969
G1 X52.62 Y53.038 E.00984
G1 X52.891 Y52.73 E.01108
G1 X53.717 Y51.913 E.03139
G1 X54.088 Y51.616 E.01285
G1 X54.382 Y51.426 E.00945
G1 X54.732 Y51.243 E.01069
G1 X55.239 Y51.045 E.01468
G1 X55.595 Y50.95 E.00997
G1 X55.979 Y50.885 E.01051
G1 X56.503 Y50.855 E.01418
G1 X56.942 Y50.88 E.01188
G1 X57.369 Y50.951 E.01171
G1 X57.737 Y51.051 E.0103
G1 X58.219 Y51.238 E.01397
G1 X59.172 Y51.767 E.02943
G1 X59.632 Y51.912 E.01303
G1 X60.08 Y51.954 E.01217
G1 X60.364 Y51.923 E.00773
G1 X60.654 Y51.844 E.0081
G1 X61.732 Y51.262 E.03311
G1 X62.184 Y51.077 E.0132
G1 X62.595 Y50.96 E.01153
G1 X63.058 Y50.881 E.0127
G1 X63.572 Y50.855 E.01391
G1 X63.994 Y50.881 E.01142
G1 X64.372 Y50.942 E.01033
G1 X64.741 Y51.038 E.01032
G1 X65.153 Y51.191 E.01187
G1 X65.578 Y51.404 E.01283
G1 X65.974 Y51.662 E.01277
G1 X66.319 Y51.947 E.01209
G1 X67.191 Y52.822 E.03337
G1 X67.569 Y53.288 E.01621
G1 X67.826 Y53.683 E.01273
G1 X68.124 Y54.276 E.01793
G1 X68.283 Y54.704 E.01233
G1 X68.439 Y55.313 E.01698
G1 X68.495 Y55.664 E.00962
G1 X68.525 Y56.026 E.00981
G1 X68.535 Y60.58 E.12305
G1 X68.52 Y61.084 E.01363
G1 X68.431 Y61.918 E.02264
G1 X68.279 Y62.678 E.02094
G1 X68.114 Y63.254 E.0162
G1 X67.825 Y64.016 E.02201
G1 X67.453 Y64.77 E.02272
G1 X66.962 Y65.551 E.02493
G1 X66.563 Y66.069 E.01766
G1 X66.034 Y66.649 E.02121
G1 X65.618 Y67.038 E.01537
G1 X64.981 Y67.543 E.02196
G1 X64.459 Y67.891 E.01695
G1 X63.779 Y68.266 E.021
G1 X63.227 Y68.515 E.01636
G1 X62.44 Y68.792 E.02252
G1 X61.886 Y68.938 E.01548
G1 X61.532 Y69.011 E.00976
G1 X60.694 Y69.119 E.02285
G1 X59.895 Y69.147 E.0216
G1 X59.097 Y69.1 E.0216
G1 X58.297 Y68.976 E.02186
G1 X57.522 Y68.78 E.02161
G1 X56.757 Y68.508 E.02191
G1 X56.245 Y68.279 E.01516
G1 X55.898 Y68.098 E.0106
G1 X55.185 Y67.659 E.0226
G1 X54.566 Y67.194 E.02093
G1 X54.111 Y66.792 E.01641
G1 X53.829 Y66.509 E.01078
G1 X53.311 Y65.912 E.02135
G1 X52.85 Y65.27 E.02136
G1 X52.446 Y64.58 E.02161
G1 X52.108 Y63.855 E.02161
G1 X51.834 Y63.088 E.02202
G1 X51.683 Y62.519 E.01589
G1 X51.542 Y61.737 E.02147
G1 X51.48 Y61.09 E.01756
G1 X51.465 Y60.581 E.01377
G1 X51.465 Y56.318 E.11518
G1 X51.49 Y55.815 E.01361
G1 X51.556 Y55.34 E.01295
G1 X51.63 Y55.048 E.00815
G1 X51.976 Y55.135 F36000
G1 F6000
G1 X52.056 Y54.818 E.00885
