; HEADER_BLOCK_START
; generated by OrcaSlicer 2.3.1 on 2026-02-07 at 16:54:01
; total layer number: 50
; filament_density: 1.04
; filament_diameter: 1.75
; max_z_height: 10.00
; HEADER_BLOCK_END

; THUMBNAIL_BLOCK_START

;
; THUMBNAIL_BLOCK_END

; THUMBNAIL_BLOCK_START

;
; THUMBNAIL_BLOCK_END

; external perimeters extrusion width = 0.40mm
; perimeters extrusion width = 0.40mm
; infill extrusion width = 0.40mm
; solid infill extrusion width = 0.40mm
; top infill extrusion width = 0.40mm
; first layer extrusion width = 0.40mm

; EXECUTABLE_BLOCK_START


; Pre-Processed for Cancel-Object support by preprocess_cancellation v0.2.0
; 1 known objects
EXCLUDE_OBJECT_DEFINE NAME=Object_1_id_15_copy_0 CENTER=59.732,60.060 POLYGON=[[35.988,45.808],[35.988,74.192],[84.012,74.192],[84.012,45.808]]
M73 P0 R4
;TYPE:Custom
PRINT_START EXTRUDER_TEMP=255 BED_TEMP=105
G90
G21
M83 ; use relative distances for extrusion
; Filament gcode
SET_PRESSURE_ADVANCE ADVANCE=0.04; Override pressure advance value
M106 S0
;LAYER_CHANGE
;Z:0.2
;HEIGHT:0.2
;BEFORE_LAYER_CHANGE
;0.2
G92 E0

G1 E-.8 F1800
;AFTER_LAYER_CHANGE
;0.2
;_SET_FAN_SPEED_CHANGING_LAYER
SET_VELOCITY_LIMIT ACCEL=10000 ACCEL_TO_DECEL=10000
SET_VELOCITY_LIMIT SQUARE_CORNER_VELOCITY=9
; printing object Object_1 id:15 copy 0
EXCLUDE_OBJECT_START NAME=Object_1_id_15_copy_0
G1 Z.6 F36000
G1 X38.386 Y55.233
G1 Z.6
G1 Z.2
G1 E.8 F1800
;TYPE:Brim
;WIDTH:0.4
G1 F6000
G1 X39.116 Y54.843 E.02238
G1 X39.913 Y54.561 E.02284
G1 X40.546 Y54.424 E.0175
G1 X41.364 Y54.355 E.02218
G1 X48.336 Y54.354 E.18836
G1 X48.458 Y54.306 E.00355
G1 X48.514 Y54.179 E.00376
G1 X48.529 Y53.346 E.02249
G1 X48.667 Y52.555 E.02171
G1 X48.883 Y51.91 E.01838
G1 X49.188 Y51.301 E.01841
G1 X49.578 Y50.74 E.01845
G1 X49.919 Y50.358 E.01383
G1 X52.86 Y47.402 E.11267
G1 X53.573 Y46.809 E.02506
G1 X53.714 Y46.713 E.0046
G1 X54.312 Y46.365 E.0187
G1 X54.92 Y46.112 E.01779
G1 X55.857 Y45.871 E.02615
G1 X56.652 Y45.808 E.02154
G1 X57.085 Y45.81 E.01169
G1 X57.77 Y45.861 E.01857
G1 X58.46 Y46.014 E.01907
G1 X59.151 Y46.271 E.01993
G1 X59.771 Y46.615 E.01917
G1 X59.981 Y46.759 E.00688
G1 X60.109 Y46.789 E.00355
G1 X60.183 Y46.76 E.00215
G1 X60.548 Y46.51 E.01195
G1 X61.157 Y46.201 E.01844
G1 X61.793 Y45.984 E.01816
G1 X62.462 Y45.849 E.01845
G1 X63.086 Y45.808 E.01689
G1 X63.531 Y45.808 E.01202
G1 X64.398 Y45.886 E.02352
G1 X65.389 Y46.168 E.02784
G1 X66.035 Y46.467 E.01924
G1 X66.735 Y46.93 E.02267
G1 X67.238 Y47.364 E.01796
G1 X70.236 Y50.33 E.11393
G1 X70.689 Y50.847 E.01858
G1 X71.062 Y51.417 E.01841
G1 X71.351 Y52.037 E.01848
G1 X71.475 Y52.403 E.01045
G1 X71.647 Y53.164 E.02109
G1 X71.697 Y53.843 E.01839
G1 X71.675 Y54.163 E.00865
G1 X71.715 Y54.288 E.00355
G1 X71.853 Y54.353 E.00414
G1 X78.574 Y54.353 E.1816
G1 X79.225 Y54.397 E.01761
G1 X79.879 Y54.514 E.01795
G1 X80.691 Y54.769 E.023
G1 X81.421 Y55.123 E.02194
G1 X82.189 Y55.684 E.02568
G1 X82.667 Y56.165 E.01833
G1 X83.152 Y56.837 E.02239
G1 X83.552 Y57.596 E.02318
G1 X83.769 Y58.231 E.01812
G1 X83.904 Y58.9 E.01845
G1 X84.012 Y60.635 E.04695
G1 X84.012 Y61.205 E.0154
G1 X83.936 Y62.501 E.03509
G1 X83.769 Y63.519 E.02787
G1 X83.417 Y64.794 E.03574
G1 X83.224 Y65.36 E.01617
G1 X82.72 Y66.583 E.03573
G1 X82.362 Y67.286 E.02131
G1 X81.675 Y68.404 E.03547
G1 X81.215 Y69.032 E.02104
G1 X80.359 Y70.028 E.03548
G1 X79.816 Y70.568 E.02068
G1 X78.807 Y71.426 E.03579
G1 X78.166 Y71.887 E.02135
G1 X77.049 Y72.562 E.03527
G1 X76.406 Y72.889 E.01947
G1 X75.198 Y73.394 E.03539
G1 X74.457 Y73.638 E.02108
G1 X73.186 Y73.945 E.03531
G1 X72.434 Y74.066 E.02058
G1 X71.115 Y74.175 E.03577
G1 X70.712 Y74.191 E.01089
G1 X49.265 Y74.192 E.57949
G1 X47.556 Y74.069 E.04631
G1 X46.807 Y73.95 E.02048
G1 X45.536 Y73.645 E.03531
G1 X44.814 Y73.411 E.02051
G1 X43.589 Y72.907 E.03579
G1 X42.926 Y72.574 E.02004
G1 X41.809 Y71.902 E.03522
G1 X41.139 Y71.417 E.02233
G1 X40.143 Y70.561 E.0355
G1 X39.599 Y70.013 E.02088
G1 X38.756 Y69.018 E.03523
G1 X38.349 Y68.464 E.01857
G1 X37.645 Y67.349 E.03564
G1 X37.26 Y66.605 E.02262
G1 X36.753 Y65.38 E.03582
G1 X36.531 Y64.711 E.01905
G1 X36.209 Y63.443 E.03535
G1 X36.067 Y62.53 E.02497
G1 X35.989 Y61.225 E.03531
G1 X35.988 Y60.648 E.01559
G1 X36.063 Y59.335 E.03554
G1 X36.15 Y58.571 E.02079
G1 X36.41 Y57.687 E.02487
G1 X36.751 Y56.976 E.02133
G1 X37.186 Y56.325 E.02116
G1 X37.798 Y55.682 E.02397
G1 X38.354 Y55.257 E.0189
G1 X38.572 Y55.542 F36000
G1 F6000
G1 X38.587 Y55.53 E.00053
G1 X39.254 Y55.174 E.02042
G1 X40.005 Y54.908 E.02153
G1 X40.606 Y54.777 E.01664
G1 X41.384 Y54.712 E.02108
G1 X48.326 Y54.711 E.18756
G1 X48.578 Y54.642 E.00705
G1 X48.722 Y54.542 E.00476
G1 X48.837 Y54.329 E.00653
G1 X48.872 Y54.174 E.00429
G1 X48.887 Y53.372 E.02168
G1 X49.012 Y52.651 E.01979
G1 X49.211 Y52.055 E.01698
G1 X49.493 Y51.49 E.01704
G1 X49.855 Y50.967 E.0172
G1 X50.181 Y50.601 E.01323
G1 X53.106 Y47.662 E.11205
G1 X53.908 Y47.013 E.02787
G1 X54.465 Y46.689 E.01741
G1 X55.027 Y46.455 E.01645
G1 X55.926 Y46.224 E.02508
G1 X56.67 Y46.166 E.02017
G1 X57.075 Y46.167 E.01094
G1 X57.711 Y46.214 E.01723
G1 X58.351 Y46.355 E.01771
G1 X58.993 Y46.594 E.01852
G1 X59.578 Y46.916 E.01805
G1 X59.77 Y47.048 E.00628
G1 X60.013 Y47.133 E.00695
G1 X60.254 Y47.115 E.00655
G1 X60.303 Y47.096 E.00142
G1 X60.736 Y46.815 E.01395
G1 X61.289 Y46.535 E.01675
G1 X61.88 Y46.332 E.01687
G1 X62.516 Y46.203 E.01755
G1 X63.094 Y46.166 E.01564
G1 X63.52 Y46.166 E.0115
G1 X64.342 Y46.242 E.02232
G1 X65.256 Y46.502 E.02568
G1 X65.868 Y46.784 E.01819
G1 X66.513 Y47.211 E.02091
G1 X66.998 Y47.629 E.0173
G1 X69.973 Y50.572 E.11306
G1 X70.408 Y51.069 E.01786
G1 X70.752 Y51.598 E.01704
G1 X71.021 Y52.176 E.01722
G1 X71.132 Y52.505 E.0094
G1 X71.292 Y53.209 E.0195
G1 X71.339 Y53.836 E.01699
G1 X71.32 Y54.128 E.0079
G1 X71.338 Y54.28 E.00415
G1 X71.371 Y54.384 E.00294
G1 X71.463 Y54.538 E.00484
G1 X71.57 Y54.614 E.00356
G1 X71.689 Y54.671 E.00356
G1 X71.865 Y54.71 E.00487
G1 X78.559 Y54.71 E.18086
G1 X79.176 Y54.751 E.0167
G1 X79.787 Y54.86 E.01677
G1 X80.551 Y55.099 E.02164
G1 X81.244 Y55.436 E.02083
G1 X81.961 Y55.962 E.02401
G1 X82.399 Y56.404 E.01682
G1 X82.844 Y57.019 E.02051
G1 X83.225 Y57.746 E.02218
G1 X83.425 Y58.331 E.01671
G1 X83.55 Y58.954 E.01716
G1 X83.655 Y60.642 E.0457
G1 X83.655 Y61.191 E.01483
G1 X83.581 Y62.456 E.03423
G1 X83.42 Y63.436 E.02685
G1 X83.077 Y64.686 E.035
G1 X82.89 Y65.231 E.01558
G1 X82.397 Y66.43 E.03502
G1 X82.053 Y67.107 E.02053
G1 X81.38 Y68.201 E.0347
G1 X80.938 Y68.807 E.02027
G1 X80.095 Y69.788 E.03495
G1 X79.571 Y70.308 E.01993
G1 X78.583 Y71.147 E.03502
G1 X77.965 Y71.591 E.02057
G1 X76.879 Y72.248 E.0343
G1 X76.253 Y72.566 E.01897
G1 X75.069 Y73.061 E.03466
G1 X74.355 Y73.295 E.02031
G1 X73.12 Y73.594 E.03433
G1 X72.386 Y73.712 E.02008
G1 X70.703 Y73.834 E.0456
G1 X49.282 Y73.835 E.57878
G1 X47.592 Y73.713 E.04577
M73 P1 R4
G1 X46.873 Y73.598 E.01968
G1 X45.629 Y73.299 E.03456
G1 X44.933 Y73.074 E.01977
G1 X43.734 Y72.58 E.03505
G1 X43.095 Y72.259 E.01931
G1 X42.003 Y71.601 E.03447
G1 X41.357 Y71.134 E.02152
G1 X40.384 Y70.296 E.0347
G1 X39.859 Y69.768 E.02012
G1 X39.034 Y68.794 E.0345
G1 X38.642 Y68.26 E.0179
G1 X37.953 Y67.167 E.03491
G1 X37.582 Y66.45 E.0218
G1 X37.087 Y65.252 E.03504
G1 X36.873 Y64.607 E.01835
G1 X36.559 Y63.366 E.03458
G1 X36.422 Y62.486 E.02406
G1 X36.346 Y61.211 E.03452
G1 X36.345 Y60.655 E.01503
G1 X36.419 Y59.368 E.03482
G1 X36.501 Y58.651 E.01951
G1 X36.742 Y57.824 E.02327
G1 X37.059 Y57.16 E.01988
G1 X37.472 Y56.542 E.02009
G1 X38.032 Y55.955 E.0219
G1 X38.54 Y55.566 E.01728
G1 X38.757 Y55.851 F36000
G1 F6000
G1 X38.789 Y55.827 E.00106
G1 X39.406 Y55.499 E.01889
G1 X40.096 Y55.254 E.01979
G1 X40.653 Y55.132 E.01539
G1 X41.403 Y55.069 E.02036
G1 X48.314 Y55.068 E.18671
G1 X48.665 Y54.988 E.00972
G1 X48.789 Y54.93 E.00372
G1 X48.916 Y54.842 E.00417
G1 X49.04 Y54.703 E.00503
G1 X49.188 Y54.396 E.0092
G1 X49.229 Y54.173 E.00614
G1 X49.245 Y53.398 E.02093
G1 X49.358 Y52.746 E.01789
G1 X49.539 Y52.199 E.01558
G1 X49.805 Y51.666 E.01608
G1 X50.132 Y51.194 E.01553
G1 X50.443 Y50.844 E.01263
G1 X53.341 Y47.932 E.11103
G1 X54.118 Y47.304 E.02698
G1 X54.618 Y47.013 E.01562
G1 X55.148 Y46.792 E.01551
G1 X55.994 Y46.577 E.02359
G1 X56.679 Y46.523 E.01857
G1 X57.057 Y46.524 E.01022
G1 X57.666 Y46.57 E.01651
G1 X58.257 Y46.701 E.01635
G1 X58.853 Y46.924 E.01719
G1 X59.661 Y47.388 E.02517
G1 X59.884 Y47.466 E.00639
G1 X60.05 Y47.488 E.00454
G1 X60.271 Y47.472 E.00597
G1 X60.43 Y47.429 E.00446
G1 X60.92 Y47.122 E.01562
G1 X61.436 Y46.862 E.01561
G1 X61.98 Y46.675 E.01555
G1 X62.571 Y46.557 E.01626
G1 X63.102 Y46.523 E.01439
G1 X63.498 Y46.523 E.01071
G1 X64.266 Y46.593 E.02085
G1 X65.14 Y46.841 E.02452
G1 X65.7 Y47.101 E.01669
G1 X66.291 Y47.493 E.01917
G1 X66.753 Y47.889 E.01643
G1 X69.71 Y50.814 E.11238
G1 X70.118 Y51.28 E.01672
G1 X70.442 Y51.778 E.01608
G1 X70.686 Y52.303 E.01563
G1 X70.786 Y52.597 E.00839
G1 X70.938 Y53.27 E.01866
G1 X70.98 Y53.831 E.01518
G1 X70.966 Y54.179 E.00943
G1 X71.029 Y54.485 E.00842
G1 X71.153 Y54.714 E.00704
G1 X71.263 Y54.833 E.0044
G1 X71.422 Y54.939 E.00515
G1 X71.618 Y55.02 E.00573
G1 X71.875 Y55.067 E.00706
G1 X78.543 Y55.067 E.18018
G1 X79.138 Y55.107 E.0161
G1 X79.708 Y55.21 E.01565
G1 X80.411 Y55.43 E.01991
G1 X81.051 Y55.739 E.01918
G1 X81.72 Y56.228 E.02241
G1 X82.12 Y56.63 E.01531
G1 X82.543 Y57.215 E.01951
G1 X82.892 Y57.88 E.0203
G1 X83.077 Y58.418 E.01537
G1 X83.193 Y58.994 E.01587
G1 X83.297 Y60.65 E.04485
G1 X83.298 Y61.178 E.01425
G1 X83.226 Y62.411 E.03338
G1 X83.072 Y63.354 E.02583
G1 X82.736 Y64.577 E.03426
G1 X82.557 Y65.102 E.01499
G1 X82.074 Y66.277 E.03431
G1 X81.743 Y66.928 E.01975
G1 X81.086 Y67.998 E.03393
G1 X80.66 Y68.582 E.0195
G1 X79.836 Y69.541 E.03419
G1 X79.332 Y70.042 E.01918
G1 X78.366 Y70.863 E.03426
G1 X77.772 Y71.291 E.01979
G1 X76.709 Y71.933 E.03357
G1 X76.106 Y72.24 E.01826
G1 X74.949 Y72.724 E.03391
G1 X74.261 Y72.95 E.01955
G1 X73.054 Y73.242 E.03357
G1 X72.34 Y73.357 E.01952
G1 X70.686 Y73.477 E.04481
G1 X49.298 Y73.477 E.57788
G1 X47.638 Y73.359 E.04498
G1 X46.939 Y73.247 E.01912
G1 X45.73 Y72.956 E.03359
G1 X45.06 Y72.74 E.01902
G1 X43.886 Y72.256 E.03431
G1 X43.265 Y71.944 E.0188
G1 X42.203 Y71.305 E.03346
G1 X41.582 Y70.856 E.0207
G1 X40.63 Y70.038 E.03392
G1 X40.126 Y69.529 E.01936
G1 X39.317 Y68.575 E.03379
G1 X38.94 Y68.062 E.01722
G1 X38.265 Y66.993 E.03414
G1 X37.909 Y66.304 E.02097
G1 X37.42 Y65.123 E.03451
G1 X37.215 Y64.503 E.01766
G1 X36.908 Y63.29 E.03381
G1 X36.777 Y62.443 E.02315
G1 X36.703 Y61.197 E.03373
G1 X36.702 Y60.662 E.01446
G1 X36.775 Y59.402 E.03411
G1 X36.851 Y58.731 E.01825
G1 X37.08 Y57.944 E.02214
G1 X37.374 Y57.33 E.01838
G1 X37.747 Y56.774 E.01811
G1 X38.265 Y56.228 E.02033
G1 X38.726 Y55.876 E.01567
G1 X38.943 Y56.16 F36000
G1 F6000
G1 X38.99 Y56.125 E.00159
G1 X39.543 Y55.83 E.01693
G1 X40.188 Y55.6 E.0185
G1 X40.713 Y55.486 E.01452
G1 X41.423 Y55.426 E.01925
G1 X48.303 Y55.425 E.1859
G1 X48.736 Y55.338 E.01194
G1 X48.936 Y55.255 E.00584
G1 X49.113 Y55.139 E.00573
G1 X49.303 Y54.945 E.00734
G1 X49.504 Y54.562 E.01169
G1 X49.579 Y54.243 E.00885
G1 X49.601 Y53.44 E.0217
G1 X49.708 Y52.825 E.01686
G1 X49.874 Y52.328 E.01416
G1 X50.11 Y51.855 E.01428
G1 X50.41 Y51.42 E.01428
G1 X50.705 Y51.087 E.01202
G1 X53.585 Y48.194 E.11032
G1 X54.329 Y47.595 E.02579
G1 X54.771 Y47.337 E.01383
G1 X55.254 Y47.135 E.01414
G1 X56.061 Y46.93 E.02251
G1 X56.697 Y46.88 E.01721
G1 X57.047 Y46.882 E.00946
G1 X57.606 Y46.924 E.01516
G1 X58.162 Y47.047 E.01539
G1 X58.707 Y47.252 E.01573
G1 X59.55 Y47.727 E.02612
G1 X59.844 Y47.821 E.00835
G1 X60.085 Y47.844 E.00655
G1 X60.288 Y47.829 E.0055
G1 X60.517 Y47.775 E.00635
G1 X60.626 Y47.728 E.00319
G1 X61.1 Y47.432 E.0151
G1 X61.568 Y47.195 E.01418
G1 X62.067 Y47.023 E.01426
G1 X62.624 Y46.912 E.01536
G1 X63.11 Y46.88 E.01314
G1 X63.487 Y46.88 E.01018
G1 X64.21 Y46.949 E.01964
G1 X65.007 Y47.175 E.02236
G1 X65.532 Y47.418 E.01565
G1 X66.07 Y47.775 E.01744
G1 X66.514 Y48.154 E.01577
G1 X69.452 Y51.062 E.11169
G1 X69.836 Y51.502 E.01579
G1 X70.125 Y51.946 E.0143
G1 X70.352 Y52.43 E.01446
G1 X70.443 Y52.699 E.00766
G1 X70.582 Y53.316 E.01708
G1 X70.622 Y53.831 E.01396
G1 X70.619 Y54.262 E.01165
G1 X70.677 Y54.548 E.0079
G1 X70.718 Y54.66 E.0032
G1 X70.897 Y54.962 E.00949
G1 X71.074 Y55.136 E.00672
G1 X71.216 Y55.23 E.00459
G1 X71.563 Y55.373 E.01016
G1 X71.884 Y55.425 E.00876
G1 X78.528 Y55.425 E.17952
G1 X79.089 Y55.462 E.01518
G1 X79.617 Y55.556 E.01449
G1 X80.272 Y55.76 E.01855
G1 X80.874 Y56.052 E.01807
G1 X81.493 Y56.506 E.02074
G1 X81.852 Y56.868 E.01379
G1 X82.234 Y57.397 E.01763
G1 X82.566 Y58.029 E.0193
G1 X82.733 Y58.518 E.01396
G1 X82.839 Y59.048 E.01458
G1 X82.94 Y60.658 E.0436
G1 X82.941 Y61.164 E.01368
G1 X82.871 Y62.366 E.03252
G1 X82.721 Y63.284 E.02512
G1 X82.396 Y64.469 E.03321
G1 X82.224 Y64.974 E.0144
G1 X81.751 Y66.124 E.0336
G1 X81.433 Y66.75 E.01898
G1 X80.791 Y67.796 E.03316
G1 X80.383 Y68.356 E.01873
G1 X79.577 Y69.295 E.03342
G1 X79.093 Y69.776 E.01842
G1 X78.149 Y70.578 E.03349
G1 X77.578 Y70.99 E.01902
G1 X76.538 Y71.619 E.03284
G1 X75.96 Y71.914 E.01755
G1 X74.828 Y72.388 E.03316
G1 X74.167 Y72.605 E.01878
G1 X72.987 Y72.891 E.03281
G1 X72.294 Y73.003 E.01896
G1 X70.669 Y73.12 E.04402
G1 X49.315 Y73.12 E.57697
G1 X47.684 Y73.004 E.04419
M73 P2 R4
G1 X47.005 Y72.895 E.01857
G1 X45.831 Y72.613 E.03262
G1 X45.187 Y72.405 E.01827
G1 X44.038 Y71.933 E.03357
G1 X43.434 Y71.629 E.01829
G1 X42.404 Y71.009 E.03246
G1 X41.807 Y70.578 E.01989
G1 X40.877 Y69.779 E.03314
G1 X40.392 Y69.291 E.0186
G1 X39.6 Y68.357 E.03309
G1 X39.237 Y67.863 E.01654
G1 X38.578 Y66.819 E.03336
G1 X38.235 Y66.157 E.02015
G1 X37.757 Y65.002 E.03377
G1 X37.559 Y64.407 E.01696
G1 X37.26 Y63.224 E.03297
G1 X37.133 Y62.41 E.02224
G1 X37.06 Y61.19 E.03304
G1 X37.059 Y60.675 E.01389
G1 X37.131 Y59.435 E.03357
G1 X37.205 Y58.792 E.01748
G1 X37.412 Y58.08 E.02004
G1 X37.682 Y57.515 E.01692
G1 X38.033 Y56.991 E.01704
G1 X38.498 Y56.5 E.01827
G1 X38.912 Y56.185 E.01404
G1 X39.129 Y56.47 F36000
G1 F6000
G1 X39.191 Y56.422 E.00211
G1 X39.695 Y56.155 E.01541
G1 X40.28 Y55.947 E.01678
G1 X40.759 Y55.841 E.01326
G1 X41.443 Y55.783 E.01852
G1 X48.293 Y55.782 E.18511
G1 X48.797 Y55.69 E.01385
G1 X49.138 Y55.549 E.00996
G1 X49.376 Y55.381 E.00786
G1 X49.553 Y55.199 E.00686
G1 X49.622 Y55.104 E.00317
G1 X49.817 Y54.734 E.0113
G1 X49.936 Y54.243 E.01364
G1 X49.959 Y53.468 E.02095
G1 X50.054 Y52.921 E.01502
G1 X50.202 Y52.472 E.01276
G1 X50.423 Y52.031 E.01333
G1 X50.688 Y51.646 E.01263
G1 X50.967 Y51.33 E.01141
G1 X53.821 Y48.463 E.10927
G1 X54.539 Y47.886 E.0249
G1 X54.937 Y47.655 E.01244
G1 X55.375 Y47.473 E.01282
G1 X56.129 Y47.283 E.021
G1 X56.705 Y47.238 E.01562
G1 X57.029 Y47.239 E.00874
G1 X57.561 Y47.28 E.01443
G1 X58.067 Y47.393 E.01401
G1 X58.562 Y47.58 E.01429
G1 X59.451 Y48.07 E.02742
G1 X59.726 Y48.158 E.0078
G1 X60.044 Y48.198 E.00867
G1 X60.378 Y48.175 E.00903
G1 X60.667 Y48.099 E.00807
G1 X60.82 Y48.027 E.00458
G1 X61.279 Y47.741 E.01462
G1 X61.714 Y47.522 E.01315
G1 X62.168 Y47.367 E.01294
G1 X62.664 Y47.268 E.01368
G1 X63.461 Y47.238 E.02154
G1 X64.135 Y47.3 E.01828
G1 X64.89 Y47.514 E.02121
G1 X65.364 Y47.735 E.01414
G1 X65.849 Y48.056 E.01572
G1 X66.269 Y48.415 E.0149
G1 X69.189 Y51.304 E.11099
G1 X69.546 Y51.712 E.01466
G1 X69.815 Y52.126 E.01335
G1 X70.018 Y52.558 E.01289
G1 X70.1 Y52.801 E.00693
G1 X70.229 Y53.377 E.01593
G1 X70.265 Y53.846 E.0127
G1 X70.271 Y54.344 E.01346
G1 X70.326 Y54.614 E.00745
G1 X70.38 Y54.775 E.00459
G1 X70.651 Y55.221 E.01412
G1 X70.818 Y55.385 E.0063
G1 X71.012 Y55.523 E.00644
G1 X71.418 Y55.699 E.01196
G1 X71.893 Y55.782 E.01302
G1 X78.512 Y55.782 E.17886
G1 X79.051 Y55.818 E.01459
G1 X79.538 Y55.906 E.01337
G1 X80.148 Y56.097 E.01725
G1 X80.697 Y56.365 E.01651
G1 X81.265 Y56.783 E.01906
G1 X81.584 Y57.107 E.01227
G1 X81.934 Y57.592 E.01618
G1 X82.233 Y58.164 E.01743
G1 X82.389 Y58.618 E.01299
G1 X82.484 Y59.101 E.0133
G1 X82.583 Y60.666 E.04237
G1 X82.583 Y61.157 E.01327
G1 X82.515 Y62.332 E.0318
G1 X82.37 Y63.213 E.02411
G1 X82.055 Y64.361 E.03217
G1 X81.888 Y64.851 E.01399
