; HEADER_BLOCK_START
; generated by OrcaSlicer 2.3.1 on 2026-02-08 at 14:29:16
; total layer number: 4
; filament_density: 1.04
; filament_diameter: 1.75
; max_z_height: 0.85
; HEADER_BLOCK_END

; THUMBNAIL_BLOCK_START

;
; THUMBNAIL_BLOCK_END

; THUMBNAIL_BLOCK_START

;
; THUMBNAIL_BLOCK_END

; external perimeters extrusion width = 0.40mm
; perimeters extrusion width = 0.40mm
; infill extrusion width = 0.40mm
; solid infill extrusion width = 0.40mm
; top infill extrusion width = 0.40mm
; first layer extrusion width = 0.56mm

; EXECUTABLE_BLOCK_START


; Pre-Processed for Cancel-Object support by preprocess_cancellation v0.2.0
; 1 known objects
EXCLUDE_OBJECT_DEFINE NAME=pa_pattern_307_10000_id_15_copy_0 CENTER=21.654,52.001 POLYGON=[[19.361,49.7],[19.361,54.3],[23.961,54.3],[23.961,49.7]]
M73 P0 R5
;TYPE:Custom
PRINT_START EXTRUDER_TEMP=255 BED_TEMP=105
G90
G21
M83 ; use relative distances for extrusion
; Filament gcode
SET_PRESSURE_ADVANCE ADVANCE=0.04; Override pressure advance value
M106 S0
;LAYER_CHANGE
;Z:0.25
;HEIGHT:0.25
;BEFORE_LAYER_CHANGE
;0.25
G92 E0

;AFTER_LAYER_CHANGE
;0.25
;_SET_FAN_SPEED_CHANGING_LAYER
SET_VELOCITY_LIMIT ACCEL=10000 ACCEL_TO_DECEL=10000
SET_VELOCITY_LIMIT SQUARE_CORNER_VELOCITY=9
;CUSTOM_GCODE
; start pressure advance pattern for layer
G1 E-.8 F1800
G1 X17.961 Y30.787 F36000
G1 E.8 F1800
G1 Z.25 F36000
SET_PRESSURE_ADVANCE ADVANCE=0; Override pressure advance value
G1 E-.8 F1800
G1 X17.961 Y30.787 F36000
G1 E.8 F1800

G1 X17.961 Y73.213 E2.0319

G1 X102.039 Y73.213 E4.02672

G1 X102.039 Y30.787 E2.0319
M73 P1 R5

G1 X17.961 Y30.787 E4.02672
G1 E-.8
M73 P2 R5
G1 X18.467 Y31.293 F36000
G1 E.8 F1800

G1 X18.467 Y72.707 E1.9834

G1 X101.533 Y72.707 E3.97822

G1 X101.533 Y31.293 E1.9834
M73 P3 R5

G1 X18.467 Y31.293 E3.97822
M73 P4 R5
G1 E-.8
G1 X18.973 Y31.799 F36000
G1 E.8 F1800

G1 X18.973 Y72.201 E1.9349

G1 X101.027 Y72.201 E3.92972
M73 P5 R5

G1 X101.027 Y31.799 E1.9349
M73 P6 R5

G1 X18.973 Y31.799 E3.92972
G1 E-.8
M73 P7 R5
G1 X17.961 Y73.72 F36000
G1 E.8 F1800

G1 X17.961 Y90.226 E.79053

G1 X102.039 Y90.226 E4.02672

G1 X102.039 Y73.72 E.79053
M73 P8 R5

G1 X17.961 Y73.72 E4.02672
G1 E-.8
M73 P9 R5
G1 X18.467 Y74.226 F36000
G1 E.8 F1800

G1 X18.467 Y89.72 E.74203

G1 X101.533 Y89.72 E3.97822

G1 X101.533 Y74.226 E.74203
M73 P10 R5

G1 X18.467 Y74.226 E3.97822
G1 E-.8
M73 P11 R5
G1 X18.973 Y74.732 F36000
G1 E.8 F1800

G1 X18.973 Y89.213 E.69353

G1 X101.027 Y89.213 E3.92972

G1 X101.027 Y74.732 E.69353

G1 X18.973 Y74.732 E3.92972
M73 P12 R5
G1 E-.8
G1 X19.347 Y75.106 F36000
G1 E.8 F1800
G1 E-.8
G1 X20.063 Y75.106 F36000
G1 E.8 F1800

G1 X19.347 Y75.822 E.0485
G1 E-.8
G1 X19.347 Y76.538 F36000
G1 E.8 F1800

G1 X20.779 Y75.106 E.097
G1 E-.8
G1 X21.495 Y75.106 F36000
G1 E.8 F1800

G1 X19.347 Y77.254 E.1455
M73 P13 R5
G1 E-.8
G1 X19.347 Y77.97 F36000
G1 E.8 F1800

G1 X22.211 Y75.106 E.194
G1 E-.8
G1 X22.927 Y75.106 F36000
G1 E.8 F1800

G1 X19.347 Y78.686 E.2425
G1 E-.8
G1 X19.347 Y79.402 F36000
G1 E.8 F1800

G1 X23.643 Y75.106 E.291
G1 E-.8
G1 X24.359 Y75.106 F36000
G1 E.8 F1800

G1 X19.347 Y80.118 E.3395
G1 E-.8
G1 X19.347 Y80.834 F36000
G1 E.8 F1800

G1 X25.075 Y75.106 E.388
G1 E-.8
G1 X25.791 Y75.106 F36000
G1 E.8 F1800

G1 X19.347 Y81.55 E.4365
G1 E-.8
G1 X19.347 Y82.266 F36000
G1 E.8 F1800

G1 X26.508 Y75.106 E.48501
G1 E-.8
G1 X27.224 Y75.106 F36000
G1 E.8 F1800

G1 X19.347 Y82.983 E.53351
G1 E-.8
G1 X19.347 Y83.699 F36000
G1 E.8 F1800

G1 X27.94 Y75.106 E.58201
G1 E-.8
G1 X28.656 Y75.106 F36000
G1 E.8 F1800

G1 X19.347 Y84.415 E.63051
G1 E-.8
M73 P14 R5
G1 X19.347 Y85.131 F36000
G1 E.8 F1800

G1 X29.372 Y75.106 E.67901
G1 E-.8
G1 X30.088 Y75.106 F36000
G1 E.8 F1800

G1 X19.347 Y85.847 E.72751
G1 E-.8
G1 X19.347 Y86.563 F36000
G1 E.8 F1800

G1 X30.804 Y75.106 E.77601
G1 E-.8
G1 X31.52 Y75.106 F36000
G1 E.8 F1800

G1 X19.347 Y87.279 E.82451
G1 E-.8
G1 X19.347 Y87.995 F36000
G1 E.8 F1800

G1 X32.236 Y75.106 E.87301
G1 E-.8
G1 X32.952 Y75.106 F36000
M73 P15 R5
G1 E.8 F1800

G1 X19.347 Y88.711 E.92151
G1 E-.8
G1 X19.934 Y88.84 F36000
G1 E.8 F1800

G1 X33.668 Y75.106 E.93022
M73 P15 R4
G1 E-.8
G1 X34.385 Y75.106 F36000
G1 E.8 F1800

G1 X20.65 Y88.84 E.93022
G1 E-.8
G1 X21.366 Y88.84 F36000
G1 E.8 F1800

G1 X35.101 Y75.106 E.93022
G1 E-.8
G1 X35.817 Y75.106 F36000
G1 E.8 F1800

G1 X22.082 Y88.84 E.93022
G1 E-.8
M73 P16 R4
G1 X22.798 Y88.84 F36000
G1 E.8 F1800

G1 X36.533 Y75.106 E.93022
G1 E-.8
G1 X37.249 Y75.106 F36000
G1 E.8 F1800

G1 X23.515 Y88.84 E.93022
G1 E-.8
G1 X24.231 Y88.84 F36000
G1 E.8 F1800

G1 X37.965 Y75.106 E.93022
G1 E-.8
G1 X38.681 Y75.106 F36000
G1 E.8 F1800

G1 X24.947 Y88.84 E.93022
G1 E-.8
G1 X25.663 Y88.84 F36000
G1 E.8 F1800

G1 X39.397 Y75.106 E.93022
G1 E-.8
M73 P17 R4
G1 X40.113 Y75.106 F36000
G1 E.8 F1800

G1 X26.379 Y88.84 E.93022
G1 E-.8
G1 X27.095 Y88.84 F36000
G1 E.8 F1800

G1 X40.829 Y75.106 E.93022
G1 E-.8
G1 X41.545 Y75.106 F36000
G1 E.8 F1800

G1 X27.811 Y88.84 E.93022
G1 E-.8
G1 X28.527 Y88.84 F36000
G1 E.8 F1800

G1 X42.261 Y75.106 E.93022
G1 E-.8
G1 X42.978 Y75.106 F36000
G1 E.8 F1800

G1 X29.243 Y88.84 E.93022
G1 E-.8
M73 P18 R4
G1 X29.959 Y88.84 F36000
G1 E.8 F1800

G1 X43.694 Y75.106 E.93022
G1 E-.8
G1 X44.41 Y75.106 F36000
G1 E.8 F1800

G1 X30.675 Y88.84 E.93022
G1 E-.8
G1 X31.392 Y88.84 F36000
G1 E.8 F1800

G1 X45.126 Y75.106 E.93022
G1 E-.8
G1 X45.842 Y75.106 F36000
G1 E.8 F1800

G1 X32.108 Y88.84 E.93022
G1 E-.8
G1 X32.824 Y88.84 F36000
G1 E.8 F1800

G1 X46.558 Y75.106 E.93022
G1 E-.8
M73 P19 R4
G1 X47.274 Y75.106 F36000
G1 E.8 F1800

G1 X33.54 Y88.84 E.93022
G1 E-.8
G1 X34.256 Y88.84 F36000
G1 E.8 F1800

G1 X47.99 Y75.106 E.93022
G1 E-.8
G1 X48.706 Y75.106 F36000
G1 E.8 F1800

G1 X34.972 Y88.84 E.93022
G1 E-.8
G1 X35.688 Y88.84 F36000
G1 E.8 F1800

G1 X49.422 Y75.106 E.93022
G1 E-.8
G1 X50.138 Y75.106 F36000
M73 P20 R4
G1 E.8 F1800

G1 X36.404 Y88.84 E.93022
G1 E-.8
G1 X37.12 Y88.84 F36000
G1 E.8 F1800

G1 X50.854 Y75.106 E.93022
G1 E-.8
G1 X51.571 Y75.106 F36000
G1 E.8 F1800

G1 X37.836 Y88.84 E.93022
G1 E-.8
G1 X38.552 Y88.84 F36000
G1 E.8 F1800

G1 X52.287 Y75.106 E.93022
G1 E-.8
G1 X53.003 Y75.106 F36000
G1 E.8 F1800

G1 X39.268 Y88.84 E.93022
G1 E-.8
M73 P21 R4
G1 X39.985 Y88.84 F36000
G1 E.8 F1800

G1 X53.719 Y75.106 E.93022
G1 E-.8
G1 X54.435 Y75.106 F36000
G1 E.8 F1800

G1 X40.701 Y88.84 E.93022
G1 E-.8
G1 X41.417 Y88.84 F36000
G1 E.8 F1800

G1 X55.151 Y75.106 E.93022
G1 E-.8
G1 X55.867 Y75.106 F36000
G1 E.8 F1800

G1 X42.133 Y88.84 E.93022
G1 E-.8
G1 X42.849 Y88.84 F36000
G1 E.8 F1800

G1 X56.583 Y75.106 E.93022
G1 E-.8
M73 P22 R4
G1 X57.299 Y75.106 F36000
G1 E.8 F1800

G1 X43.565 Y88.84 E.93022
G1 E-.8
G1 X44.281 Y88.84 F36000
G1 E.8 F1800

G1 X58.015 Y75.106 E.93022
G1 E-.8
G1 X58.731 Y75.106 F36000
G1 E.8 F1800

G1 X44.997 Y88.84 E.93022
G1 E-.8
G1 X45.713 Y88.84 F36000
G1 E.8 F1800

G1 X59.448 Y75.106 E.93022
G1 E-.8
G1 X60.164 Y75.106 F36000
G1 E.8 F1800

G1 X46.429 Y88.84 E.93022
G1 E-.8
M73 P23 R4
G1 X47.145 Y88.84 F36000
G1 E.8 F1800

G1 X60.88 Y75.106 E.93022
G1 E-.8
G1 X61.596 Y75.106 F36000
G1 E.8 F1800

G1 X47.862 Y88.84 E.93022
G1 E-.8
G1 X48.578 Y88.84 F36000
G1 E.8 F1800

G1 X62.312 Y75.106 E.93022
G1 E-.8
G1 X63.028 Y75.106 F36000
G1 E.8 F1800

G1 X49.294 Y88.84 E.93022
G1 E-.8
G1 X50.01 Y88.84 F36000
G1 E.8 F1800

G1 X63.744 Y75.106 E.93022
G1 E-.8
M73 P24 R4
G1 X64.46 Y75.106 F36000
G1 E.8 F1800

G1 X50.726 Y88.84 E.93022
G1 E-.8
G1 X51.442 Y88.84 F36000
G1 E.8 F1800

G1 X65.176 Y75.106 E.93022
G1 E-.8
G1 X65.892 Y75.106 F36000
G1 E.8 F1800

G1 X52.158 Y88.84 E.93022
G1 E-.8
G1 X52.874 Y88.84 F36000
G1 E.8 F1800

G1 X66.608 Y75.106 E.93022
G1 E-.8
M73 P25 R4
G1 X67.324 Y75.106 F36000
G1 E.8 F1800

G1 X53.59 Y88.84 E.93022
G1 E-.8
G1 X54.306 Y88.84 F36000
G1 E.8 F1800

G1 X68.041 Y75.106 E.93022
G1 E-.8
G1 X68.757 Y75.106 F36000
G1 E.8 F1800

G1 X55.022 Y88.84 E.93022
G1 E-.8
G1 X55.738 Y88.84 F36000
G1 E.8 F1800

G1 X69.473 Y75.106 E.93022
G1 E-.8
G1 X70.189 Y75.106 F36000
G1 E.8 F1800

G1 X56.455 Y88.84 E.93022
G1 E-.8
M73 P26 R4
G1 X57.171 Y88.84 F36000
G1 E.8 F1800

G1 X70.905 Y75.106 E.93022
G1 E-.8
G1 X71.621 Y75.106 F36000
G1 E.8 F1800

G1 X57.887 Y88.84 E.93022
G1 E-.8
G1 X58.603 Y88.84 F36000
G1 E.8 F1800

G1 X72.337 Y75.106 E.93022
G1 E-.8
G1 X73.053 Y75.106 F36000
G1 E.8 F1800

G1 X59.319 Y88.84 E.93022
G1 E-.8
G1 X60.035 Y88.84 F36000
G1 E.8 F1800

G1 X73.769 Y75.106 E.93022
G1 E-.8
M73 P27 R4
G1 X74.485 Y75.106 F36000
G1 E.8 F1800

G1 X60.751 Y88.84 E.93022
G1 E-.8
G1 X61.467 Y88.84 F36000
G1 E.8 F1800

G1 X75.201 Y75.106 E.93022
G1 E-.8
G1 X75.918 Y75.106 F36000
G1 E.8 F1800

G1 X62.183 Y88.84 E.93022
G1 E-.8
G1 X62.899 Y88.84 F36000
G1 E.8 F1800

G1 X76.634 Y75.106 E.93022
G1 E-.8
G1 X77.35 Y75.106 F36000
G1 E.8 F1800

G1 X63.615 Y88.84 E.93022
G1 E-.8
M73 P28 R4
G1 X64.331 Y88.84 F36000
G1 E.8 F1800

G1 X78.066 Y75.106 E.93022
G1 E-.8
G1 X78.782 Y75.106 F36000
G1 E.8 F1800

G1 X65.048 Y88.84 E.93022
G1 E-.8
G1 X65.764 Y88.84 F36000
G1 E.8 F1800

G1 X79.498 Y75.106 E.93022
G1 E-.8
G1 X80.214 Y75.106 F36000
G1 E.8 F1800

G1 X66.48 Y88.84 E.93022
G1 E-.8
G1 X67.196 Y88.84 F36000
G1 E.8 F1800

G1 X80.93 Y75.106 E.93022
G1 E-.8
M73 P29 R4
G1 X81.646 Y75.106 F36000
G1 E.8 F1800

G1 X67.912 Y88.84 E.93022
G1 E-.8
G1 X68.628 Y88.84 F36000
G1 E.8 F1800

G1 X82.362 Y75.106 E.93022
G1 E-.8
G1 X83.078 Y75.106 F36000
G1 E.8 F1800

G1 X69.344 Y88.84 E.93022
G1 E-.8
G1 X70.06 Y88.84 F36000
G1 E.8 F1800

G1 X83.794 Y75.106 E.93022
G1 E-.8
M73 P30 R4
G1 X84.511 Y75.106 F36000
G1 E.8 F1800

G1 X70.776 Y88.84 E.93022
G1 E-.8
G1 X71.492 Y88.84 F36000
G1 E.8 F1800

G1 X85.227 Y75.106 E.93022
G1 E-.8
G1 X85.943 Y75.106 F36000
G1 E.8 F1800

G1 X72.208 Y88.84 E.93022
G1 E-.8
G1 X72.925 Y88.84 F36000
G1 E.8 F1800

G1 X86.659 Y75.106 E.93022
G1 E-.8
G1 X87.375 Y75.106 F36000
G1 E.8 F1800

G1 X73.641 Y88.84 E.93022
G1 E-.8
M73 P31 R4
G1 X74.357 Y88.84 F36000
G1 E.8 F1800

G1 X88.091 Y75.106 E.93022
G1 E-.8
G1 X88.807 Y75.106 F36000
G1 E.8 F1800

G1 X75.073 Y88.84 E.93022
G1 E-.8
G1 X75.789 Y88.84 F36000
G1 E.8 F1800

G1 X89.523 Y75.106 E.93022
G1 E-.8
G1 X90.239 Y75.106 F36000
G1 E.8 F1800

G1 X76.505 Y88.84 E.93022
G1 E-.8
G1 X77.221 Y88.84 F36000
G1 E.8 F1800

G1 X90.955 Y75.106 E.93022
G1 E-.8
M73 P32 R4
G1 X91.671 Y75.106 F36000
G1 E.8 F1800

G1 X77.937 Y88.84 E.93022
G1 E-.8
M73 P32 R3
G1 X78.653 Y88.84 F36000
G1 E.8 F1800

G1 X92.388 Y75.106 E.93022
G1 E-.8
G1 X93.104 Y75.106 F36000
G1 E.8 F1800

G1 X79.369 Y88.84 E.93022
G1 E-.8
G1 X80.085 Y88.84 F36000
G1 E.8 F1800

G1 X93.82 Y75.106 E.93022
G1 E-.8
G1 X94.536 Y75.106 F36000
G1 E.8 F1800

G1 X80.801 Y88.84 E.93022
G1 E-.8
M73 P33 R3
G1 X81.518 Y88.84 F36000
G1 E.8 F1800

G1 X95.252 Y75.106 E.93022
G1 E-.8
G1 X95.968 Y75.106 F36000
G1 E.8 F1800

G1 X82.234 Y88.84 E.93022
G1 E-.8
G1 X82.95 Y88.84 F36000
G1 E.8 F1800

G1 X96.684 Y75.106 E.93022
G1 E-.8
G1 X97.4 Y75.106 F36000
G1 E.8 F1800

G1 X83.666 Y88.84 E.93022
G1 E-.8
G1 X84.382 Y88.84 F36000
G1 E.8 F1800

G1 X98.116 Y75.106 E.93022
G1 E-.8
M73 P34 R3
G1 X98.832 Y75.106 F36000
G1 E.8 F1800

G1 X85.098 Y88.84 E.93022
G1 E-.8
G1 X85.814 Y88.84 F36000
G1 E.8 F1800

G1 X99.548 Y75.106 E.93022
G1 E-.8
G1 X100.264 Y75.106 F36000
G1 E.8 F1800

G1 X86.53 Y88.84 E.93022
G1 E-.8
G1 X87.246 Y88.84 F36000
G1 E.8 F1800

G1 X100.653 Y75.433 E.90806
G1 E-.8
M73 P35 R3
G1 X100.653 Y76.149 F36000
G1 E.8 F1800

G1 X87.962 Y88.84 E.85956
G1 E-.8
G1 X88.678 Y88.84 F36000
G1 E.8 F1800

G1 X100.653 Y76.865 E.81106
G1 E-.8
G1 X100.653 Y77.581 F36000
G1 E.8 F1800

G1 X89.395 Y88.84 E.76256
G1 E-.8
G1 X90.111 Y88.84 F36000
G1 E.8 F1800

G1 X100.653 Y78.297 E.71406
G1 E-.8
G1 X100.653 Y79.013 F36000
G1 E.8 F1800

G1 X90.827 Y88.84 E.66556
G1 E-.8
G1 X91.543 Y88.84 F36000
G1 E.8 F1800

G1 X100.653 Y79.729 E.61706
G1 E-.8
M73 P36 R3
G1 X100.653 Y80.445 F36000
G1 E.8 F1800

G1 X92.259 Y88.84 E.56855
G1 E-.8
G1 X92.975 Y88.84 F36000
G1 E.8 F1800

G1 X100.653 Y81.162 E.52005
G1 E-.8
G1 X100.653 Y81.878 F36000
G1 E.8 F1800

G1 X93.691 Y88.84 E.47155
G1 E-.8
G1 X94.407 Y88.84 F36000
G1 E.8 F1800

G1 X100.653 Y82.594 E.42305
G1 E-.8
G1 X100.653 Y83.31 F36000
G1 E.8 F1800

G1 X95.123 Y88.84 E.37455
G1 E-.8
G1 X95.839 Y88.84 F36000
G1 E.8 F1800

G1 X100.653 Y84.026 E.32605
G1 E-.8
G1 X100.653 Y84.742 F36000
G1 E.8 F1800

G1 X96.555 Y88.84 E.27755
G1 E-.8
G1 X97.271 Y88.84 F36000
G1 E.8 F1800

G1 X100.653 Y85.458 E.22905
G1 E-.8
G1 X100.653 Y86.174 F36000
G1 E.8 F1800

G1 X97.988 Y88.84 E.18055
G1 E-.8
G1 X98.704 Y88.84 F36000
G1 E.8 F1800

G1 X100.653 Y86.89 E.13205
G1 E-.8
G1 X100.653 Y87.606 F36000
G1 E.8 F1800

G1 X99.42 Y88.84 E.08355
M73 P37 R3
G1 E-.8
G1 X100.136 Y88.84 F36000
G1 E.8 F1800

G1 X100.653 Y88.322 E.03505
G1 E-.8
G1 Z.65 F36000
G1 X21.919 Y32.173
G1 Z.25
G1 E.8 F1800
SET_PRESSURE_ADVANCE ADVANCE=0; Override pressure advance value

G1 X41.747 Y52 E1.05116

G1 X21.919 Y71.827 E1.05116
G1 E-.8
G1 Z.65 F36000
G1 X22.495 Y32.173
G1 Z.25
G1 E.8 F1800

G1 X42.322 Y52 E1.05116

G1 X22.495 Y71.827 E1.05116
M73 P38 R3
G1 E-.8
G1 Z.65 F36000
G1 X23.071 Y32.173
G1 Z.25
G1 E.8 F1800

G1 X42.898 Y52 E1.05116

G1 X23.071 Y71.827 E1.05116
G1 E-.8
G1 Z.65 F36000
G1 X25.521 Y32.173
G1 Z.25
G1 E.8 F1800
M73 P39 R3
SET_PRESSURE_ADVANCE ADVANCE=0.005; Override pressure advance value

G1 X45.348 Y52 E1.05116

G1 X25.521 Y71.827 E1.05116
G1 E-.8
G1 Z.65 F36000
G1 X26.096 Y32.173
G1 Z.25
G1 E.8 F1800

G1 X45.924 Y52 E1.05116

G1 X26.096 Y71.827 E1.05116
G1 E-.8
M73 P40 R3
G1 Z.65 F36000
G1 X26.672 Y32.173
G1 Z.25
G1 E.8 F1800

G1 X46.499 Y52 E1.05116

G1 X26.672 Y71.827 E1.05116
G1 E-.8
G1 Z.65 F36000
G1 X29.122 Y32.173
G1 Z.25
G1 E.8 F1800
SET_PRESSURE_ADVANCE ADVANCE=0.01; Override pressure advance value

G1 X48.949 Y52 E1.05116

G1 X29.122 Y71.827 E1.05116
M73 P41 R3
G1 E-.8
G1 Z.65 F36000
G1 X29.698 Y32.173
G1 Z.25
G1 E.8 F1800

G1 X49.525 Y52 E1.05116

G1 X29.698 Y71.827 E1.05116
G1 E-.8
M73 P42 R3
G1 Z.65 F36000
G1 X30.274 Y32.173
G1 Z.25
G1 E.8 F1800

G1 X50.101 Y52 E1.05116

G1 X30.274 Y71.827 E1.05116
G1 E-.8
G1 Z.65 F36000
G1 X32.724 Y32.173
G1 Z.25
G1 E.8 F1800
SET_PRESSURE_ADVANCE ADVANCE=0.015; Override pressure advance value

G1 X52.551 Y52 E1.05116

G1 X32.724 Y71.827 E1.05116
G1 E-.8
M73 P43 R3
G1 Z.65 F36000
G1 X33.299 Y32.173
G1 Z.25
G1 E.8 F1800

G1 X53.126 Y52 E1.05116

G1 X33.299 Y71.827 E1.05116
G1 E-.8
G1 Z.65 F36000
G1 X33.875 Y32.173
G1 Z.25
G1 E.8 F1800

G1 X53.702 Y52 E1.05116

G1 X33.875 Y71.827 E1.05116
M73 P44 R3
G1 E-.8
G1 Z.65 F36000
G1 X36.325 Y32.173
G1 Z.25
G1 E.8 F1800
SET_PRESSURE_ADVANCE ADVANCE=0.02; Override pressure advance value

G1 X56.152 Y52 E1.05116

G1 X36.325 Y71.827 E1.05116
G1 E-.8
M73 P45 R3
G1 Z.65 F36000
G1 X36.901 Y32.173
G1 Z.25
G1 E.8 F1800

G1 X56.728 Y52 E1.05116

G1 X36.901 Y71.827 E1.05116
G1 E-.8
G1 Z.65 F36000
G1 X37.476 Y32.173
G1 Z.25
G1 E.8 F1800

G1 X57.304 Y52 E1.05116

G1 X37.476 Y71.827 E1.05116
M73 P46 R3
G1 E-.8
G1 Z.65 F36000
G1 X39.926 Y32.173
G1 Z.25
G1 E.8 F1800
SET_PRESSURE_ADVANCE ADVANCE=0.025; Override pressure advance value

G1 X59.754 Y52 E1.05116

G1 X39.926 Y71.827 E1.05116
G1 E-.8
G1 Z.65 F36000
G1 X40.502 Y32.173
G1 Z.25
G1 E.8 F1800
M73 P47 R3

G1 X60.329 Y52 E1.05116

G1 X40.502 Y71.827 E1.05116
G1 E-.8
G1 Z.65 F36000
G1 X41.078 Y32.173
G1 Z.25
G1 E.8 F1800

G1 X60.905 Y52 E1.05116

G1 X41.078 Y71.827 E1.05116
G1 E-.8
M73 P48 R3
G1 Z.65 F36000
G1 X43.528 Y32.173
G1 Z.25
G1 E.8 F1800
SET_PRESSURE_ADVANCE ADVANCE=0.03; Override pressure advance value

G1 X63.355 Y52 E1.05116

G1 X43.528 Y71.827 E1.05116
G1 E-.8
G1 Z.65 F36000
G1 X44.103 Y32.173
G1 Z.25
G1 E.8 F1800

G1 X63.931 Y52 E1.05116

G1 X44.103 Y71.827 E1.05116
M73 P49 R3
G1 E-.8
M73 P49 R2
G1 Z.65 F36000
G1 X44.679 Y32.173
G1 Z.25
G1 E.8 F1800

G1 X64.506 Y52 E1.05116

G1 X44.679 Y71.827 E1.05116
G1 E-.8
M73 P50 R2
G1 Z.65 F36000
G1 X47.129 Y32.173
G1 Z.25
G1 E.8 F1800
SET_PRESSURE_ADVANCE ADVANCE=0.035; Override pressure advance value

G1 X66.956 Y52 E1.05116

G1 X47.129 Y71.827 E1.05116
G1 E-.8
G1 Z.65 F36000
G1 X47.705 Y32.173
G1 Z.25
G1 E.8 F1800

G1 X67.532 Y52 E1.05116

