; HEADER_BLOCK_START
; generated by OrcaSlicer 2.3.1 on 2025-11-23 at 21:36:44
; total layer number: 0
; filament_density: 1.04
; filament_diameter: 1.75
; max_z_height: 0.20
; HEADER_BLOCK_END

; THUMBNAIL_BLOCK_START

;
; THUMBNAIL_BLOCK_END

; THUMBNAIL_BLOCK_START

;
; THUMBNAIL_BLOCK_END

; external perimeters extrusion width = 0.40mm
; perimeters extrusion width = 0.40mm
; infill extrusion width = 0.40mm
; solid infill extrusion width = 0.40mm
; top infill extrusion width = 0.40mm
; first layer extrusion width = 0.40mm

; EXECUTABLE_BLOCK_START
M73 P0 R2
;TYPE:Custom
PRINT_START EXTRUDER_TEMP=250 BED_TEMP=110
G90
G21
M83 ; use relative distances for extrusion
; Filament gcode
SET_PRESSURE_ADVANCE ADVANCE=0.04; Override pressure advance value
SET_VELOCITY_LIMIT ACCEL=10000 ACCEL_TO_DECEL=10000
SET_VELOCITY_LIMIT SQUARE_CORNER_VELOCITY=9
G1 Z.2 F36000
SET_PRESSURE_ADVANCE ADVANCE=0; Override pressure advance value
G1 E-.8 F1800
G1 X10 Y114.25 F36000
G1 E.8 F1800
G1 F1320
G1 X10 Y5.75 E6.03104
SET_PRESSURE_ADVANCE ADVANCE=0; Override pressure advance value
G1 E-.8 F1800
M73 P3 R2
G1 X10 Y5.75 F36000
G1 E.8 F1800
G1 F1320
G1 X30 Y5.75 E.92643
G1 F13440
M73 P4 R2
G1 X70 Y5.75 E1.85285
G1 F1320
G1 X90 Y5.75 E.92643
SET_PRESSURE_ADVANCE ADVANCE=0; Override pressure advance value
G1 X90 Y114.25 E6.03104
SET_PRESSURE_ADVANCE ADVANCE=0.002; Override pressure advance value
G1 E-.8 F1800
M73 P8 R2
G1 X10 Y9.25 F36000
G1 E.8 F1800
G1 F1320
G1 X30 Y9.25 E.92643
G1 F13440
G1 X70 Y9.25 E1.85285
G1 F1320
G1 X90 Y9.25 E.92643
SET_PRESSURE_ADVANCE ADVANCE=0.004; Override pressure advance value
G1 E-.8 F1800
M73 P9 R2
G1 X10 Y12.75 F36000
G1 E.8 F1800
G1 F1320
G1 X30 Y12.75 E.92643
G1 F13440
M73 P10 R2
G1 X70 Y12.75 E1.85285
G1 F1320
G1 X90 Y12.75 E.92643
SET_PRESSURE_ADVANCE ADVANCE=0.006; Override pressure advance value
G1 E-.8 F1800
M73 P11 R2
G1 X10 Y16.25 F36000
G1 E.8 F1800
G1 F1320
G1 X30 Y16.25 E.92643
G1 F13440
G1 X70 Y16.25 E1.85285
G1 F1320
G1 X90 Y16.25 E.92643
SET_PRESSURE_ADVANCE ADVANCE=0.008; Override pressure advance value
G1 E-.8 F1800
M73 P12 R2
G1 X10 Y19.75 F36000
G1 E.8 F1800
G1 F1320
G1 X30 Y19.75 E.92643
G1 F13440
M73 P13 R2
G1 X70 Y19.75 E1.85285
G1 F1320
G1 X90 Y19.75 E.92643
SET_PRESSURE_ADVANCE ADVANCE=0.01; Override pressure advance value
G1 E-.8 F1800
M73 P14 R2
G1 X10 Y23.25 F36000
G1 E.8 F1800
G1 F1320
G1 X30 Y23.25 E.92643
G1 F13440
G1 X70 Y23.25 E1.85285
G1 F1320
G1 X90 Y23.25 E.92643
SET_PRESSURE_ADVANCE ADVANCE=0.012; Override pressure advance value
G1 E-.8 F1800
M73 P15 R2
G1 X10 Y26.75 F36000
G1 E.8 F1800
G1 F1320
G1 X30 Y26.75 E.92643
G1 F13440
M73 P16 R2
G1 X70 Y26.75 E1.85285
G1 F1320
G1 X90 Y26.75 E.92643
SET_PRESSURE_ADVANCE ADVANCE=0.014; Override pressure advance value
G1 E-.8 F1800
M73 P17 R2
G1 X10 Y30.25 F36000
G1 E.8 F1800
G1 F1320
G1 X30 Y30.25 E.92643
G1 F13440
G1 X70 Y30.25 E1.85285
G1 F1320
G1 X90 Y30.25 E.92643
SET_PRESSURE_ADVANCE ADVANCE=0.016; Override pressure advance value
G1 E-.8 F1800
M73 P18 R2
G1 X10 Y33.75 F36000
G1 E.8 F1800
G1 F1320
G1 X30 Y33.75 E.92643
G1 F13440
M73 P19 R2
G1 X70 Y33.75 E1.85285
G1 F1320
G1 X90 Y33.75 E.92643
SET_PRESSURE_ADVANCE ADVANCE=0.018; Override pressure advance value
G1 E-.8 F1800
G1 X10 Y37.25 F36000
M73 P20 R2
G1 E.8 F1800
G1 F1320
G1 X30 Y37.25 E.92643
G1 F13440
G1 X70 Y37.25 E1.85285
G1 F1320
G1 X90 Y37.25 E.92643
SET_PRESSURE_ADVANCE ADVANCE=0.02; Override pressure advance value
G1 E-.8 F1800
M73 P21 R2
G1 X10 Y40.75 F36000
G1 E.8 F1800
G1 F1320
G1 X30 Y40.75 E.92643
G1 F13440
M73 P22 R2
G1 X70 Y40.75 E1.85285
G1 F1320
G1 X90 Y40.75 E.92643
SET_PRESSURE_ADVANCE ADVANCE=0.022; Override pressure advance value
G1 E-.8 F1800
M73 P22 R1
G1 X10 Y44.25 F36000
G1 E.8 F1800
M73 P23 R1
G1 F1320
G1 X30 Y44.25 E.92643
G1 F13440
G1 X70 Y44.25 E1.85285
G1 F1320
G1 X90 Y44.25 E.92643
SET_PRESSURE_ADVANCE ADVANCE=0.024; Override pressure advance value
G1 E-.8 F1800
M73 P24 R1
G1 X10 Y47.75 F36000
G1 E.8 F1800
G1 F1320
G1 X30 Y47.75 E.92643
G1 F13440
M73 P25 R1
G1 X70 Y47.75 E1.85285
G1 F1320
G1 X90 Y47.75 E.92643
SET_PRESSURE_ADVANCE ADVANCE=0.026; Override pressure advance value
G1 E-.8 F1800
G1 X10 Y51.25 F36000
G1 E.8 F1800
M73 P26 R1
G1 F1320
G1 X30 Y51.25 E.92643
G1 F13440
G1 X70 Y51.25 E1.85285
G1 F1320
G1 X90 Y51.25 E.92643
SET_PRESSURE_ADVANCE ADVANCE=0.028; Override pressure advance value
G1 E-.8 F1800
M73 P27 R1
G1 X10 Y54.75 F36000
G1 E.8 F1800
G1 F1320
G1 X30 Y54.75 E.92643
G1 F13440
M73 P28 R1
G1 X70 Y54.75 E1.85285
G1 F1320
G1 X90 Y54.75 E.92643
SET_PRESSURE_ADVANCE ADVANCE=0.03; Override pressure advance value
G1 E-.8 F1800
G1 X10 Y58.25 F36000
G1 E.8 F1800
M73 P29 R1
G1 F1320
G1 X30 Y58.25 E.92643
G1 F13440
G1 X70 Y58.25 E1.85285
G1 F1320
G1 X90 Y58.25 E.92643
SET_PRESSURE_ADVANCE ADVANCE=0.032; Override pressure advance value
G1 E-.8 F1800
M73 P30 R1
G1 X10 Y61.75 F36000
G1 E.8 F1800
G1 F1320
G1 X30 Y61.75 E.92643
G1 F13440
M73 P31 R1
G1 X70 Y61.75 E1.85285
G1 F1320
G1 X90 Y61.75 E.92643
SET_PRESSURE_ADVANCE ADVANCE=0.034; Override pressure advance value
G1 E-.8 F1800
G1 X10 Y65.25 F36000
G1 E.8 F1800
M73 P32 R1
G1 F1320
G1 X30 Y65.25 E.92643
G1 F13440
G1 X70 Y65.25 E1.85285
G1 F1320
G1 X90 Y65.25 E.92643
SET_PRESSURE_ADVANCE ADVANCE=0.036; Override pressure advance value
G1 E-.8 F1800
M73 P33 R1
G1 X10 Y68.75 F36000
G1 E.8 F1800
G1 F1320
G1 X30 Y68.75 E.92643
G1 F13440
M73 P34 R1
G1 X70 Y68.75 E1.85285
G1 F1320
G1 X90 Y68.75 E.92643
SET_PRESSURE_ADVANCE ADVANCE=0.038; Override pressure advance value
G1 E-.8 F1800
G1 X10 Y72.25 F36000
G1 E.8 F1800
M73 P35 R1
G1 F1320
G1 X30 Y72.25 E.92643
G1 F13440
G1 X70 Y72.25 E1.85285
G1 F1320
G1 X90 Y72.25 E.92643
SET_PRESSURE_ADVANCE ADVANCE=0.04; Override pressure advance value
G1 E-.8 F1800
M73 P36 R1
G1 X10 Y75.75 F36000
G1 E.8 F1800
G1 F1320
G1 X30 Y75.75 E.92643
G1 F13440
M73 P37 R1
G1 X70 Y75.75 E1.85285
G1 F1320
G1 X90 Y75.75 E.92643
SET_PRESSURE_ADVANCE ADVANCE=0.042; Override pressure advance value
G1 E-.8 F1800
G1 X10 Y79.25 F36000
G1 E.8 F1800
M73 P38 R1
G1 F1320
G1 X30 Y79.25 E.92643
G1 F13440
G1 X70 Y79.25 E1.85285
G1 F1320
G1 X90 Y79.25 E.92643
SET_PRESSURE_ADVANCE ADVANCE=0.044; Override pressure advance value
G1 E-.8 F1800
M73 P39 R1
G1 X10 Y82.75 F36000
G1 E.8 F1800
G1 F1320
G1 X30 Y82.75 E.92643
G1 F13440
M73 P40 R1
G1 X70 Y82.75 E1.85285
G1 F1320
G1 X90 Y82.75 E.92643
SET_PRESSURE_ADVANCE ADVANCE=0.046; Override pressure advance value
G1 E-.8 F1800
G1 X10 Y86.25 F36000
G1 E.8 F1800
M73 P41 R1
G1 F1320
G1 X30 Y86.25 E.92643
G1 F13440
G1 X70 Y86.25 E1.85285
G1 F1320
G1 X90 Y86.25 E.92643
SET_PRESSURE_ADVANCE ADVANCE=0.048; Override pressure advance value
G1 E-.8 F1800
M73 P42 R1
G1 X10 Y89.75 F36000
G1 E.8 F1800
G1 F1320
G1 X30 Y89.75 E.92643
G1 F13440
M73 P43 R1
G1 X70 Y89.75 E1.85285
G1 F1320
G1 X90 Y89.75 E.92643
SET_PRESSURE_ADVANCE ADVANCE=0.05; Override pressure advance value
G1 E-.8 F1800
G1 X10 Y93.25 F36000
G1 E.8 F1800
M73 P44 R1
G1 F1320
G1 X30 Y93.25 E.92643
G1 F13440
G1 X70 Y93.25 E1.85285
G1 F1320
G1 X90 Y93.25 E.92643
SET_PRESSURE_ADVANCE ADVANCE=0.052; Override pressure advance value
G1 E-.8 F1800
M73 P45 R1
G1 X10 Y96.75 F36000
G1 E.8 F1800
G1 F1320
G1 X30 Y96.75 E.92643
G1 F13440
M73 P46 R1
G1 X70 Y96.75 E1.85285
G1 F1320
G1 X90 Y96.75 E.92643
SET_PRESSURE_ADVANCE ADVANCE=0.054; Override pressure advance value
G1 E-.8 F1800
G1 X10 Y100.25 F36000
G1 E.8 F1800
G1 F1320
M73 P47 R1
G1 X30 Y100.25 E.92643
G1 F13440
G1 X70 Y100.25 E1.85285
G1 F1320
G1 X90 Y100.25 E.92643
SET_PRESSURE_ADVANCE ADVANCE=0.056; Override pressure advance value
G1 E-.8 F1800
M73 P48 R1
G1 X10 Y103.75 F36000
G1 E.8 F1800
G1 F1320
G1 X30 Y103.75 E.92643
G1 F13440
M73 P49 R1
G1 X70 Y103.75 E1.85285
G1 F1320
G1 X90 Y103.75 E.92643
SET_PRESSURE_ADVANCE ADVANCE=0.058; Override pressure advance value
G1 E-.8 F1800
G1 X10 Y107.25 F36000
G1 E.8 F1800
G1 F1320
M73 P50 R1
G1 X30 Y107.25 E.92643
G1 F13440
G1 X70 Y107.25 E1.85285
G1 F1320
G1 X90 Y107.25 E.92643
SET_PRESSURE_ADVANCE ADVANCE=0.06; Override pressure advance value
G1 E-.8 F1800
M73 P51 R1
G1 X10 Y110.75 F36000
G1 E.8 F1800
G1 F1320
G1 X30 Y110.75 E.92643
G1 F13440
M73 P52 R1
G1 X70 Y110.75 E1.85285
G1 F1320
G1 X90 Y110.75 E.92643
SET_PRESSURE_ADVANCE ADVANCE=0; Override pressure advance value
G1 E-.8 F1800
G1 X90.6 Y2.25 F36000
G1 E.8 F1800
M73 P53 R1
G1 F13440
G1 X90.6 Y114.25 E4.72107
G1 F13440
G1 X114.6 Y114.25 E1.01166
G1 F13440
G1 X114.6 Y2.25 E4.72107
G1 F13440
G1 X90.6 Y2.25 E1.01166
G1 E-.8 F1800
G1 X91.157 Y2.807 F36000
G1 E.8 F1800
G1 F13440
G1 X91.157 Y113.693 E4.67411
G1 F13440
M73 P54 R1
G1 X114.043 Y113.693 E.96469
G1 F13440
G1 X114.043 Y2.807 E4.67411
G1 F13440
G1 X91.157 Y2.807 E.96469
G1 E-.8 F1800
G1 X91.557 Y3.207 F36000
G1 E.8 F1800
G1 E-.8 F1800
G1 X92.345 Y3.207 F36000
G1 E.8 F1800
G1 F13440
G1 X91.557 Y3.995 E.04696
G1 E-.8 F1800
G1 X91.557 Y4.783 F36000
G1 E.8 F1800
G1 F13440
G1 X93.133 Y3.207 E.09393
G1 E-.8 F1800
G1 X93.921 Y3.207 F36000
G1 E.8 F1800
G1 F13440
M73 P55 R1
G1 X91.557 Y5.571 E.14089
G1 E-.8 F1800
G1 X91.557 Y6.358 F36000
G1 E.8 F1800
G1 F13440
G1 X94.708 Y3.207 E.18786
G1 E-.8 F1800
G1 X95.496 Y3.207 F36000
G1 E.8 F1800
G1 F13440
G1 X91.557 Y7.146 E.23482
G1 E-.8 F1800
G1 X91.557 Y7.934 F36000
G1 E.8 F1800
G1 F13440
G1 X96.284 Y3.207 E.28179
G1 E-.8 F1800
G1 X97.072 Y3.207 F36000
G1 E.8 F1800
G1 F13440
G1 X91.557 Y8.722 E.32875
G1 E-.8 F1800
G1 X91.557 Y9.51 F36000
G1 E.8 F1800
G1 F13440
G1 X97.86 Y3.207 E.37572
G1 E-.8 F1800
G1 X98.648 Y3.207 F36000
G1 E.8 F1800
G1 F13440
G1 X91.557 Y10.298 E.42268
G1 E-.8 F1800
G1 X91.557 Y11.085 F36000
G1 E.8 F1800
G1 F13440
G1 X99.435 Y3.207 E.46965
G1 E-.8 F1800
G1 X100.223 Y3.207 F36000
G1 E.8 F1800
G1 F13440
G1 X91.557 Y11.873 E.51661
G1 E-.8 F1800
G1 X91.557 Y12.661 F36000
G1 E.8 F1800
G1 F13440
G1 X101.011 Y3.207 E.56357
G1 E-.8 F1800
G1 X101.799 Y3.207 F36000
G1 E.8 F1800
G1 F13440
G1 X91.557 Y13.449 E.61054
G1 E-.8 F1800
M73 P56 R1
G1 X91.557 Y14.237 F36000
G1 E.8 F1800
G1 F13440
G1 X102.587 Y3.207 E.6575
G1 E-.8 F1800
G1 X103.375 Y3.207 F36000
G1 E.8 F1800
G1 F13440
G1 X91.557 Y15.025 E.70447
G1 E-.8 F1800
G1 X91.557 Y15.812 F36000
G1 E.8 F1800
G1 F13440
G1 X104.162 Y3.207 E.75143
G1 E-.8 F1800
G1 X104.95 Y3.207 F36000
G1 E.8 F1800
G1 F13440
G1 X91.557 Y16.6 E.7984
G1 E-.8 F1800
G1 X91.557 Y17.388 F36000
G1 E.8 F1800
G1 F13440
G1 X105.738 Y3.207 E.84536
G1 E-.8 F1800
G1 X106.526 Y3.207 F36000
G1 E.8 F1800
G1 F13440
G1 X91.557 Y18.176 E.89233
G1 E-.8 F1800
G1 X91.557 Y18.964 F36000
G1 E.8 F1800
G1 F13440
G1 X107.314 Y3.207 E.93929
G1 E-.8 F1800
G1 X108.102 Y3.207 F36000
G1 E.8 F1800
G1 F13440
G1 X91.557 Y19.752 E.98626
G1 E-.8 F1800
M73 P57 R1
G1 X91.557 Y20.539 F36000
G1 E.8 F1800
G1 F13440
G1 X108.889 Y3.207 E1.03322
G1 E-.8 F1800
G1 X109.677 Y3.207 F36000
G1 E.8 F1800
G1 F13440
G1 X91.557 Y21.327 E1.08018
G1 E-.8 F1800
G1 X91.557 Y22.115 F36000
G1 E.8 F1800
G1 F13440
G1 X110.465 Y3.207 E1.12715
G1 E-.8 F1800
G1 X111.253 Y3.207 F36000
G1 E.8 F1800
G1 F13440
G1 X91.557 Y22.903 E1.17411
G1 E-.8 F1800
G1 X91.557 Y23.691 F36000
G1 E.8 F1800
G1 F13440
G1 X112.041 Y3.207 E1.22108
G1 E-.8 F1800
G1 X112.828 Y3.207 F36000
G1 E.8 F1800
G1 F13440
G1 X91.557 Y24.478 E1.26804
G1 E-.8 F1800
G1 X91.557 Y25.266 F36000
G1 E.8 F1800
G1 F13440
M73 P58 R1
G1 X113.616 Y3.207 E1.31501
G1 E-.8 F1800
G1 X113.643 Y3.968 F36000
G1 E.8 F1800
G1 F13440
G1 X91.557 Y26.054 E1.31659
G1 E-.8 F1800
G1 X91.557 Y26.842 F36000
G1 E.8 F1800
G1 F13440
G1 X113.643 Y4.756 E1.31659
G1 E-.8 F1800
G1 X113.643 Y5.544 F36000
G1 E.8 F1800
G1 F13440
G1 X91.557 Y27.63 E1.31659
G1 E-.8 F1800
G1 X91.557 Y28.418 F36000
G1 E.8 F1800
G1 F13440
G1 X113.643 Y6.332 E1.31659
G1 E-.8 F1800
G1 X113.643 Y7.12 F36000
G1 E.8 F1800
G1 F13440
G1 X91.557 Y29.205 E1.31659
G1 E-.8 F1800
G1 X91.557 Y29.993 F36000
G1 E.8 F1800
G1 F13440
G1 X113.643 Y7.907 E1.31659
G1 E-.8 F1800
M73 P59 R1
G1 X113.643 Y8.695 F36000
G1 E.8 F1800
G1 F13440
G1 X91.557 Y30.781 E1.31659
G1 E-.8 F1800
G1 X91.557 Y31.569 F36000
G1 E.8 F1800
G1 F13440
G1 X113.643 Y9.483 E1.31659
G1 E-.8 F1800
G1 X113.643 Y10.271 F36000
G1 E.8 F1800
G1 F13440
G1 X91.557 Y32.357 E1.31659
G1 E-.8 F1800
G1 X91.557 Y33.145 F36000
G1 E.8 F1800
G1 F13440
G1 X113.643 Y11.059 E1.31659
G1 E-.8 F1800
G1 X113.643 Y11.847 F36000
G1 E.8 F1800
G1 F13440
G1 X91.557 Y33.932 E1.31659
G1 E-.8 F1800
G1 X91.557 Y34.72 F36000
G1 E.8 F1800
G1 F13440
G1 X113.643 Y12.634 E1.31659
G1 E-.8 F1800
M73 P60 R1
G1 X113.643 Y13.422 F36000
G1 E.8 F1800
G1 F13440
G1 X91.557 Y35.508 E1.31659
G1 E-.8 F1800
G1 X91.557 Y36.296 F36000
G1 E.8 F1800
G1 F13440
G1 X113.643 Y14.21 E1.31659
G1 E-.8 F1800
G1 X113.643 Y14.998 F36000
G1 E.8 F1800
G1 F13440
G1 X91.557 Y37.084 E1.31659
G1 E-.8 F1800
G1 X91.557 Y37.872 F36000
G1 E.8 F1800
G1 F13440
G1 X113.643 Y15.786 E1.31659
G1 E-.8 F1800
G1 X113.643 Y16.574 F36000
G1 E.8 F1800
G1 F13440
G1 X91.557 Y38.659 E1.31659
G1 E-.8 F1800
G1 X91.557 Y39.447 F36000
G1 E.8 F1800
G1 F13440
G1 X113.643 Y17.361 E1.31659
G1 E-.8 F1800
M73 P61 R1
G1 X113.643 Y18.149 F36000
G1 E.8 F1800
G1 F13440
G1 X91.557 Y40.235 E1.31659
G1 E-.8 F1800
G1 X91.557 Y41.023 F36000
G1 E.8 F1800
G1 F13440
G1 X113.643 Y18.937 E1.31659
G1 E-.8 F1800
G1 X113.643 Y19.725 F36000
G1 E.8 F1800
G1 F13440
G1 X91.557 Y41.811 E1.31659
G1 E-.8 F1800
M73 P61 R0
G1 X91.557 Y42.599 F36000
G1 E.8 F1800
G1 F13440
G1 X113.643 Y20.513 E1.31659
G1 E-.8 F1800
G1 X113.643 Y21.301 F36000
G1 E.8 F1800
G1 F13440
G1 X91.557 Y43.386 E1.31659
G1 E-.8 F1800
G1 X91.557 Y44.174 F36000
G1 E.8 F1800
G1 F13440
G1 X113.643 Y22.088 E1.31659
G1 E-.8 F1800
G1 X113.643 Y22.876 F36000
M73 P62 R0
G1 E.8 F1800
G1 F13440
G1 X91.557 Y44.962 E1.31659
G1 E-.8 F1800
G1 X91.557 Y45.75 F36000
G1 E.8 F1800
G1 F13440
G1 X113.643 Y23.664 E1.31659
G1 E-.8 F1800
G1 X113.643 Y24.452 F36000
G1 E.8 F1800
G1 F13440
G1 X91.557 Y46.538 E1.31659
G1 E-.8 F1800
G1 X91.557 Y47.326 F36000
G1 E.8 F1800
G1 F13440
G1 X113.643 Y25.24 E1.31659
G1 E-.8 F1800
G1 X113.643 Y26.028 F36000
G1 E.8 F1800
G1 F13440
G1 X91.557 Y48.113 E1.31659
G1 E-.8 F1800
G1 X91.557 Y48.901 F36000
G1 E.8 F1800
G1 F13440
G1 X113.643 Y26.815 E1.31659
G1 E-.8 F1800
G1 X113.643 Y27.603 F36000
G1 E.8 F1800
G1 F13440
M73 P63 R0
G1 X91.557 Y49.689 E1.31659
G1 E-.8 F1800
G1 X91.557 Y50.477 F36000
G1 E.8 F1800
G1 F13440
G1 X113.643 Y28.391 E1.31659
G1 E-.8 F1800
G1 X113.643 Y29.179 F36000
G1 E.8 F1800
G1 F13440
G1 X91.557 Y51.265 E1.31659
G1 E-.8 F1800
G1 X91.557 Y52.053 F36000
G1 E.8 F1800
G1 F13440
G1 X113.643 Y29.967 E1.31659
G1 E-.8 F1800
G1 X113.643 Y30.755 F36000
G1 E.8 F1800
G1 F13440
G1 X91.557 Y52.84 E1.31659
G1 E-.8 F1800
G1 X91.557 Y53.628 F36000
G1 E.8 F1800
G1 F13440
G1 X113.643 Y31.542 E1.31659
G1 E-.8 F1800
G1 X113.643 Y32.33 F36000
G1 E.8 F1800
G1 F13440
G1 X91.557 Y54.416 E1.31659
G1 E-.8 F1800
M73 P64 R0
G1 X91.557 Y55.204 F36000
G1 E.8 F1800
G1 F13440
G1 X113.643 Y33.118 E1.31659
G1 E-.8 F1800
G1 X113.643 Y33.906 F36000
G1 E.8 F1800
G1 F13440
G1 X91.557 Y55.992 E1.31659
G1 E-.8 F1800
G1 X91.557 Y56.779 F36000
G1 E.8 F1800
G1 F13440
G1 X113.643 Y34.694 E1.31659
G1 E-.8 F1800
G1 X113.643 Y35.481 F36000
G1 E.8 F1800
G1 F13440
G1 X91.557 Y57.567 E1.31659
G1 E-.8 F1800
G1 X91.557 Y58.355 F36000
G1 E.8 F1800
G1 F13440
G1 X113.643 Y36.269 E1.31659
G1 E-.8 F1800
G1 X113.643 Y37.057 F36000
G1 E.8 F1800
G1 F13440
G1 X91.557 Y59.143 E1.31659
G1 E-.8 F1800
M73 P65 R0
G1 X91.557 Y59.931 F36000
G1 E.8 F1800
G1 F13440
G1 X113.643 Y37.845 E1.31659
G1 E-.8 F1800
G1 X113.643 Y38.633 F36000
G1 E.8 F1800
G1 F13440
G1 X91.557 Y60.719 E1.31659
G1 E-.8 F1800
G1 X91.557 Y61.506 F36000
G1 E.8 F1800
G1 F13440
G1 X113.643 Y39.421 E1.31659
G1 E-.8 F1800
G1 X113.643 Y40.208 F36000
G1 E.8 F1800
G1 F13440
G1 X91.557 Y62.294 E1.31659
G1 E-.8 F1800
G1 X91.557 Y63.082 F36000
G1 E.8 F1800
G1 F13440
G1 X113.643 Y40.996 E1.31659
G1 E-.8 F1800
G1 X113.643 Y41.784 F36000
G1 E.8 F1800
G1 F13440
G1 X91.557 Y63.87 E1.31659
G1 E-.8 F1800
M73 P66 R0
G1 X91.557 Y64.658 F36000
G1 E.8 F1800
G1 F13440
G1 X113.643 Y42.572 E1.31659
G1 E-.8 F1800
G1 X113.643 Y43.36 F36000
G1 E.8 F1800
G1 F13440
