; HEADER_BLOCK_START
; generated by OrcaSlicer 2.3.2-beta2 on 2026-02-23 at 17:47:58
; total layer number: 225
; filament_density: 1.04
; filament_diameter: 1.75
; max_z_height: 45.00
; filament: 1
; HEADER_BLOCK_END

; THUMBNAIL_BLOCK_START

;
; THUMBNAIL_BLOCK_END

; THUMBNAIL_BLOCK_START

;
; THUMBNAIL_BLOCK_END

; external perimeters extrusion width = 0.40mm
; perimeters extrusion width = 0.40mm
; infill extrusion width = 0.40mm
; solid infill extrusion width = 0.40mm
; top infill extrusion width = 0.40mm
; first layer extrusion width = 0.40mm

; EXECUTABLE_BLOCK_START


; Pre-Processed for Cancel-Object support by preprocess_cancellation v0.2.0
; 1 known objects
EXCLUDE_OBJECT_DEFINE NAME=r9_psu_mount_m8_basic_hole_stl_id_0_copy_0 CENTER=59.948,66.774 POLYGON=[[7.823,26.723],[7.823,93.277],[112.177,93.277],[112.177,26.723]]
M73 P0 R49
;TYPE:Custom
PRINT_START EXTRUDER_TEMP=255 BED_TEMP=105
G90
G21
M83 ; use relative distances for extrusion
; Filament gcode
SET_PRESSURE_ADVANCE ADVANCE=0.04; Override pressure advance value
M106 S0
;LAYER_CHANGE
;Z:0.2
;HEIGHT:0.2
;BEFORE_LAYER_CHANGE
;0.2
G92 E0

G1 E-.8 F1800
;AFTER_LAYER_CHANGE
;0.2
;_SET_FAN_SPEED_CHANGING_LAYER
SET_VELOCITY_LIMIT ACCEL=10000 ACCEL_TO_DECEL=10000
SET_VELOCITY_LIMIT SQUARE_CORNER_VELOCITY=9
; printing object r9-psu-mount-m8-basic-hole.stl id:0 copy 0
EXCLUDE_OBJECT_START NAME=r9_psu_mount_m8_basic_hole_stl_id_0_copy_0
G1 Z.6 F36000
G1 X14.288 Y27.7
G1 Z.6
G1 Z.2
G1 E.8 F1800
;TYPE:Brim
;WIDTH:0.4
G1 F6000
G1 X14.994 Y27.336 E.02148
G1 X15.88 Y27.022 E.02539
G1 X16.721 Y26.83 E.02332
G1 X18.007 Y26.723 E.03487
G1 X101.995 Y26.723 E2.26927
G1 X102.864 Y26.772 E.02353
G1 X103.715 Y26.917 E.02332
G1 X105.01 Y27.338 E.03679
G1 X105.788 Y27.713 E.02334
G1 X106.519 Y28.173 E.02333
G1 X107.505 Y29.006 E.03487
G1 X109.885 Y31.386 E.09096
G1 X110.465 Y32.036 E.02353
G1 X110.966 Y32.743 E.02339
G1 X111.392 Y33.517 E.02389
G1 X111.729 Y34.316 E.02342
G1 X111.974 Y35.146 E.02339
G1 X112.124 Y35.999 E.02339
G1 X112.177 Y36.905 E.02454
G1 X112.177 Y85.495 E1.31285
G1 X112.128 Y86.364 E.02353
G1 X111.982 Y87.218 E.02339
G1 X111.742 Y88.047 E.02331
G1 X111.169 Y89.303 E.0373
G1 X110.709 Y90.034 E.02334
G1 X110.168 Y90.71 E.02339
G1 X109.555 Y91.321 E.02339
G1 X108.877 Y91.859 E.02339
G1 X108.142 Y92.317 E.02339
G1 X107.36 Y92.69 E.0234
G1 X106.575 Y92.963 E.02246
G1 X105.68 Y93.169 E.02482
G1 X104.393 Y93.277 E.0349
G1 X15.605 Y93.277 E2.39896
G1 X14.736 Y93.228 E.02353
G1 X13.882 Y93.082 E.02339
G1 X13.053 Y92.842 E.02333
G1 X11.881 Y92.316 E.03471
G1 X11.066 Y91.809 E.02594
G1 X10.39 Y91.268 E.02338
G1 X9.779 Y90.655 E.02339
G1 X9.241 Y89.977 E.02339
G1 X8.783 Y89.242 E.02339
G1 X8.41 Y88.46 E.0234
G1 X8.137 Y87.675 E.02246
G1 X7.931 Y86.78 E.02482
G1 X7.823 Y85.493 E.0349
G1 X7.823 Y36.905 E1.31279
G1 X7.872 Y36.036 E.02353
G1 X8.017 Y35.185 E.02333
G1 X8.409 Y33.96 E.03474
G1 X8.813 Y33.111 E.02539
G1 X9.273 Y32.381 E.02332
G1 X10.106 Y31.395 E.03487
G1 X12.497 Y29.004 E.09137
G1 X13.147 Y28.424 E.02353
G1 X13.851 Y27.925 E.02333
G1 X14.252 Y27.719 E.01218
G1 X14.416 Y28.036 F36000
G1 F6000
G1 X15.13 Y27.668 E.0217
G1 X15.986 Y27.364 E.02454
G1 X16.784 Y27.184 E.02211
G1 X18.027 Y27.08 E.03371
G1 X101.988 Y27.08 E2.26855
G1 X102.818 Y27.127 E.02247
G1 X103.622 Y27.264 E.02203
G1 X104.884 Y27.673 E.03584
G1 X105.61 Y28.023 E.02178
G1 X106.301 Y28.458 E.02207
G1 X107.259 Y29.266 E.03387
G1 X109.628 Y31.634 E.09049
G1 X110.181 Y32.254 E.02247
G1 X110.659 Y32.927 E.0223
G1 X111.067 Y33.668 E.02286
G1 X111.394 Y34.442 E.02269
G1 X111.627 Y35.234 E.0223
G1 X111.769 Y36.046 E.02229
G1 X111.82 Y36.919 E.02362
G1 X111.82 Y85.488 E1.31229
G1 X111.772 Y86.33 E.02279
G1 X111.632 Y87.144 E.0223
G1 X111.403 Y87.929 E.02211
G1 X110.857 Y89.126 E.03555
G1 X110.421 Y89.822 E.02218
G1 X109.898 Y90.476 E.02263
G1 X109.313 Y91.058 E.0223
G1 X108.665 Y91.57 E.0223
G1 X107.965 Y92.006 E.0223
G1 X107.23 Y92.357 E.022
G1 X106.481 Y92.617 E.02142
G1 X105.617 Y92.816 E.02397
G1 X104.373 Y92.92 E.03371
G1 X15.618 Y92.92 E2.39808
G1 X14.782 Y92.873 E.02263
G1 X13.956 Y92.732 E.02263
G1 X13.169 Y92.503 E.02214
G1 X12.056 Y92.003 E.03299
G1 X11.277 Y91.52 E.02474
G1 X10.633 Y91.006 E.02227
G1 X10.05 Y90.422 E.0223
G1 X9.53 Y89.765 E.02263
G1 X9.094 Y89.065 E.0223
G1 X8.743 Y88.33 E.022
G1 X8.483 Y87.581 E.02142
G1 X8.284 Y86.717 E.02397
G1 X8.18 Y85.473 E.03371
G1 X8.18 Y36.918 E1.31191
G1 X8.227 Y36.082 E.02263
G1 X8.367 Y35.262 E.02247
G1 X8.739 Y34.098 E.03301
G1 X9.123 Y33.289 E.0242
G1 X9.566 Y32.587 E.02244
G1 X10.372 Y31.634 E.03371
G1 X12.74 Y29.266 E.09049
G1 X13.365 Y28.708 E.02263
G1 X14.031 Y28.235 E.02207
G1 X14.381 Y28.055 E.01064
G1 X14.545 Y28.372 F36000
G1 F6000
G1 X15.266 Y27.999 E.02192
G1 X16.091 Y27.706 E.02367
G1 X16.846 Y27.537 E.02089
G1 X18.046 Y27.437 E.03255
G1 X101.975 Y27.437 E2.26767
G1 X102.772 Y27.482 E.02157
G1 X103.529 Y27.61 E.02073
G1 X104.757 Y28.008 E.03489
G1 X105.442 Y28.339 E.02055
G1 X106.084 Y28.743 E.02048
G1 X107.014 Y29.526 E.03287
G1 X109.37 Y31.882 E.09001
G1 X109.898 Y32.473 E.02141
G1 X110.352 Y33.113 E.02121
G1 X110.743 Y33.82 E.02182
G1 X111.059 Y34.568 E.02195
G1 X111.28 Y35.321 E.02121
G1 X111.414 Y36.094 E.02119
G1 X111.463 Y36.933 E.0227
G1 X111.463 Y85.481 E1.31173
G1 X111.417 Y86.284 E.02173
G1 X111.282 Y87.069 E.02154
G1 X111.064 Y87.812 E.02091
G1 X110.545 Y88.95 E.03381
G1 X110.133 Y89.609 E.02101
G1 X109.636 Y90.232 E.02153
G1 X109.07 Y90.794 E.02153
G1 X108.454 Y91.281 E.02121
G1 X107.788 Y91.695 E.02121
G1 X107.099 Y92.023 E.0206
G1 X106.388 Y92.272 E.02036
G1 X105.554 Y92.463 E.02312
G1 X104.354 Y92.563 E.03253
G1 X15.631 Y92.563 E2.3972
G1 X14.816 Y92.517 E.02206
G1 X14.031 Y92.382 E.02153
G1 X13.286 Y92.164 E.02096
G1 X12.23 Y91.69 E.03128
G1 X11.489 Y91.231 E.02355
G1 X10.877 Y90.743 E.02116
G1 X10.314 Y90.179 E.02153
G1 X9.819 Y89.554 E.02153
G1 X9.405 Y88.888 E.02121
G1 X9.077 Y88.199 E.0206
G1 X8.828 Y87.488 E.02036
G1 X8.637 Y86.654 E.02312
G1 X8.537 Y85.454 E.03253
G1 X8.537 Y36.931 E1.31104
G1 X8.582 Y36.128 E.02173
G1 X8.717 Y35.34 E.02161
G1 X9.07 Y34.237 E.03129
G1 X9.434 Y33.468 E.02299
G1 X9.86 Y32.792 E.02157
G1 X10.638 Y31.873 E.03255
G1 X12.984 Y29.528 E.08962
G1 X13.583 Y28.992 E.02174
G1 X14.211 Y28.546 E.02081
G1 X14.51 Y28.391 E.00909
G1 X14.675 Y28.708 F36000
G1 F6000
G1 X15.402 Y28.331 E.02213
G1 X16.184 Y28.052 E.02245
G1 X16.907 Y27.89 E.02001
G1 X18.065 Y27.794 E.03141
G1 X101.962 Y27.794 E2.2668
G1 X102.726 Y27.837 E.02068
G1 X103.436 Y27.956 E.01944
G1 X104.63 Y28.344 E.03393
G1 X105.263 Y28.649 E.019
G1 X105.866 Y29.028 E.01923
G1 X106.769 Y29.787 E.03186
G1 X109.112 Y32.129 E.08953
G1 X109.614 Y32.691 E.02036
G1 X110.046 Y33.298 E.02012
G1 X110.423 Y33.981 E.02108
G1 X110.723 Y34.694 E.0209
G1 X110.932 Y35.408 E.02011
G1 X111.059 Y36.141 E.0201
G1 X111.106 Y36.946 E.02179
G1 X111.105 Y85.474 E1.31117
G1 X111.06 Y86.249 E.02098
G1 X110.932 Y86.994 E.02044
G1 X110.726 Y87.694 E.0197
G1 X110.233 Y88.774 E.03208
G1 X109.837 Y89.407 E.02018
G1 X109.365 Y89.998 E.02042
G1 X108.828 Y90.53 E.02043
G1 X108.244 Y90.991 E.02012
G1 X107.611 Y91.384 E.02013
G1 X106.968 Y91.69 E.01922
G1 X106.294 Y91.926 E.0193
G1 X105.491 Y92.11 E.02226
G1 X104.335 Y92.206 E.03136
G1 X15.644 Y92.206 E2.39633
G1 X14.863 Y92.162 E.02115
G1 X14.105 Y92.032 E.02076
G1 X13.403 Y91.825 E.01977
G1 X12.404 Y91.377 E.02959
G1 X11.7 Y90.942 E.02235
G1 X11.12 Y90.48 E.02004
G1 X10.577 Y89.936 E.02076
G1 X10.109 Y89.343 E.02043
G1 X9.716 Y88.711 E.02012
G1 X9.41 Y88.068 E.01922
G1 X9.174 Y87.394 E.0193
G1 X8.99 Y86.591 E.02226
G1 X8.894 Y85.435 E.03135
G1 X8.894 Y36.944 E1.31017
G1 X8.937 Y36.175 E.02082
G1 X9.067 Y35.418 E.02075
G1 X9.401 Y34.375 E.02958
G1 X9.745 Y33.646 E.02179
G1 X10.153 Y32.998 E.02068
G1 X10.904 Y32.112 E.03139
G1 X13.227 Y29.789 E.08874
G1 X13.802 Y29.275 E.02085
G1 X14.391 Y28.855 E.01955
G1 X14.639 Y28.727 E.00754
G1 X14.804 Y29.044 F36000
G1 F6000
G1 X15.538 Y28.662 E.02235
G1 X16.29 Y28.394 E.02157
G1 X16.968 Y28.243 E.01878
G1 X18.085 Y28.151 E.03026
G1 X101.949 Y28.151 E2.26593
G1 X102.68 Y28.192 E.0198
G1 X103.343 Y28.303 E.01814
G1 X104.503 Y28.679 E.03297
G1 X105.095 Y28.966 E.01777
G1 X105.649 Y29.313 E.01767
G1 X106.53 Y30.053 E.0311
G1 X108.855 Y32.377 E.0888
G1 X109.331 Y32.91 E.01931
G1 X109.74 Y33.483 E.01903
G1 X110.099 Y34.132 E.02003
G1 X110.384 Y34.808 E.01983
G1 X110.582 Y35.483 E.01901
G1 X110.704 Y36.188 E.01933
G1 X110.749 Y36.96 E.02088
G1 X110.748 Y85.466 E1.31061
G1 X110.705 Y86.202 E.01991
G1 X110.581 Y86.919 E.01966
G1 X110.387 Y87.576 E.0185
G1 X109.921 Y88.598 E.03037
G1 X109.549 Y89.195 E.01901
G1 X109.103 Y89.754 E.01931
G1 X108.595 Y90.258 E.01933
G1 X108.033 Y90.702 E.01935
G1 X107.434 Y91.073 E.01905
G1 X106.827 Y91.361 E.01816
G1 X106.201 Y91.581 E.01792
G1 X105.428 Y91.757 E.0214
G1 X104.315 Y91.849 E.03018
G1 X15.658 Y91.849 E2.39545
G1 X14.909 Y91.807 E.02025
G1 X14.18 Y91.681 E.01998
G1 X13.521 Y91.486 E.01858
G1 X12.578 Y91.063 E.02791
G1 X11.911 Y90.653 E.02116
G1 X11.363 Y90.218 E.01892
G1 X10.849 Y89.703 E.01965
G1 X10.398 Y89.133 E.01965
G1 X10.027 Y88.534 E.01903
G1 X9.739 Y87.927 E.01816
G1 X9.519 Y87.301 E.01792
G1 X9.343 Y86.528 E.0214
G1 X9.251 Y85.415 E.03018
G1 X9.251 Y36.957 E1.3093
G1 X9.292 Y36.221 E.01991
G1 X9.417 Y35.496 E.01989
G1 X9.731 Y34.513 E.02788
G1 X10.056 Y33.824 E.02057
G1 X10.447 Y33.204 E.0198
G1 X11.17 Y32.351 E.03023
G1 X13.47 Y30.051 E.08788
G1 X14.021 Y29.558 E.01996
G1 X14.572 Y29.165 E.0183
G1 X14.769 Y29.063 E.006
G1 X14.934 Y29.38 F36000
G1 F6000
G1 X15.675 Y28.994 E.02256
G1 X16.396 Y28.736 E.02069
G1 X17.029 Y28.596 E.01753
G1 X18.104 Y28.508 E.02912
G1 X101.936 Y28.508 E2.26507
G1 X102.635 Y28.547 E.01892
G1 X103.25 Y28.649 E.01684
G1 X104.377 Y29.014 E.032
G1 X104.917 Y29.276 E.01621
G1 X105.432 Y29.598 E.01643
G1 X106.292 Y30.32 E.03034
G1 X108.597 Y32.625 E.08807
G1 X109.048 Y33.129 E.01827
G1 X109.434 Y33.669 E.01794
G1 X109.774 Y34.283 E.01898
G1 X110.045 Y34.922 E.01875
G1 X110.235 Y35.57 E.01824
G1 X110.349 Y36.235 E.01823
G1 X110.392 Y36.973 E.01997
G1 X110.391 Y85.459 E1.31005
G1 X110.349 Y86.167 E.01916
G1 X110.231 Y86.844 E.01856
G1 X110.049 Y87.457 E.01729
G1 X109.608 Y88.423 E.02867
G1 X109.253 Y88.993 E.01817
G1 X108.832 Y89.519 E.0182
G1 X108.353 Y89.994 E.01822
G1 X107.823 Y90.412 E.01824
G1 X107.257 Y90.761 E.01796
G1 X106.696 Y91.028 E.0168
G1 X106.107 Y91.235 E.01686
G1 X105.366 Y91.404 E.02053
G1 X104.296 Y91.492 E.02901
G1 X15.671 Y91.492 E2.39458
G1 X14.956 Y91.452 E.01934
G1 X14.256 Y91.331 E.0192
G1 X13.639 Y91.148 E.01739
G1 X12.752 Y90.75 E.02625
G1 X12.122 Y90.363 E.01997
G1 X11.606 Y89.954 E.01779
G1 X11.121 Y89.47 E.01853
G1 X10.688 Y88.922 E.01887
G1 X10.339 Y88.357 E.01794
G1 X10.072 Y87.796 E.0168
G1 X9.865 Y87.207 E.01686
G1 X9.696 Y86.466 E.02053
G1 X9.608 Y85.396 E.02901
G1 X9.608 Y36.97 E1.30843
G1 X9.647 Y36.268 E.019
G1 X9.767 Y35.574 E.01903
G1 X10.062 Y34.65 E.02619
G1 X10.367 Y34.002 E.01935
G1 X10.74 Y33.41 E.0189
G1 X11.436 Y32.59 E.02908
G1 X13.714 Y30.313 E.08701
G1 X14.24 Y29.842 E.01908
G1 X14.753 Y29.475 E.01704
G1 X14.899 Y29.399 E.00445
G1 X15.065 Y29.716 F36000
G1 F6000
G1 X15.811 Y29.325 E.02276
G1 X16.488 Y29.083 E.01943
G1 X17.09 Y28.95 E.01665
G1 X18.123 Y28.865 E.02799
G1 X101.923 Y28.865 E2.26421
G1 X102.59 Y28.902 E.01805
G1 X103.157 Y28.996 E.01554
G1 X104.25 Y29.35 E.03103
G1 X104.749 Y29.592 E.01498
G1 X105.215 Y29.884 E.01488
G1 X106.054 Y30.587 E.02957
G1 X108.34 Y32.872 E.08733
G1 X108.764 Y33.348 E.01724
G1 X109.128 Y33.855 E.01686
G1 X109.45 Y34.435 E.01792
G1 X109.706 Y35.037 E.01767
G1 X109.885 Y35.645 E.01713
G1 X109.994 Y36.282 E.01746
G1 X110.035 Y36.986 E.01907
G1 X110.034 Y85.452 E1.30949
G1 X109.994 Y86.12 E.01808
G1 X109.881 Y86.768 E.01778
G1 X109.71 Y87.338 E.01608
G1 X109.296 Y88.247 E.02699
G1 X108.964 Y88.781 E.01699
G1 X108.57 Y89.275 E.01708
G1 X108.112 Y89.73 E.01744
G1 X107.613 Y90.122 E.01714
G1 X107.081 Y90.45 E.01688
G1 X106.554 Y90.699 E.01575
G1 X106.014 Y90.889 E.01548
G1 X105.304 Y91.051 E.01967
G1 X104.277 Y91.135 E.02784
G1 X15.684 Y91.135 E2.39371
G1 X15.002 Y91.097 E.01844
G1 X14.331 Y90.981 E.01841
G1 X13.757 Y90.809 E.01619
G1 X12.926 Y90.436 E.02461
G1 X12.333 Y90.073 E.01879
G1 X11.848 Y89.691 E.01667
G1 X11.384 Y89.227 E.01774
G1 X10.977 Y88.712 E.01774
G1 X10.65 Y88.181 E.01684
G1 X10.401 Y87.654 E.01575
G1 X10.211 Y87.114 E.01548
G1 X10.049 Y86.404 E.01967
G1 X9.965 Y85.377 E.02783
G1 X9.965 Y36.983 E1.30757
G1 X10.002 Y36.315 E.01808
G1 X10.117 Y35.652 E.01817
G1 X10.393 Y34.788 E.02452
G1 X10.677 Y34.18 E.01813
G1 X11.034 Y33.617 E.018
G1 X11.702 Y32.829 E.02792
G1 X13.957 Y30.574 E.08615
G1 X14.459 Y30.125 E.01821
G1 X14.934 Y29.784 E.01579
G1 X15.029 Y29.734 E.0029
G1 X15.196 Y30.051 F36000
G1 F6000
G1 X15.949 Y29.657 E.02297
G1 X16.594 Y29.425 E.01853
G1 X17.151 Y29.303 E.01539
G1 X18.142 Y29.222 E.02687
G1 X101.91 Y29.223 E2.26335
G1 X102.545 Y29.257 E.01718
G1 X103.065 Y29.343 E.01423
G1 X104.123 Y29.685 E.03004
G1 X104.57 Y29.902 E.01344
G1 X104.999 Y30.17 E.01364
G1 X105.816 Y30.854 E.0288
G1 X108.082 Y33.12 E.08659
G1 X108.482 Y33.567 E.01621
G1 X108.822 Y34.042 E.01578
G1 X109.126 Y34.587 E.01687
G1 X109.371 Y35.163 E.01692
G1 X109.537 Y35.732 E.01601
G1 X109.639 Y36.329 E.01635
G1 X109.678 Y37 E.01817
G1 X109.676 Y85.444 E1.30893
G1 X109.638 Y86.084 E.01733
G1 X109.531 Y86.692 E.01666
G1 X109.372 Y87.219 E.01487
G1 X108.984 Y88.072 E.02533
G1 X108.668 Y88.58 E.01616
G1 X108.299 Y89.041 E.01595
G1 X107.87 Y89.466 E.01632
G1 X107.403 Y89.832 E.01602
G1 X106.905 Y90.138 E.01579
G1 X106.423 Y90.366 E.01441
G1 X105.92 Y90.544 E.01441
G1 X105.242 Y90.698 E.0188
G1 X104.258 Y90.778 E.02667
G1 X15.697 Y90.778 E2.39285
G1 X15.037 Y90.74 E.01786
G1 X14.406 Y90.631 E.01728
G1 X13.875 Y90.471 E.01499
G1 X13.099 Y90.123 E.02298
G1 X12.543 Y89.783 E.01761
G1 X12.091 Y89.428 E.01553
G1 X11.647 Y88.985 E.01694
G1 X11.267 Y88.502 E.0166
G1 X10.962 Y88.005 E.01575
G1 X10.734 Y87.523 E.01441
G1 X10.556 Y87.02 E.01441
G1 X10.402 Y86.342 E.0188
G1 X10.322 Y85.358 E.02667
G1 X10.322 Y36.996 E1.30671
G1 X10.357 Y36.361 E.01716
G1 X10.467 Y35.73 E.01731
G1 X10.724 Y34.925 E.02285
G1 X10.988 Y34.358 E.0169
G1 X11.327 Y33.823 E.0171
G1 X11.968 Y33.068 E.02677
G1 X14.201 Y30.836 E.08529
G1 X14.679 Y30.407 E.01734
G1 X15.116 Y30.093 E.01455
G1 X15.16 Y30.07 E.00136
G1 X15.327 Y30.387 F36000
G1 F6000
G1 X16.086 Y29.988 E.02317
G1 X16.7 Y29.767 E.01763
G1 X17.211 Y29.656 E.01412
G1 X18.161 Y29.579 E.02575
G1 X101.897 Y29.58 E2.26249
G1 X102.501 Y29.613 E.01632
G1 X102.973 Y29.689 E.01292
G1 X103.996 Y30.02 E.02906
G1 X104.402 Y30.218 E.0122
G1 X104.782 Y30.455 E.0121
G1 X105.578 Y31.121 E.02803
G1 X107.82 Y33.363 E.08568
G1 X108.199 Y33.787 E.01535
G1 X108.517 Y34.228 E.0147
G1 X108.802 Y34.739 E.01581
G1 X109.031 Y35.278 E.01583
G1 X109.19 Y35.819 E.01523
G1 X109.284 Y36.375 E.01524
G1 X109.321 Y37.013 E.01727
G1 X109.319 Y85.437 E1.30837
G1 X109.283 Y86.037 E.01624
G1 X109.182 Y86.615 E.01587
G1 X109.034 Y87.099 E.01367
G1 X108.671 Y87.897 E.02368
G1 X108.379 Y88.368 E.01498
G1 X108.037 Y88.797 E.01482
G1 X107.638 Y89.193 E.01521
G1 X107.194 Y89.541 E.01525
G1 X106.729 Y89.826 E.01471
G1 X106.292 Y90.033 E.01308
G1 X105.827 Y90.198 E.01333
G1 X105.18 Y90.344 E.01792
G1 X104.239 Y90.421 E.0255
G1 X15.71 Y90.421 E2.39199
G1 X15.084 Y90.385 E.01695
G1 X14.482 Y90.281 E.01648
G1 X13.994 Y90.133 E.01379
G1 X13.272 Y89.809 E.02138
G1 X12.752 Y89.493 E.01644
G1 X12.333 Y89.164 E.01439
G1 X11.919 Y88.751 E.01579
G1 X11.558 Y88.292 E.01581
G1 X11.274 Y87.829 E.01466
G1 X11.067 Y87.392 E.01308
G1 X10.902 Y86.927 E.01333
G1 X10.756 Y86.28 E.01792
G1 X10.679 Y85.339 E.0255
G1 X10.679 Y37.008 E1.30586
G1 X10.712 Y36.408 E.01624
G1 X10.817 Y35.809 E.01645
G1 X11.056 Y35.061 E.02119
G1 X11.306 Y34.524 E.01603
G1 X11.62 Y34.029 E.01582
G1 X12.234 Y33.307 E.02561
G1 X14.444 Y31.097 E.08444
G1 X14.898 Y30.69 E.01648
G1 X15.292 Y30.406 E.01312
G1 X15.48 Y30.711 F36000
G1 F6000
G1 X16.224 Y30.319 E.02271
G1 X16.792 Y30.114 E.01633
