; HEADER_BLOCK_START
; generated by OrcaSlicer 2.3.2-beta2 on 2026-02-26 at 12:07:36
; total layer number: 55
; filament_density: 1.04
; filament_diameter: 1.75
; max_z_height: 11.20
; filament: 1
; HEADER_BLOCK_END

; THUMBNAIL_BLOCK_START

;
; THUMBNAIL_BLOCK_END

; THUMBNAIL_BLOCK_START

;
; THUMBNAIL_BLOCK_END

; external perimeters extrusion width = 0.40mm
; perimeters extrusion width = 0.40mm
; infill extrusion width = 0.40mm
; solid infill extrusion width = 0.40mm
; top infill extrusion width = 0.40mm
; first layer extrusion width = 0.40mm

; EXECUTABLE_BLOCK_START


; Pre-Processed for Cancel-Object support by preprocess_cancellation v0.2.0
; 1 known objects
EXCLUDE_OBJECT_DEFINE NAME=Rapid_Burner_v0_2_v8_Sequin_Mount_id_5640018859455238740_copy_0 CENTER=59.967,59.479 POLYGON=[[39.684,47.98],[39.684,72.256],[80.321,72.256],[80.321,47.98]]
M73 P0 R6
;TYPE:Custom
PRINT_START EXTRUDER_TEMP=255 BED_TEMP=105
G90
G21
M83 ; use relative distances for extrusion
; Filament gcode
SET_PRESSURE_ADVANCE ADVANCE=0.04; Override pressure advance value
M106 S0
;LAYER_CHANGE
;Z:0.2
;HEIGHT:0.2
;BEFORE_LAYER_CHANGE
;0.2
G92 E0

G1 E-.8 F1800
;AFTER_LAYER_CHANGE
;0.2
;_SET_FAN_SPEED_CHANGING_LAYER
SET_VELOCITY_LIMIT ACCEL=10000 ACCEL_TO_DECEL=10000
SET_VELOCITY_LIMIT SQUARE_CORNER_VELOCITY=9
; printing object Rapid_Burner_v0.2_v8_Sequin_Mount id:5640018859455238740 copy 0
EXCLUDE_OBJECT_START NAME=Rapid_Burner_v0_2_v8_Sequin_Mount_id_5640018859455238740_copy_0
G1 Z.6 F36000
G1 X48.193 Y55.407
G1 Z.6
G1 Z.2
G1 E.8 F1800
;TYPE:Brim
;WIDTH:0.4
G1 F6000
G1 X52.846 Y55.407 E.12573
G1 X52.692 Y55.487 E.0047
G1 X52.325 Y55.616 E.0105
G1 X51.711 Y55.742 E.01694
G1 X51.328 Y55.764 E.01037
G1 X48.193 Y55.764 E.08471
G1 X48.193 Y55.447 E.00857
G1 E-.56 F1800
;WIPE_START
G1 F6000
G1 X49.193 Y55.438 E-.24
;WIPE_END
G1 Z.6 F36000
G1 X47.122 Y52.243 Z.6
G1 Z.2
G1 E.8 F1800
G1 F6000
G1 X44.604 Y52.243 E.06804
G1 X44.502 Y52.266 E.00283
G1 X44.395 Y52.351 E.00369
G1 X44.326 Y52.522 E.00499
G1 X44.326 Y53.9 E.03723
G1 X44.186 Y53.631 E.00818
G1 X44.042 Y53.212 E.01198
G1 X43.93 Y52.651 E.01547
G1 X43.909 Y52.267 E.01039
G1 X43.909 Y51.479 E.02128
G1 X43.957 Y50.907 E.01552
G1 X44.097 Y50.358 E.01532
G1 X44.334 Y49.829 E.01565
G1 X44.696 Y49.273 E.01793
G1 X45.084 Y48.861 E.01529
G1 X45.537 Y48.519 E.01532
G1 X46.041 Y48.257 E.01537
G1 X46.461 Y48.113 E.01198
G1 X47.022 Y48.001 E.01547
G1 X47.406 Y47.98 E.01039
G1 X51.325 Y47.98 E.1059
G1 X51.898 Y48.028 E.01552
G1 X52.446 Y48.168 E.01529
G1 X53.059 Y48.451 E.01823
G1 X53.531 Y48.766 E.01535
G1 X53.944 Y49.155 E.01532
G1 X54.285 Y49.608 E.01532
G1 X54.548 Y50.113 E.01538
G1 X54.677 Y50.48 E.0105
G1 X54.804 Y51.094 E.01694
G1 X54.825 Y51.476 E.01034
G1 X54.815 Y52.243 E.02074
G1 X51.611 Y52.243 E.08655
G1 X51.605 Y51.422 E.02218
G1 X51.589 Y51.369 E.00149
G1 X51.504 Y51.262 E.00369
G1 X51.333 Y51.193 E.00499
G1 X47.351 Y51.2 E.10758
G1 X47.298 Y51.216 E.00149
G1 X47.191 Y51.301 E.00369
G1 X47.122 Y51.472 E.00499
G1 X47.122 Y52.203 E.01976
G1 X46.718 Y51.868 F36000
G1 F6000
G1 X46.658 Y51.886 E.0017
G1 X44.615 Y51.886 E.0552
G1 X44.394 Y51.931 E.00609
G1 X44.298 Y51.903 E.00271
G1 X44.266 Y51.826 E.00224
G1 X44.266 Y51.499 E.00885
G1 X44.312 Y50.958 E.01467
G1 X44.44 Y50.467 E.01369
G1 X44.653 Y49.993 E.01405
G1 X44.972 Y49.503 E.01581
G1 X45.317 Y49.135 E.01363
G1 X45.721 Y48.828 E.0137
G1 X46.176 Y48.59 E.01387
G1 X46.561 Y48.457 E.01101
G1 X47.06 Y48.358 E.01374
G1 X47.413 Y48.337 E.00956
G1 X51.315 Y48.337 E.10543
G1 X51.847 Y48.383 E.01443
G1 X52.335 Y48.51 E.01362
G1 X52.891 Y48.768 E.01656
G1 X53.314 Y49.053 E.01379
G1 X53.682 Y49.402 E.0137
G1 X53.987 Y49.807 E.0137
G1 X54.216 Y50.248 E.01344
G1 X54.33 Y50.569 E.00918
G1 X54.449 Y51.151 E.01608
G1 X54.464 Y51.777 E.0169
G1 X54.419 Y51.866 E.00271
G1 X54.357 Y51.886 E.00176
G1 X52.072 Y51.886 E.06174
G1 X51.983 Y51.839 E.00271
G1 X51.965 Y51.78 E.00167
G1 X51.947 Y51.325 E.01231
G1 X51.86 Y51.137 E.0056
G1 X51.792 Y51.051 E.00297
G1 X51.625 Y50.926 E.00563
G1 X51.476 Y50.866 E.00433
G1 X51.322 Y50.836 E.00425
G1 X47.361 Y50.843 E.10703
G1 X47.205 Y50.872 E.00427
G1 X47.068 Y50.943 E.00418
G1 X46.98 Y51.013 E.00303
G1 X46.855 Y51.18 E.00563
G1 X46.795 Y51.328 E.00434
G1 X46.765 Y51.482 E.00423
G1 X46.765 Y51.779 E.00802
G1 X46.737 Y51.832 E.00163
G1 X46.41 Y51.442 F36000
G1 F6000
G1 X46.307 Y51.529 E.00365
G1 X44.738 Y51.529 E.04238
G1 X44.649 Y51.482 E.00271
G1 X44.631 Y51.413 E.00193
G1 X44.665 Y51.027 E.01045
G1 X44.775 Y50.595 E.01206
G1 X44.972 Y50.158 E.01295
G1 X45.249 Y49.732 E.01373
G1 X45.551 Y49.407 E.01198
G1 X45.906 Y49.136 E.01208
G1 X46.325 Y48.916 E.01278
G1 X46.661 Y48.801 E.00961
G1 X47.098 Y48.714 E.01203
G1 X47.42 Y48.694 E.00872
G1 X51.295 Y48.694 E.10469
G1 X51.777 Y48.736 E.01308
G1 X52.223 Y48.852 E.01244
G1 X52.722 Y49.085 E.01489
G1 X53.083 Y49.327 E.01174
G1 X53.408 Y49.634 E.01208
G1 X53.687 Y50.006 E.01257
G1 X53.884 Y50.385 E.01154
G1 X53.982 Y50.658 E.00783
G1 X54.093 Y51.201 E.015
G1 X54.098 Y51.419 E.00589
G1 X54.053 Y51.509 E.00271
G1 X53.991 Y51.529 E.00176
G1 X52.415 Y51.529 E.04258
G1 X52.326 Y51.482 E.00271
G1 X52.267 Y51.166 E.00868
G1 X52.189 Y50.996 E.00505
G1 X52.073 Y50.831 E.00545
G1 X52.002 Y50.762 E.00268
G1 X51.75 Y50.592 E.00821
G1 X51.538 Y50.515 E.00611
G1 X51.313 Y50.479 E.00615
G1 X47.286 Y50.494 E.1088
G1 X47.152 Y50.519 E.00368
G1 X46.908 Y50.624 E.00718
G1 X46.691 Y50.803 E.0076
G1 X46.521 Y51.055 E.00821
G1 X46.443 Y51.268 E.00613
G1 X46.419 Y51.404 E.00373
G1 X46.122 Y51.106 F36000
G1 F6000
G1 X46.023 Y51.172 E.00321
G1 X45.134 Y51.172 E.02402
G1 X45.045 Y51.125 E.00271
G1 X45.03 Y51.038 E.00238
G1 X45.117 Y50.705 E.00931
G1 X45.291 Y50.322 E.01134
G1 X45.538 Y49.946 E.01217
G1 X45.799 Y49.667 E.01032
G1 X46.092 Y49.443 E.00995
G1 X46.459 Y49.249 E.01123
G1 X46.748 Y49.149 E.00825
G1 X47.137 Y49.071 E.01074
G1 X47.435 Y49.051 E.00805
G1 X51.275 Y49.051 E.10376
G1 X51.707 Y49.088 E.01173
G1 X52.092 Y49.187 E.01072
G1 X52.538 Y49.393 E.01329
G1 X52.866 Y49.613 E.01065
G1 X53.146 Y49.88 E.01047
G1 X53.388 Y50.204 E.01094
G1 X53.553 Y50.522 E.00966
G1 X53.635 Y50.747 E.00647
G1 X53.697 Y51.044 E.00819
G1 X53.668 Y51.14 E.00271
G1 X53.592 Y51.172 E.00224
G1 X52.718 Y51.172 E.0236
G1 X52.62 Y51.109 E.00315
G1 X52.476 Y50.784 E.00959
G1 X52.317 Y50.571 E.0072
G1 X52.197 Y50.464 E.00434
G1 X51.863 Y50.253 E.01067
G1 X51.585 Y50.161 E.0079
G1 X51.304 Y50.122 E.00767
G1 X47.215 Y50.144 E.1105
G1 X47.002 Y50.194 E.00591
G1 X46.773 Y50.293 E.00672
G1 X46.47 Y50.523 E.01028
G1 X46.231 Y50.846 E.01086
G1 X46.137 Y51.069 E.00655
G1 X45.881 Y50.758 F36000
G1 F6000
G1 X45.786 Y50.815 E.003
G1 X45.626 Y50.815 E.00432
G1 X45.537 Y50.768 E.00271
G1 X45.528 Y50.664 E.00283
G1 X45.609 Y50.488 E.00522
G1 X45.814 Y50.175 E.01011
G1 X46.034 Y49.939 E.0087
G1 X46.293 Y49.741 E.00882
G1 X46.594 Y49.581 E.00922
G1 X46.849 Y49.493 E.00727
G1 X47.177 Y49.427 E.00906
G1 X47.45 Y49.408 E.00738
G1 X51.255 Y49.408 E.10282
G1 X51.639 Y49.44 E.01039
G1 X51.962 Y49.522 E.00901
G1 X52.355 Y49.701 E.01167
G1 X52.634 Y49.888 E.00906
G1 X52.872 Y50.111 E.00882
G1 X53.08 Y50.388 E.00935
G1 X53.222 Y50.658 E.00826
G1 X53.221 Y50.759 E.00271
G1 X53.127 Y50.815 E.00296
G1 X52.95 Y50.815 E.00477
G1 X52.855 Y50.756 E.00303
G1 X52.757 Y50.565 E.0058
G1 X52.549 Y50.3 E.00912
G1 X52.381 Y50.157 E.00595
G1 X52.062 Y49.957 E.01016
G1 X51.706 Y49.825 E.01027
G1 X51.294 Y49.765 E.01123
G1 X47.122 Y49.8 E.11273
G1 X46.855 Y49.869 E.00748
G1 X46.549 Y50.015 E.00914
G1 X46.261 Y50.233 E.00978
G1 X46.178 Y50.317 E.00318
G1 X45.949 Y50.627 E.01043
G1 X45.899 Y50.722 E.00289
G1 E-.56 F1800
;WIPE_START
G1 F6000
G1 X45.786 Y50.815 E-.03519
G1 X45.626 Y50.815 E-.03841
G1 X45.537 Y50.768 E-.0241
G1 X45.528 Y50.664 E-.02511
G1 X45.609 Y50.488 E-.04639
G1 X45.771 Y50.242 E-.0708
;WIPE_END
G1 Z.6 F36000
G1 X65.179 Y51.479 Z.6
G1 Z.2
G1 E.8 F1800
G1 F6000
G1 X65.227 Y50.907 E.0155
G1 X65.368 Y50.358 E.01532
G1 X65.604 Y49.829 E.01565
G1 X65.966 Y49.273 E.01793
G1 X66.355 Y48.861 E.01529
G1 X66.807 Y48.519 E.01532
G1 X67.312 Y48.257 E.01538
G1 X67.679 Y48.128 E.0105
G1 X68.293 Y48.001 E.01694
G1 X68.676 Y47.98 E.01037
G1 X72.583 Y47.98 E.10554
G1 X73.155 Y48.028 E.01552
G1 X73.704 Y48.168 E.01532
G1 X74.233 Y48.405 E.01565
G1 X74.789 Y48.767 E.01793
G1 X75.201 Y49.155 E.01529
G1 X75.542 Y49.608 E.01532
G1 X75.805 Y50.113 E.01538
G1 X75.934 Y50.48 E.0105
G1 X76.061 Y51.094 E.01694
G1 X76.082 Y51.477 E.01037
G1 X76.082 Y52.264 E.02128
G1 X76.034 Y52.837 E.01553
G1 X75.893 Y53.386 E.01532
G1 X75.679 Y53.867 E.01423
G1 X75.679 Y52.522 E.03635
G1 X75.656 Y52.419 E.00283
G1 X75.571 Y52.312 E.00369
G1 X75.4 Y52.243 E.00499
G1 X72.869 Y52.243 E.0684
G1 X72.862 Y51.422 E.02218
G1 X72.846 Y51.369 E.00149
G1 X72.761 Y51.262 E.00369
G1 X72.59 Y51.193 E.00499
G1 X68.622 Y51.2 E.10721
G1 X68.569 Y51.216 E.00149
G1 X68.462 Y51.301 E.00369
G1 X68.393 Y51.472 E.00499
G1 X68.393 Y52.243 E.02084
G1 X65.186 Y52.243 E.08665
G1 X65.179 Y51.519 E.01958
G1 X65.537 Y51.515 F36000
G1 F6000
G1 X65.536 Y51.497 E.0005
G1 X65.583 Y50.958 E.01462
G1 X65.71 Y50.467 E.01369
G1 X65.923 Y49.993 E.01405
G1 X66.243 Y49.503 E.01581
G1 X66.588 Y49.135 E.01363
G1 X66.991 Y48.828 E.0137
G1 X67.448 Y48.589 E.01392
G1 X67.782 Y48.471 E.00956
G1 X68.332 Y48.358 E.01517
G1 X68.683 Y48.337 E.00952
G1 X72.572 Y48.337 E.10507
G1 X73.104 Y48.383 E.01443
G1 X73.595 Y48.511 E.01369
G1 X74.054 Y48.716 E.0136
G1 X74.559 Y49.043 E.01627
G1 X74.939 Y49.402 E.01411
G1 X75.244 Y49.807 E.0137
G1 X75.473 Y50.248 E.01344
G1 X75.587 Y50.569 E.00918
G1 X75.706 Y51.151 E.01606
G1 X75.725 Y51.828 E.01829
G1 X75.681 Y51.918 E.00271
G1 X75.593 Y51.935 E.0024
G1 X75.387 Y51.886 E.00572
G1 X73.329 Y51.886 E.05562
G1 X73.24 Y51.839 E.00271
G1 X73.222 Y51.78 E.00167
G1 X73.204 Y51.325 E.01231
G1 X73.117 Y51.137 E.0056
G1 X73.049 Y51.051 E.00297
G1 X72.882 Y50.926 E.00563
G1 X72.733 Y50.866 E.00433
G1 X72.579 Y50.836 E.00425
G1 X68.629 Y50.843 E.10673
G1 X68.524 Y50.858 E.00285
G1 X68.336 Y50.944 E.00559
G1 X68.25 Y51.013 E.00297
G1 X68.126 Y51.18 E.00563
G1 X68.066 Y51.328 E.00434
G1 X68.036 Y51.482 E.00423
G1 X68.036 Y51.779 E.00802
G1 X67.989 Y51.868 E.00271
G1 X67.929 Y51.886 E.0017
G1 X65.646 Y51.886 E.06167
G1 X65.557 Y51.839 E.00271
G1 X65.539 Y51.78 E.00167
G1 X65.537 Y51.555 E.00607
G1 X65.914 Y51.457 F36000
G1 F6000
G1 X65.902 Y51.413 E.00124
G1 X65.935 Y51.027 E.01045
G1 X66.046 Y50.595 E.01206
G1 X66.242 Y50.158 E.01295
G1 X66.52 Y49.732 E.01373
G1 X66.822 Y49.407 E.01198
G1 X67.176 Y49.136 E.01208
G1 X67.598 Y48.914 E.01286
G1 X67.885 Y48.815 E.0082
G1 X68.371 Y48.714 E.01342
G1 X68.691 Y48.694 E.00865
G1 X72.552 Y48.694 E.10433
G1 X73.034 Y48.736 E.01308
G1 X73.484 Y48.852 E.01255
G1 X73.89 Y49.035 E.01203
G1 X74.33 Y49.32 E.01415
G1 X74.665 Y49.634 E.01242
G1 X74.944 Y50.006 E.01256
G1 X75.141 Y50.385 E.01154
G1 X75.239 Y50.658 E.00783
G1 X75.35 Y51.201 E.015
G1 X75.356 Y51.419 E.00588
G1 X75.312 Y51.509 E.00271
G1 X75.249 Y51.529 E.00177
G1 X73.672 Y51.529 E.04261
G1 X73.584 Y51.482 E.00271
G1 X73.524 Y51.166 E.00868
G1 X73.446 Y50.996 E.00505
G1 X73.33 Y50.831 E.00545
G1 X73.259 Y50.762 E.00268
G1 X73.007 Y50.592 E.00821
G1 X72.795 Y50.515 E.00611
G1 X72.57 Y50.479 E.00615
G1 X68.634 Y50.486 E.10634
G1 X68.485 Y50.503 E.00406
G1 X68.193 Y50.618 E.00847
G1 X68.031 Y50.732 E.00536
G1 X67.962 Y50.803 E.00268
G1 X67.791 Y51.055 E.00821
G1 X67.714 Y51.268 E.00613
G1 X67.683 Y51.441 E.00475
G1 X67.577 Y51.529 E.00371
G1 X66.009 Y51.529 E.04238
M73 P1 R6
G1 X65.933 Y51.489 E.00232
G1 X66.316 Y51.125 F36000
G1 F6000
G1 X66.301 Y51.038 E.00238
G1 X66.388 Y50.705 E.00931
G1 X66.561 Y50.322 E.01134
G1 X66.808 Y49.946 E.01217
G1 X67.07 Y49.667 E.01032
G1 X67.362 Y49.443 E.00995
G1 X67.733 Y49.247 E.01135
G1 X67.973 Y49.162 E.00687
G1 X68.411 Y49.071 E.01209
G1 X68.705 Y49.051 E.00796
G1 X72.532 Y49.051 E.10339
G1 X72.965 Y49.088 E.01173
G1 X73.373 Y49.194 E.01141
G1 X73.725 Y49.354 E.01045
G1 X74.116 Y49.609 E.01259
G1 X74.404 Y49.881 E.01072
G1 X74.645 Y50.205 E.0109
G1 X74.81 Y50.522 E.00966
G1 X74.892 Y50.747 E.00647
G1 X74.954 Y51.044 E.00819
G1 X74.925 Y51.14 E.00271
G1 X74.849 Y51.172 E.00224
G1 X73.975 Y51.172 E.0236
G1 X73.877 Y51.109 E.00315
G1 X73.733 Y50.784 E.00959
G1 X73.574 Y50.571 E.0072
G1 X73.454 Y50.464 E.00434
G1 X73.12 Y50.253 E.01067
G1 X72.842 Y50.161 E.0079
G1 X72.562 Y50.122 E.00765
G1 X68.639 Y50.129 E.106
G1 X68.455 Y50.147 E.00498
G1 X68.073 Y50.282 E.01096
G1 X67.769 Y50.49 E.00995
G1 X67.662 Y50.609 E.00433
G1 X67.502 Y50.846 E.00773
G1 X67.392 Y51.106 E.00763
G1 X67.294 Y51.172 E.00321
G1 X66.405 Y51.172 E.02402
G1 X66.351 Y51.144 E.00163
G1 X66.807 Y50.768 F36000
G1 F6000
G1 X66.799 Y50.664 E.00283
G1 X66.879 Y50.488 E.00522
G1 X67.085 Y50.175 E.01011
G1 X67.304 Y49.939 E.0087
G1 X67.563 Y49.741 E.00882
G1 X67.87 Y49.578 E.00938
G1 X68.077 Y49.505 E.00591
G1 X68.452 Y49.427 E.01037
G1 X68.721 Y49.408 E.00727
G1 X72.512 Y49.408 E.10245
G1 X72.895 Y49.44 E.01038
G1 X73.245 Y49.53 E.00975
G1 X73.56 Y49.672 E.00934
G1 X73.886 Y49.885 E.01052
G1 X74.13 Y50.113 E.00902
G1 X74.337 Y50.388 E.0093
G1 X74.479 Y50.658 E.00826
G1 X74.478 Y50.759 E.00271
G1 X74.384 Y50.815 E.00296
G1 X74.207 Y50.815 E.00477
G1 X74.112 Y50.756 E.00303
G1 X74.015 Y50.565 E.0058
G1 X73.806 Y50.3 E.00912
G1 X73.638 Y50.157 E.00595
G1 X73.319 Y49.957 E.01016
G1 X72.963 Y49.825 E.01027
G1 X72.553 Y49.765 E.01118
G1 X68.643 Y49.772 E.10566
G1 X68.431 Y49.791 E.00576
G1 X67.96 Y49.943 E.01337
G1 X67.867 Y49.99 E.00282
G1 X67.496 Y50.259 E.01238
G1 X67.364 Y50.412 E.00546
G1 X67.147 Y50.764 E.01116
G1 X67.056 Y50.815 E.00282
G1 X66.896 Y50.815 E.00432
G1 X66.843 Y50.787 E.00163
G1 E-.56 F1800
;WIPE_START
G1 F6000
G1 X66.799 Y50.664 E-.03136
G1 X66.879 Y50.488 E-.04639
G1 X67.085 Y50.175 E-.08981
G1 X67.29 Y49.954 E-.07244
;WIPE_END
G1 Z.6 F36000
G1 X67.18 Y55.407 Z.6
G1 Z.2
G1 E.8 F1800
G1 F6000
G1 X71.811 Y55.407 E.12514
G1 X71.811 Y55.764 E.00966
G1 X68.679 Y55.764 E.08464
G1 X68.106 Y55.716 E.01553
G1 X67.557 Y55.575 E.01532
G1 X67.216 Y55.423 E.01008
G1 E-.56 F1800
;WIPE_START
G1 F6000
G1 X68.216 Y55.419 E-.24
;WIPE_END
G1 Z.6 F36000
G1 X67.216 Y61.245 Z.6
G1 Z.2
G1 E.8 F1800
G1 F6000
G1 X75.394 Y61.245 E.22094
G1 X76.08 Y61.294 E.01858
G1 X76.746 Y61.437 E.01841
G1 X77.387 Y61.674 E.01846
G1 X77.815 Y61.893 E.01301
G1 X78.39 Y62.266 E.0185
G1 X78.903 Y62.714 E.01841
G1 X79.348 Y63.23 E.01841
G1 X79.716 Y63.804 E.01841
G1 X80 Y64.426 E.01847
G1 X80.132 Y64.831 E.01151
G1 X80.274 Y65.5 E.0185
G1 X80.321 Y66.172 E.0182
G1 X80.321 Y67.329 E.03126
G1 X80.272 Y68.015 E.01858
G1 X80.128 Y68.681 E.01841
G1 X79.892 Y69.322 E.01846
G1 X79.673 Y69.751 E.01301
G1 X79.3 Y70.325 E.0185
G1 X78.852 Y70.838 E.01841
G1 X78.336 Y71.283 E.01841
G1 X77.762 Y71.651 E.01841
G1 X77.14 Y71.935 E.01849
G1 X76.788 Y72.052 E.01003
G1 X76.065 Y72.209 E.01998
G1 X75.394 Y72.256 E.01818
G1 X44.611 Y72.256 E.83174
G1 X43.925 Y72.207 E.01858
G1 X43.259 Y72.064 E.01841
G1 X42.617 Y71.827 E.01848
G1 X42.272 Y71.654 E.01042
G1 X41.614 Y71.234 E.02109
G1 X41.101 Y70.787 E.01839
G1 X40.656 Y70.271 E.01841
G1 X40.288 Y69.698 E.01841
G1 X40.004 Y69.075 E.01849
G1 X39.888 Y68.723 E.01003
G1 X39.73 Y68 E.01998
G1 X39.684 Y67.329 E.01818
G1 X39.684 Y66.172 E.03126
G1 X39.732 Y65.486 E.01858
G1 X39.876 Y64.82 E.01841
G1 X40.112 Y64.179 E.01846
G1 X40.332 Y63.751 E.01301
G1 X40.705 Y63.176 E.0185
G1 X41.153 Y62.663 E.01841
G1 X41.668 Y62.218 E.01841
G1 X42.242 Y61.85 E.01841
G1 X42.864 Y61.566 E.01847
G1 X43.269 Y61.434 E.01151
G1 X43.939 Y61.292 E.0185
G1 X44.61 Y61.245 E.0182
G1 X67.176 Y61.245 E.60971
G1 X67.176 Y61.603 F36000
G1 F6000
G1 X75.385 Y61.603 E.22178
G1 X76.037 Y61.65 E.01765
G1 X76.653 Y61.784 E.01704
G1 X77.237 Y62 E.01683
G1 X77.641 Y62.206 E.01226
G1 X78.167 Y62.548 E.01696
G1 X78.643 Y62.962 E.01704
G1 X79.065 Y63.451 E.01745
G1 X79.405 Y63.982 E.01704
G1 X79.664 Y64.55 E.01687
G1 X79.787 Y64.929 E.01076
G1 X79.918 Y65.543 E.01696
G1 X79.963 Y66.181 E.01729
G1 X79.963 Y67.313 E.03058
G1 X79.918 Y67.957 E.01745
