; HEADER_BLOCK_START
; generated by OrcaSlicer 2.3.2-beta2 on 2026-02-28 at 15:55:02
; total layer number: 44
; filament_density: 1.04
; filament_diameter: 1.75
; max_z_height: 8.80
; filament: 1
; HEADER_BLOCK_END

; THUMBNAIL_BLOCK_START

;
; THUMBNAIL_BLOCK_END

; THUMBNAIL_BLOCK_START

;
; THUMBNAIL_BLOCK_END

; external perimeters extrusion width = 0.40mm
; perimeters extrusion width = 0.40mm
; infill extrusion width = 0.40mm
; solid infill extrusion width = 0.40mm
; top infill extrusion width = 0.40mm
; first layer extrusion width = 0.40mm

; EXECUTABLE_BLOCK_START


; Pre-Processed for Cancel-Object support by preprocess_cancellation v0.2.0
; 1 known objects
EXCLUDE_OBJECT_DEFINE NAME=rasberry_pi_vertical_mount_v2_1_stl_id_87_copy_0 CENTER=59.446,61.287 POLYGON=[[25.749,26.908],[25.749,93.092],[94.251,93.092],[94.251,26.908]]
M73 P0 R17
;TYPE:Custom
PRINT_START EXTRUDER_TEMP=255 BED_TEMP=105
G90
G21
M83 ; use relative distances for extrusion
; Filament gcode
SET_PRESSURE_ADVANCE ADVANCE=0.04; Override pressure advance value
M106 S0
;LAYER_CHANGE
;Z:0.2
;HEIGHT:0.2
;BEFORE_LAYER_CHANGE
;0.2
G92 E0

G1 E-.8 F1800
;AFTER_LAYER_CHANGE
;0.2
;_SET_FAN_SPEED_CHANGING_LAYER
SET_VELOCITY_LIMIT ACCEL=10000 ACCEL_TO_DECEL=10000
SET_VELOCITY_LIMIT SQUARE_CORNER_VELOCITY=9
; printing object rasberry-pi-vertical-mount-v2(1).stl id:87 copy 0
EXCLUDE_OBJECT_START NAME=rasberry_pi_vertical_mount_v2_1_stl_id_87_copy_0
G1 Z.6 F36000
G1 X77.981 Y37.59
G1 Z.6
G1 Z.2
G1 E.8 F1800
;TYPE:Inner wall
;WIDTH:0.4
G1 F6000
G1 X78.09 Y37.588 E.00295
G1 X78.812 Y37.716 E.0198
G1 X79.485 Y37.985 E.01959
G1 X80.089 Y38.382 E.01954
G1 X80.602 Y38.892 E.01954
G1 X81.003 Y39.493 E.01954
G1 X81.277 Y40.163 E.01954
G1 X81.411 Y40.873 E.01954
G1 X81.402 Y41.535 E.01788
G1 X81.068 Y44.863 E.09036
G2 X81.402 Y67.867 I117.171 J9.807 E.62262
G1 X81.411 Y68.529 E.01788
G1 X81.277 Y69.239 E.01954
G1 X81.003 Y69.909 E.01954
G1 X80.602 Y70.51 E.01954
G1 X80.089 Y71.02 E.01954
G1 X79.485 Y71.417 E.01954
G1 X78.814 Y71.686 E.01954
G1 X78.102 Y71.815 E.01954
G1 X77.433 Y71.801 E.01809
G2 X70.433 Y71.003 I-29.878 J231.017 E.19037
G1 X66.961 Y70.74 E.09407
G1 X63.483 Y70.582 E.09407
G1 X60.002 Y70.53 E.09407
G1 X56.521 Y70.582 E.09407
G1 X53.043 Y70.74 E.09407
G1 X49.571 Y71.003 E.09407
G2 X42.571 Y71.801 I22.877 J231.812 E.19037
G1 X41.901 Y71.815 E.01809
G1 X41.19 Y71.686 E.01954
G1 X40.519 Y71.417 E.01954
G1 X39.915 Y71.02 E.01954
G1 X39.402 Y70.51 E.01954
G1 X39 Y69.909 E.01954
G1 X38.732 Y69.251 E.01921
G1 X38.593 Y68.531 E.0198
G1 X38.602 Y67.867 E.01794
G1 X38.935 Y64.54 E.09036
G2 X38.602 Y41.535 I-117.171 J-9.807 E.62262
G1 X38.593 Y40.873 E.01788
G1 X38.727 Y40.163 E.01954
G1 X39 Y39.493 E.01954
G1 X39.402 Y38.892 E.01954
G1 X39.915 Y38.382 E.01954
G1 X40.519 Y37.985 E.01954
G1 X41.19 Y37.717 E.01954
G1 X41.546 Y37.652 E.00977
G1 X41.901 Y37.587 E.00977
G1 X42.571 Y37.601 E.01809
G2 X49.571 Y38.399 I29.88 J-231.039 E.19037
G1 X53.043 Y38.662 E.09407
G1 X56.521 Y38.82 E.09407
G1 X60.002 Y38.873 E.09407
G1 X63.483 Y38.82 E.09407
G1 X66.961 Y38.662 E.09407
G1 X70.433 Y38.399 E.09407
G2 X77.433 Y37.601 I-22.88 J-231.838 E.19037
G1 X77.941 Y37.591 E.01373
G1 X77.988 Y37.947 F36000
G1 F6000
G1 X78.062 Y37.945 E.002
G1 X78.713 Y38.061 E.01786
G1 X79.319 Y38.304 E.01763
G1 X79.863 Y38.661 E.01759
G1 X80.325 Y39.12 E.01759
G1 X80.686 Y39.662 E.01759
G1 X80.932 Y40.265 E.01759
G1 X81.053 Y40.904 E.01759
G1 X81.045 Y41.515 E.01649
G2 X80.337 Y57.994 I119.625 J13.393 E.44602
G2 X81.045 Y67.888 I130.093 J-4.336 E.26805
G1 X81.053 Y68.498 E.01649
G1 X80.932 Y69.138 E.01759
G1 X80.686 Y69.741 E.01759
G1 X80.325 Y70.282 E.01759
G1 X79.863 Y70.741 E.01759
G1 X79.319 Y71.099 E.01759
G1 X78.714 Y71.341 E.01759
G1 X78.074 Y71.457 E.01759
G1 X77.458 Y71.445 E.01663
G2 X70.465 Y70.648 I-29.842 J230.788 E.19018
G1 X66.983 Y70.384 E.09436
G1 X63.494 Y70.225 E.09436
G1 X60.002 Y70.173 E.09436
G1 X56.51 Y70.225 E.09436
G1 X53.021 Y70.384 E.09436
G1 X49.539 Y70.648 E.09436
G2 X42.545 Y71.445 I22.849 J231.582 E.19018
G1 X41.93 Y71.457 E.01663
G1 X41.289 Y71.341 E.01759
G1 X40.685 Y71.099 E.01759
G1 X40.141 Y70.741 E.01759
G1 X39.679 Y70.282 E.01759
G1 X39.317 Y69.741 E.01759
G1 X39.076 Y69.148 E.01729
G1 X38.95 Y68.499 E.01786
G1 X38.959 Y67.888 E.01653
G2 X39.667 Y51.408 I-119.625 J-13.393 E.44602
G2 X38.959 Y41.515 I-130.096 J4.336 E.26805
G1 X38.95 Y40.904 E.01649
G1 X39.071 Y40.265 E.01759
G1 X39.317 Y39.662 E.01759
G1 X39.679 Y39.12 E.01759
G1 X40.141 Y38.661 E.01759
G1 X40.685 Y38.304 E.01759
G1 X41.289 Y38.062 E.01759
G1 X41.61 Y38.003 E.0088
G1 X41.93 Y37.945 E.0088
G1 X42.545 Y37.958 E.01663
G2 X49.539 Y38.755 I29.845 J-230.809 E.19018
G1 X53.021 Y39.019 E.09436
G1 X56.51 Y39.177 E.09436
G1 X60.002 Y39.23 E.09436
G1 X63.494 Y39.177 E.09436
G1 X66.983 Y39.019 E.09436
G1 X70.465 Y38.755 E.09436
G2 X77.458 Y37.958 I-22.852 J-231.608 E.19018
G1 X77.948 Y37.948 E.01324
G1 X77.996 Y38.304 F36000
;TYPE:Outer wall
G1 F6000
G1 X78.034 Y38.303 E.00105
G1 X78.614 Y38.406 E.01592
G1 X79.153 Y38.622 E.01567
G1 X79.637 Y38.94 E.01565
G1 X80.048 Y39.348 E.01565
G1 X80.369 Y39.83 E.01565
G1 X80.588 Y40.366 E.01565
G1 X80.696 Y40.935 E.01565
G1 X80.688 Y41.494 E.01511
G2 X80.688 Y67.908 I115.173 J13.207 E.71522
G1 X80.696 Y68.467 E.01511
G1 X80.588 Y69.036 E.01565
G1 X80.369 Y69.572 E.01565
G1 X80.048 Y70.054 E.01565
G1 X79.637 Y70.462 E.01565
G1 X79.153 Y70.781 E.01565
G1 X78.615 Y70.996 E.01565
G1 X78.045 Y71.099 E.01565
G1 X77.484 Y71.088 E.01517
G2 X70.497 Y70.292 I-29.807 J230.557 E.18999
G1 X67.004 Y70.027 E.09465
G1 X63.505 Y69.868 E.09465
G1 X60.002 Y69.815 E.09465
G1 X56.499 Y69.868 E.09465
G1 X52.999 Y70.027 E.09465
G1 X49.506 Y70.292 E.09465
G2 X42.52 Y71.088 I22.82 J231.35 E.18999
G1 X41.959 Y71.099 E.01517
G1 X41.389 Y70.996 E.01565
G1 X40.851 Y70.781 E.01565
G1 X40.367 Y70.462 E.01565
G1 X39.956 Y70.054 E.01565
G1 X39.634 Y69.572 E.01565
G1 X39.419 Y69.046 E.01536
G1 X39.308 Y68.468 E.01592
G1 X39.316 Y67.908 E.01512
G2 X39.316 Y41.494 I-115.174 J-13.207 E.71522
G1 X39.308 Y40.935 E.01511
G1 X39.415 Y40.366 E.01565
G1 X39.634 Y39.83 E.01565
G1 X39.956 Y39.348 E.01565
G1 X40.367 Y38.94 E.01565
G1 X40.851 Y38.622 E.01565
G1 X41.389 Y38.406 E.01565
G1 X41.674 Y38.355 E.00783
G1 X41.959 Y38.303 E.00783
G1 X42.52 Y38.314 E.01517
G2 X49.506 Y39.11 I29.809 J-230.58 E.18999
G1 X52.999 Y39.375 E.09465
G1 X56.499 Y39.534 E.09465
G1 X60.002 Y39.587 E.09465
G1 X63.505 Y39.534 E.09465
G1 X67.004 Y39.375 E.09465
G1 X70.497 Y39.11 E.09465
G2 X77.484 Y38.314 I-22.823 J-231.377 E.18999
G1 X77.956 Y38.305 E.01276
G1 E-.56 F1800
;WIPE_START
G1 F6000
G1 X78.034 Y38.303 E-.01891
G1 X78.614 Y38.406 E-.14138
G1 X78.923 Y38.53 E-.07971
;WIPE_END
G1 Z.6 F36000
G1 X30.926 Y84.238 Z.6
G1 Z.2
G1 E.8 F1800
;TYPE:Inner wall
G1 F6000
G1 X31.586 Y84.274 E.01786
G1 X32.338 Y84.483 E.02109
G1 X33.028 Y84.849 E.02109
G1 X33.623 Y85.354 E.02109
G1 X34.095 Y85.976 E.02109
G1 X34.423 Y86.684 E.02109
G1 X34.591 Y87.447 E.02109
G1 X34.591 Y88.227 E.02109
G1 X34.423 Y88.99 E.02109
G1 X34.095 Y89.699 E.02109
G1 X33.623 Y90.32 E.02109
G1 X33.028 Y90.825 E.02109
G1 X32.46 Y91.127 E.01738
G1 X32.338 Y91.191 E.00371
G1 X31.586 Y91.4 E.02109
G1 X30.806 Y91.442 E.02109
G1 X30.036 Y91.316 E.02109
G1 X29.311 Y91.027 E.02109
G1 X28.664 Y90.589 E.02109
G1 X28.128 Y90.022 E.02109
G1 X27.725 Y89.353 E.02109
G1 X27.476 Y88.613 E.02109
G1 X27.391 Y87.837 E.02109
G1 X27.476 Y87.061 E.02109
G1 X27.725 Y86.321 E.02109
G1 X28.128 Y85.652 E.02109
G1 X28.664 Y85.085 E.02109
G1 X29.311 Y84.647 E.02109
G1 X30.036 Y84.358 E.02109
G1 X30.671 Y84.254 E.01738
G1 X30.806 Y84.232 E.00371
G1 X30.886 Y84.236 E.00215
G1 X30.907 Y84.595 F36000
G1 F6000
G1 X31.528 Y84.629 E.01681
G1 X32.205 Y84.817 E.019
G1 X32.826 Y85.146 E.019
G1 X33.362 Y85.601 E.019
G1 X33.788 Y86.161 E.019
G1 X34.083 Y86.799 E.019
G1 X34.234 Y87.486 E.019
G1 X34.234 Y88.189 E.019
G1 X34.083 Y88.875 E.019
G1 X33.788 Y89.513 E.019
G1 X33.362 Y90.073 E.019
G1 X32.826 Y90.528 E.019
G1 X32.292 Y90.811 E.01633
G1 X32.205 Y90.857 E.00266
G1 X31.528 Y91.046 E.019
G1 X30.826 Y91.084 E.019
G1 X30.132 Y90.97 E.019
G1 X29.479 Y90.71 E.019
G1 X28.897 Y90.315 E.019
G1 X28.414 Y89.805 E.019
G1 X28.051 Y89.202 E.019
G1 X27.827 Y88.536 E.019
G1 X27.751 Y87.837 E.019
G1 X27.827 Y87.138 E.019
G1 X28.051 Y86.472 E.019
G1 X28.414 Y85.87 E.019
G1 X28.897 Y85.359 E.019
G1 X29.479 Y84.965 E.019
G1 X30.132 Y84.704 E.019
G1 X30.729 Y84.607 E.01633
G1 X30.826 Y84.591 E.00266
G1 X30.867 Y84.593 E.0011
G1 X30.882 Y84.962 F36000
;TYPE:Outer wall
G1 F6000
G1 X31.47 Y84.983 E.01588
G1 X32.072 Y85.15 E.0169
G1 X32.625 Y85.443 E.0169
G1 X33.101 Y85.848 E.0169
G1 X33.48 Y86.346 E.0169
G1 X33.742 Y86.914 E.0169
G1 X33.877 Y87.524 E.0169
G1 X33.877 Y88.15 E.0169
G1 X33.742 Y88.761 E.0169
G1 X33.48 Y89.328 E.0169
G1 X33.101 Y89.826 E.0169
G1 X32.625 Y90.231 E.0169
G1 X32.125 Y90.496 E.01528
G1 X31.47 Y90.691 E.01848
G1 X30.845 Y90.725 E.0169
G1 X30.228 Y90.624 E.0169
G1 X29.647 Y90.392 E.0169
G1 X29.13 Y90.041 E.0169
G1 X28.699 Y89.587 E.0169
G1 X28.377 Y89.051 E.0169
G1 X28.177 Y88.459 E.0169
G1 X28.11 Y87.837 E.0169
G1 X28.177 Y87.215 E.0169
G1 X28.377 Y86.623 E.0169
G1 X28.699 Y86.087 E.0169
G1 X29.13 Y85.633 E.0169
G1 X29.647 Y85.282 E.0169
G1 X30.228 Y85.05 E.0169
G1 X30.786 Y84.959 E.01528
G1 X30.842 Y84.961 E.00151
G1 E-.56 F1800
;WIPE_START
G1 F6000
G1 X31.47 Y84.983 E-.15068
G1 X31.828 Y85.083 E-.08932
;WIPE_END
G1 Z.6 F36000
G1 X88.968 Y84.241 Z.6
G1 Z.2
G1 E.8 F1800
;TYPE:Inner wall
G1 F6000
G1 X89.586 Y84.274 E.01672
G1 X90.338 Y84.483 E.02109
G1 X91.028 Y84.849 E.02109
G1 X91.623 Y85.354 E.02109
G1 X92.095 Y85.976 E.02109
G1 X92.423 Y86.684 E.02109
G1 X92.591 Y87.447 E.02109
G1 X92.591 Y88.227 E.02109
G1 X92.423 Y88.99 E.02109
G1 X92.095 Y89.699 E.02109
G1 X91.623 Y90.32 E.02109
G1 X91.028 Y90.825 E.02109
G1 X90.338 Y91.191 E.02109
G1 X89.586 Y91.4 E.02109
G1 X88.806 Y91.442 E.02109
G1 X88.036 Y91.316 E.02109
G1 X87.311 Y91.027 E.02109
G1 X86.664 Y90.589 E.02109
G1 X86.128 Y90.022 E.02109
G1 X85.725 Y89.353 E.02109
G1 X85.476 Y88.613 E.02109
G1 X85.391 Y87.837 E.02109
G1 X85.476 Y87.061 E.02109
G1 X85.725 Y86.321 E.02109
G1 X86.128 Y85.652 E.02109
G1 X86.664 Y85.085 E.02109
G1 X87.311 Y84.647 E.02109
G1 X88.036 Y84.358 E.02109
G1 X88.671 Y84.254 E.01738
G1 X88.806 Y84.232 E.00371
G1 X88.928 Y84.239 E.00329
G1 X88.949 Y84.597 F36000
G1 F6000
G1 X89.528 Y84.629 E.01567
G1 X90.205 Y84.817 E.019
G1 X90.826 Y85.146 E.019
G1 X91.362 Y85.601 E.019
G1 X91.788 Y86.161 E.019
G1 X92.083 Y86.799 E.019
G1 X92.234 Y87.486 E.019
G1 X92.234 Y88.189 E.019
G1 X92.083 Y88.875 E.019
G1 X91.788 Y89.513 E.019
G1 X91.362 Y90.073 E.019
G1 X90.826 Y90.528 E.019
G1 X90.205 Y90.857 E.019
G1 X89.528 Y91.046 E.019
G1 X88.826 Y91.084 E.019
G1 X88.132 Y90.97 E.019
G1 X87.479 Y90.71 E.019
G1 X86.897 Y90.315 E.019
G1 X86.414 Y89.805 E.019
G1 X86.051 Y89.202 E.019
G1 X85.827 Y88.536 E.019
G1 X85.751 Y87.837 E.019
G1 X85.827 Y87.138 E.019
G1 X86.051 Y86.472 E.019
G1 X86.414 Y85.87 E.019
G1 X86.897 Y85.359 E.019
G1 X87.479 Y84.965 E.019
G1 X88.132 Y84.704 E.019
G1 X88.729 Y84.607 E.01633
G1 X88.826 Y84.591 E.00266
G1 X88.909 Y84.595 E.00224
G1 X88.924 Y84.964 F36000
;TYPE:Outer wall
G1 F6000
G1 X89.47 Y84.983 E.01475
G1 X90.072 Y85.15 E.0169
G1 X90.625 Y85.443 E.0169
G1 X91.101 Y85.848 E.0169
G1 X91.48 Y86.346 E.0169
G1 X91.742 Y86.914 E.0169
G1 X91.877 Y87.524 E.0169
G1 X91.877 Y88.15 E.0169
G1 X91.742 Y88.761 E.0169
G1 X91.48 Y89.328 E.0169
G1 X91.101 Y89.826 E.0169
G1 X90.625 Y90.231 E.0169
G1 X90.072 Y90.524 E.0169
G1 X89.47 Y90.691 E.0169
G1 X88.845 Y90.725 E.0169
G1 X88.287 Y90.633 E.01528
G1 X87.647 Y90.392 E.01848
G1 X87.13 Y90.041 E.0169
G1 X86.699 Y89.587 E.0169
G1 X86.377 Y89.051 E.0169
G1 X86.177 Y88.459 E.0169
G1 X86.11 Y87.837 E.0169
G1 X86.177 Y87.215 E.0169
G1 X86.377 Y86.623 E.0169
G1 X86.699 Y86.087 E.0169
G1 X87.13 Y85.633 E.0169
G1 X87.647 Y85.282 E.0169
G1 X88.228 Y85.05 E.0169
G1 X88.786 Y84.959 E.01528
G1 X88.884 Y84.962 E.00265
G1 E-.56 F1800
;WIPE_START
G1 F6000
G1 X89.47 Y84.983 E-.14059
G1 X89.869 Y85.094 E-.09941
;WIPE_END
G1 Z.6 F36000
G1 X93.301 Y88.698 Z.6
G1 Z.2
G1 E.8 F1800
;TYPE:Inner wall
G1 F6000
G3 X88.138 Y92.145 I-4.322 J-.883 E.18608
G2 X81.472 Y90.926 I-45.178 J228.166 E.1831
G1 X77.593 Y90.357 E.10592
G1 X73.699 Y89.901 E.10592
G1 X69.794 Y89.559 E.10592
G1 X65.881 Y89.331 E.10592
G1 X61.962 Y89.217 E.10592
G1 X58.042 Y89.217 E.10592
G1 X54.123 Y89.332 E.10592
G1 X50.21 Y89.56 E.10592
G1 X46.304 Y89.903 E.10592
G1 X42.411 Y90.359 E.10592
G1 X38.532 Y90.928 E.10592
G2 X31.867 Y92.148 I38.535 J229.35 E.18309
G1 X31.21 Y92.226 E.01788
G3 X26.728 Y86.802 I-.185 J-4.411 E.21999
G1 X28.606 Y78.75 E.2234
G1 X29.878 Y69.94 E.24051
G1 X30.308 Y66.576 E.09163
M73 P0 R16
G1 X30.633 Y63.192 E.09186
G1 X30.849 Y59.799 E.09186
G1 X30.958 Y56.401 E.09187
G1 X30.955 Y52.935 E.09364
G1 X30.849 Y49.603 E.09006
G1 X30.633 Y46.211 E.09186
G1 X30.308 Y42.826 E.09186
G1 X29.878 Y39.463 E.09163
G1 X28.598 Y30.597 E.24201
G3 X28.769 Y29.238 I2.758 J-.343 E.03739
G3 X31.344 Y27.789 I2.267 J1.016 E.08551
G1 X47.129 Y29.708 E.42962
G1 X50.331 Y30.048 E.087
G1 X53.549 Y30.292 E.08722
G1 X56.774 Y30.439 E.08722
G1 X60.002 Y30.487 E.08722
G1 X63.229 Y30.439 E.08722
G1 X66.454 Y30.292 E.08722
G1 X69.673 Y30.048 E.08722
G1 X72.875 Y29.708 E.087
G1 X88.659 Y27.789 E.42962
G1 X89.154 Y27.775 E.01337
M73 P1 R16
G1 X89.374 Y27.809 E.00602
G1 X89.594 Y27.843 E.00602
G3 X91.431 Y30.104 I-.633 J2.391 E.08416
G1 X91.406 Y30.597 E.01335
G1 X90.126 Y39.463 E.24201
G1 X89.695 Y42.826 E.09163
G1 X89.371 Y46.211 E.09186
G1 X89.154 Y49.603 E.09186
G1 X89.046 Y53.001 E.09185
G1 X89.046 Y56.401 E.09186
G1 X89.154 Y59.799 E.09185
G1 X89.371 Y63.192 E.09186
G1 X89.695 Y66.576 E.09186
G1 X90.126 Y69.94 E.09163
G1 X91.398 Y78.75 E.24052
G1 X93.272 Y86.805 E.22343
G1 X93.376 Y87.457 E.01786
G3 X93.309 Y88.658 I-4.396 J.358 E.0326
G1 X93.652 Y88.768 F36000
G1 F6000
G3 X88.083 Y92.498 I-4.673 J-.954 E.20081
G2 X81.415 Y91.278 I-45.196 J228.238 E.18317
G1 X77.547 Y90.711 E.10564
G1 X73.663 Y90.256 E.10564
G1 X69.768 Y89.915 E.10564
G1 X65.865 Y89.688 E.10564
G1 X61.957 Y89.574 E.10564
G1 X58.047 Y89.574 E.10564
G1 X54.139 Y89.689 E.10564
G1 X50.236 Y89.917 E.10564
G1 X46.341 Y90.258 E.10564
G1 X42.458 Y90.713 E.10564
G1 X38.589 Y91.281 E.10564
G2 X31.922 Y92.501 I38.552 J229.424 E.18315
G1 X31.227 Y92.584 E.01891
G3 X26.378 Y86.733 I-.201 J-4.768 E.23748
G1 X28.255 Y78.684 E.22333
G1 X29.524 Y69.891 E.24002
G1 X29.954 Y66.536 E.0914
G1 X30.277 Y63.163 E.09155
G1 X30.493 Y59.782 E.09155
G1 X30.601 Y56.395 E.09155
G1 X30.598 Y52.941 E.09334
G1 X30.493 Y49.62 E.08975
G1 X30.277 Y46.239 E.09155
G1 X29.954 Y42.866 E.09155
G1 X29.524 Y39.511 E.0914
G1 X28.242 Y30.632 E.24238
G1 X28.214 Y30.09 E.01468
G3 X31.371 Y27.433 I2.816 J.142 E.12507
G1 X47.169 Y29.353 E.42999
G1 X50.363 Y29.693 E.08678
G1 X53.571 Y29.936 E.08692
G1 X56.785 Y30.082 E.08693
G1 X60.002 Y30.13 E.08692
G1 X63.219 Y30.082 E.08692
G1 X66.433 Y29.936 E.08693
G1 X69.64 Y29.693 E.08692
G1 X72.834 Y29.353 E.08678
G1 X88.633 Y27.433 E.42999
G1 X89.176 Y27.417 E.0147
G1 X89.429 Y27.456 E.00691
G1 X89.681 Y27.495 E.00691
G3 X91.79 Y30.09 I-.726 J2.744 E.09658
G1 X91.761 Y30.632 E.01468
G1 X90.48 Y39.511 E.24238
G1 X90.05 Y42.866 E.0914
G1 X89.727 Y46.239 E.09155
G1 X89.511 Y49.62 E.09155
G1 X89.403 Y53.007 E.09155
G1 X89.403 Y56.395 E.09155
G1 X89.511 Y59.782 E.09155
G1 X89.727 Y63.163 E.09155
G1 X90.05 Y66.536 E.09155
G1 X90.48 Y69.891 E.0914
G1 X91.749 Y78.684 E.24003
G1 X93.623 Y86.736 E.22337
G1 X93.733 Y87.426 E.01889
G3 X93.66 Y88.729 I-4.753 J.387 E.03535
G1 X94.009 Y88.839 F36000
;TYPE:Outer wall
G1 F6000
G1 X93.817 Y89.538 E.01958
G1 X93.527 Y90.203 E.01958
G1 X93.147 Y90.82 E.01958
G1 X92.683 Y91.376 E.01958
G1 X92.145 Y91.862 E.01958
G1 X91.543 Y92.266 E.01958
G1 X90.891 Y92.582 E.01958
G1 X90.2 Y92.801 E.01958
G1 X89.485 Y92.921 E.01958
G1 X88.761 Y92.938 E.01958
G1 X88.028 Y92.851 E.01992
G2 X81.358 Y91.631 I-45.215 J228.307 E.18323
