; HEADER_BLOCK_START
; generated by OrcaSlicer 2.3.1 on 2026-02-10 at 22:47:15
; total layer number: 160
; filament_density: 1.04
; filament_diameter: 1.75
; max_z_height: 32.00
; HEADER_BLOCK_END

; THUMBNAIL_BLOCK_START

;
; THUMBNAIL_BLOCK_END

; THUMBNAIL_BLOCK_START

;
; THUMBNAIL_BLOCK_END

; external perimeters extrusion width = 0.40mm
; perimeters extrusion width = 0.40mm
; infill extrusion width = 0.40mm
; solid infill extrusion width = 0.40mm
; top infill extrusion width = 0.40mm
; first layer extrusion width = 0.40mm

; external perimeters extrusion width = 0.40mm
; perimeters extrusion width = 0.40mm
; infill extrusion width = 0.40mm
; solid infill extrusion width = 0.40mm
; top infill extrusion width = 0.40mm
; first layer extrusion width = 0.40mm

; external perimeters extrusion width = 0.40mm
; perimeters extrusion width = 0.40mm
; infill extrusion width = 0.40mm
; solid infill extrusion width = 0.40mm
; top infill extrusion width = 0.40mm
; first layer extrusion width = 0.40mm

; EXECUTABLE_BLOCK_START


; Pre-Processed for Cancel-Object support by preprocess_cancellation v0.2.0
; 3 known objects
EXCLUDE_OBJECT_DEFINE NAME=Wiper_arm_stl_id_0_copy_0 CENTER=74.906,62.691 POLYGON=[[69.983,41.463],[69.983,79.882],[85.583,79.882],[85.583,41.463]]
EXCLUDE_OBJECT_DEFINE NAME=Servo_mount_stl_id_25886734327742468_copy_0 CENTER=57.489,50.297 POLYGON=[[50.256,26.788],[50.256,87.388],[64.856,87.388],[64.856,26.788]]
EXCLUDE_OBJECT_DEFINE NAME=Servo_Case_stl_id_2079024791712_copy_0 CENTER=39.812,60.974 POLYGON=[[32.41,41.646],[32.41,74.046],[47.06,74.046],[47.06,41.646]]
M73 P0 R21
;TYPE:Custom
PRINT_START EXTRUDER_TEMP=255 BED_TEMP=105
G90
G21
M83 ; use relative distances for extrusion
; Filament gcode
SET_PRESSURE_ADVANCE ADVANCE=0.04; Override pressure advance value
M106 S0
;LAYER_CHANGE
;Z:0.2
;HEIGHT:0.2
;BEFORE_LAYER_CHANGE
;0.2
G92 E0

G1 E-.8 F1800
;AFTER_LAYER_CHANGE
;0.2
;_SET_FAN_SPEED_CHANGING_LAYER
SET_VELOCITY_LIMIT ACCEL=10000 ACCEL_TO_DECEL=10000
SET_VELOCITY_LIMIT SQUARE_CORNER_VELOCITY=9
; printing object Wiper arm.stl id:0 copy 0
EXCLUDE_OBJECT_START NAME=Wiper_arm_stl_id_0_copy_0
G1 Z.6 F36000
G1 X71.204 Y76.054
G1 Z.6
G1 Z.2
G1 E.8 F1800
;TYPE:Inner wall
;WIDTH:0.4
G1 F6000
G1 X71.204 Y74.603 E.0392
G1 X72.361 Y74.603 E.03128
G1 X72.361 Y78.661 E.10963
G1 X71.204 Y78.661 E.03128
G1 X71.204 Y76.094 E.06935
G1 X70.847 Y75.595 F36000
G1 F6000
G1 X70.847 Y74.246 E.03645
G1 X72.718 Y74.246 E.05057
G1 X72.718 Y79.018 E.12893
G1 X70.847 Y79.018 E.05057
G1 X70.847 Y75.635 E.09139
G1 E-.56 F1800
;WIPE_START
G1 F6000
G1 X70.847 Y74.635 E-.24
;WIPE_END
G1 Z.6 F36000
G1 X81.109 Y52.563 Z.6
G1 Z.2
G1 E.8 F1800
G1 F6000
G1 X76.49 Y52.556 E.12482
G1 X76.49 Y42.555 E.2702
G1 X73.075 Y42.555 E.09225
G1 X73.075 Y79.375 E.99482
G1 X70.49 Y79.375 E.06987
G1 X70.49 Y73.889 E.14822
G1 X72.49 Y73.889 E.05404
G1 X72.49 Y41.97 E.86243
G1 X77.075 Y41.97 E.12391
G1 X77.075 Y51.97 E.27019
G1 X80.49 Y51.97 E.09225
G1 X80.49 Y41.969 E.27022
G2 X81.109 Y41.963 I.1 J-21.868 E.01674
G1 X81.085 Y42.75 E.02127
G2 X81.075 Y44.262 I52.804 J1.092 E.04087
G1 X81.077 Y51.267 E.18926
G2 X81.108 Y52.523 I43.751 J-.44 E.03394
G1 X81.467 Y52.584 F36000
;TYPE:Outer wall
G1 F6000
G1 X84.836 Y52.59 E.09102
G1 X84.836 Y52.935 E.00934
G1 X84.684 Y52.941 E.0041
G3 X80.731 Y52.914 I-1.029 J-138.417 E.1068
G1 X76.133 Y52.913 E.12426
G1 X76.133 Y42.913 E.27019
G1 X73.433 Y42.913 E.07295
G1 X73.433 Y79.732 E.99482
G1 X70.133 Y79.732 E.08916
G1 X70.133 Y73.532 E.16752
G1 X72.133 Y73.532 E.05404
G1 X72.133 Y41.613 E.86243
G1 X77.433 Y41.613 E.1432
G1 X77.433 Y51.613 E.27019
G1 X80.133 Y51.613 E.07295
G1 X80.133 Y41.612 E.2702
G3 X84.838 Y41.59 I3.265 J192.109 E.12714
G2 X84.838 Y41.935 I6.659 J.173 E.00934
G1 X81.467 Y41.941 E.09107
G2 X81.433 Y44.262 I50.942 J1.92 E.06273
G1 X81.434 Y51.264 E.18918
G2 X81.466 Y52.544 I44.567 J-.455 E.03459
G1 X80.793 Y52.148 F36000
;TYPE:Gap infill
;WIDTH:0.309654
G1 F6000
G1 X80.779 Y52.237 E.00182
G1 X80.736 Y52.253 E.00093
;WIDTH:0.272055
G1 X76.897 Y52.263 E.06656
G1 X76.802 Y52.243 E.00168
G1 X76.783 Y52.148 E.00168
G1 X76.783 Y42.377 E.16941
G1 X76.763 Y42.282 E.00168
G1 X76.668 Y42.263 E.00168
G1 X72.897 Y42.263 E.06539
G1 X72.802 Y42.282 E.00168
G1 X72.783 Y42.377 E.00168
G1 X72.783 Y74.067 E.54945
G1 X72.254 Y74.886 F36000
;TYPE:Bottom surface
;WIDTH:0.430818
G1 F12600
G1 X71.472 Y74.886 E.02297
G1 X71.472 Y75.274 E.01139
G1 X72.093 Y75.274 E.01825
G1 X72.093 Y75.662 E.01139
G1 X71.472 Y75.662 E.01825
G1 X71.472 Y76.05 E.01139
G1 X72.093 Y76.05 E.01825
G1 X72.093 Y76.438 E.01139
G1 X71.472 Y76.438 E.01825
G1 X71.472 Y76.826 E.01139
G1 X72.093 Y76.826 E.01825
G1 X72.093 Y77.214 E.01139
G1 X71.472 Y77.214 E.01825
G1 X71.472 Y77.602 E.01139
G1 X72.093 Y77.602 E.01825
G1 X72.093 Y77.99 E.01139
G1 X71.472 Y77.99 E.01825
G1 X71.472 Y78.377 E.01139
G1 X72.254 Y78.377 E.02297
G1 E-.65714 F1800
;WIPE_START
G1 F12600
G1 X71.472 Y78.377 E-.1118
G1 X71.472 Y78.16 E-.03106
;WIPE_END
G1 Z.6 F36000
G1 X80.793 Y52.148 Z.6
G1 Z.2
G1 E.8 F1800
;TYPE:Gap infill
;WIDTH:0.274443
G1 F6000
G1 X80.783 Y44.262 E.13815
G1 X80.797 Y42.145 E.03708
; stop printing object Wiper arm.stl id:0 copy 0
EXCLUDE_OBJECT_END NAME=Wiper_arm_stl_id_0_copy_0
; printing object Servo_mount.stl id:25886734327742468 copy 0
EXCLUDE_OBJECT_START NAME=Servo_mount_stl_id_25886734327742468_copy_0
G1 E-.56 F1800
;WIPE_START
G1 F6000
G1 X80.79 Y43.145 E-.24
;WIPE_END
G1 Z.6 F36000
G1 X63.139 Y72.62 Z.6
G1 Z.2
G1 E.8 F1800
;TYPE:Inner wall
;WIDTH:0.4
G1 F6000
G1 X63.106 Y72.979 E.00976
G1 X63.093 Y73.519 E.0146
G1 X63.092 Y85.049 E.31151
G1 X62.845 Y85.297 E.00946
G1 X62.845 Y73.524 E.31809
G1 X52.019 Y73.524 E.29252
G2 X51.972 Y72.62 I-6.729 J-.111 E.02449
G2 X53.306 Y72.652 I1.034 J-14.949 E.03604
G1 X62.313 Y72.652 E.24337
G2 X63.1 Y72.624 I.177 J-6.086 E.02129
G1 X63.559 Y72.206 F36000
G1 F6000
G1 X63.513 Y72.458 E.00693
G2 X63.451 Y73.524 I7.868 J.994 E.02885
G1 X63.449 Y85.196 E.31538
G2 X62.457 Y86.213 I24.111 J24.493 E.03839
G2 X62.488 Y85.09 I-15.878 J-.992 E.03036
G1 X62.488 Y73.881 E.30286
G1 X51.661 Y73.881 E.29253
G2 X51.553 Y72.206 I-10.275 J-.177 E.04541
G2 X52.801 Y72.295 I1.12 J-6.918 E.03386
G1 X62.31 Y72.295 E.25692
G2 X63.519 Y72.212 I.129 J-7.008 E.03278
G1 X63.956 Y71.762 F36000
;TYPE:Outer wall
G1 F6000
G1 X63.956 Y72.018 E.0069
G2 X63.808 Y73.528 I7.228 J1.472 E.04108
G1 X63.806 Y85.344 E.31925
G2 X62.537 Y86.67 I17.127 J17.657 E.0496
G2 X62.103 Y87.062 I5.456 J6.46 E.01581
G1 X62.054 Y86.588 E.01288
G2 X62.131 Y85.089 I-11.828 J-1.354 E.04059
G1 X62.131 Y74.238 E.29318
G1 X51.981 Y74.238 E.27424
G1 X51.982 Y84.41 E.27483
G2 X52.131 Y85.901 I6.424 J.11 E.04057
G3 X52.129 Y86.377 I-2.274 J.23 E.01289
G3 X51.799 Y86.048 I1.39 J-1.727 E.01263
G2 X51.297 Y85.369 I-3.518 J2.073 E.02284
G2 X51.306 Y84.492 I-24.695 J-.68 E.0237
G1 X51.304 Y73.528 E.29624
G2 X51.156 Y72.018 I-7.377 J-.038 E.04108
G1 X51.156 Y71.762 E.0069
G2 X52.804 Y71.938 I1.515 J-6.402 E.04491
G1 X62.307 Y71.938 E.25677
G2 X63.917 Y71.771 I.133 J-6.578 E.04383
G1 E-.56 F1800
;WIPE_START
G1 F6000
G1 X63.956 Y72.018 E-.05985
G1 X63.867 Y72.507 E-.11934
G1 X63.844 Y72.759 E-.06081
;WIPE_END
G1 Z.6 F36000
G1 X62.755 Y67.474 Z.6
G1 Z.2
G1 E.8 F1800
;TYPE:Inner wall
G1 F6000
G1 X53.305 Y67.467 E.25533
G2 X52.357 Y67.474 I-.221 J33.469 E.02564
G2 X52.377 Y66.56 I-13.249 J-.752 E.02472
G1 X52.377 Y62.61 E.10673
G1 X62.735 Y62.61 E.27986
G1 X62.735 Y66.56 E.10673
G2 X62.753 Y67.434 I13.27 J.162 E.02364
G1 X63.144 Y67.857 F36000
G1 F6000
G2 X62.313 Y67.825 I-.655 J6.091 E.0225
G1 X53.306 Y67.824 E.24337
G2 X51.967 Y67.857 I-.299 J14.94 E.03618
G2 X52.02 Y66.558 I-12.17 J-1.142 E.03514
G1 X52.02 Y62.252 E.11634
G1 X63.092 Y62.252 E.29916
G1 X63.092 Y66.558 E.11634
G2 X63.141 Y67.817 I12.222 J.157 E.03406
G1 E-.56 F1800
;WIPE_START
G1 F6000
G1 X62.851 Y67.833 E-.06967
G1 X62.313 Y67.825 E-.12915
G1 X62.141 Y67.825 E-.04119
;WIPE_END
G1 Z.6 F36000
G1 X55.017 Y45.888 Z.6
G1 Z.2
G1 E.8 F1800
G1 F6000
G1 X55.449 Y45.536 E.01507
G1 X55.966 Y45.237 E.01613
G1 X56.525 Y45.025 E.01616
G1 X57.12 Y44.906 E.01639
G1 X57.705 Y44.882 E.01584
G1 X58.298 Y44.954 E.01613
G1 X58.871 Y45.12 E.01613
G1 X59.411 Y45.376 E.01613
G1 X59.902 Y45.715 E.01613
G1 X60.333 Y46.129 E.01616
G1 X60.696 Y46.615 E.01639
G1 X60.968 Y47.134 E.01584
G1 X61.158 Y47.701 E.01613
G1 X61.253 Y48.29 E.01613
G1 X61.253 Y48.887 E.01613
G1 X61.157 Y49.477 E.01616
G1 X60.963 Y50.052 E.01639
G1 X60.691 Y50.571 E.01584
G1 X60.332 Y51.048 E.01613
G1 X59.902 Y51.462 E.01613
G1 X59.411 Y51.801 E.01613
G1 X58.961 Y52.014 E.01345
G1 X58.999 Y52.181 E.00463
G1 X60.388 Y52.181 E.03754
G1 X60.388 Y55.181 E.08106
G1 X62.763 Y55.181 E.06417
G1 X62.763 Y61.895 E.18141
G1 X52.349 Y61.895 E.28138
G1 X52.349 Y55.181 E.18141
G1 X54.724 Y55.181 E.06417
G1 X54.724 Y52.181 E.08106
G1 X56.108 Y52.181 E.03739
G1 X56.14 Y52.006 E.00482
G1 X55.966 Y51.94 E.00503
G1 X55.449 Y51.641 E.01613
G1 X54.986 Y51.264 E.01613
G1 X54.59 Y50.816 E.01616
G1 X54.267 Y50.302 E.01639
G1 X54.037 Y49.763 E.01584
G1 X53.895 Y49.183 E.01613
G1 X53.846 Y48.587 E.01616
G1 X53.897 Y47.983 E.01639
G1 X54.037 Y47.414 E.01584
G1 X54.271 Y46.864 E.01613
G1 X54.59 Y46.36 E.01613
G1 X54.986 Y45.914 E.01611
G1 E-.56 F1800
;WIPE_START
G1 F6000
G1 X55.449 Y45.536 E-.14348
G1 X55.797 Y45.334 E-.09652
;WIPE_END
G1 Z.6 F36000
G1 X60.031 Y55.538 Z.6
G1 Z.2
G1 E.8 F1800
;TYPE:Outer wall
G1 F6000
G1 X62.406 Y55.538 E.06417
G1 X62.406 Y61.538 E.16211
G1 X52.706 Y61.538 E.26209
G1 X52.706 Y55.538 E.16211
G1 X55.081 Y55.538 E.06417
G1 X55.081 Y52.538 E.08106
G1 X60.031 Y52.538 E.13374
G1 X60.031 Y55.498 E.07998
G1 E-.56 F1800
;WIPE_START
G1 F6000
G1 X61.031 Y55.515 E-.24
;WIPE_END
G1 Z.6 F36000
G1 X55.228 Y46.179 Z.6
G1 Z.2
G1 E.8 F1800
G1 F6000
G1 X55.234 Y46.171 E.00028
G3 X56.119 Y45.561 I2.318 J2.413 E.02918
G3 X57.162 Y45.261 I1.425 J2.996 E.02945
G3 X54.877 Y46.575 I.39 J3.323 E.49475
G1 X55.201 Y46.209 E.01321
G1 E-.56 F1800
;WIPE_START
G1 F6000
G1 X55.234 Y46.171 E-.01208
G1 X55.652 Y45.83 E-.12944
G1 X56.008 Y45.625 E-.09848
;WIPE_END
G1 Z.6 F36000
G1 X57.791 Y28.533 Z.6
G1 Z.2
G1 E.8 F1800
;TYPE:Inner wall
G1 F6000
G1 X58.37 Y28.603 E.01576
G1 X58.998 Y28.785 E.01769
G1 X59.59 Y29.066 E.01769
G1 X60.128 Y29.438 E.01769
G1 X60.601 Y29.891 E.01769
G1 X60.994 Y30.414 E.01769
G1 X61.298 Y30.994 E.01769
G1 X61.505 Y31.615 E.01769
G1 X61.61 Y32.261 E.01769
G1 X61.61 Y32.916 E.01769
G1 X61.505 Y33.562 E.01769
G1 X61.298 Y34.183 E.01769
G1 X60.994 Y34.762 E.01769
G1 X60.601 Y35.286 E.01769
G1 X60.128 Y35.739 E.01769
G1 X59.59 Y36.111 E.01769
G1 X58.998 Y36.392 E.01769
G1 X58.37 Y36.574 E.01769
G1 X57.72 Y36.653 E.01769
G1 X57.064 Y36.626 E.01773
G1 X56.414 Y36.491 E.01794
G1 X55.812 Y36.263 E.01738
G1 X55.245 Y35.936 E.01769
G1 X54.738 Y35.522 E.01769
G1 X54.303 Y35.031 E.01773
G1 X53.95 Y34.468 E.01794
G1 X53.698 Y33.876 E.01738
G1 X53.541 Y33.241 E.01769
G1 X53.488 Y32.587 E.01773
G1 X53.544 Y31.925 E.01794
G1 X53.698 Y31.3 E.01738
G1 X53.954 Y30.698 E.01769
G1 X54.304 Y30.145 E.01769
G1 X54.738 Y29.655 E.01769
G1 X55.245 Y29.241 E.01769
G1 X55.812 Y28.913 E.01769
G1 X56.426 Y28.681 E.01773
G1 X57.077 Y28.55 E.01794
G1 X57.72 Y28.524 E.01738
G1 X57.751 Y28.528 E.00085
G1 X57.748 Y28.887 F36000
G1 F6000
G1 X58.298 Y28.954 E.01498
G1 X58.871 Y29.12 E.01613
G1 X59.411 Y29.376 E.01613
G1 X59.902 Y29.715 E.01613
G1 X60.332 Y30.129 E.01613
G1 X60.691 Y30.606 E.01613
G1 X60.968 Y31.134 E.01613
G1 X61.158 Y31.701 E.01613
G1 X61.253 Y32.29 E.01613
G1 X61.253 Y32.887 E.01613
G1 X61.158 Y33.476 E.01613
G1 X60.968 Y34.042 E.01613
G1 X60.691 Y34.571 E.01613
G1 X60.332 Y35.048 E.01613
G1 X59.902 Y35.462 E.01613
G1 X59.411 Y35.801 E.01613
G1 X58.871 Y36.057 E.01613
G1 X58.298 Y36.223 E.01613
G1 X57.705 Y36.295 E.01613
G1 X57.108 Y36.271 E.01616
G1 X56.514 Y36.147 E.01639
G1 X55.966 Y35.94 E.01584
G1 X55.449 Y35.641 E.01613
G1 X54.986 Y35.264 E.01613
G1 X54.59 Y34.816 E.01616
G1 X54.267 Y34.302 E.01639
G1 X54.037 Y33.763 E.01584
G1 X53.895 Y33.183 E.01613
G1 X53.846 Y32.587 E.01616
G1 X53.897 Y31.983 E.01639
G1 X54.037 Y31.414 E.01584
G1 X54.271 Y30.864 E.01613
G1 X54.59 Y30.36 E.01613
G1 X54.986 Y29.913 E.01613
G1 X55.449 Y29.536 E.01613
G1 X55.966 Y29.237 E.01613
G1 X56.525 Y29.025 E.01616
G1 X57.12 Y28.906 E.01639
G1 X57.705 Y28.882 E.01584
G1 X57.708 Y28.882 E.00007
G1 X57.705 Y29.242 F36000
;TYPE:Outer wall
G1 F6000
G1 X58.226 Y29.307 E.01419
G3 X56.119 Y29.561 I-.674 J3.277 E.50962
G3 X57.162 Y29.261 I1.425 J2.996 E.02945
G3 X57.665 Y29.24 I.39 J3.323 E.0136
G1 E-.56 F1800
;WIPE_START
G1 F6000
G1 X58.226 Y29.307 E-.13562
G1 X58.644 Y29.426 E-.10438
;WIPE_END
G1 Z.6 F36000
G1 X58.103 Y28.211 Z.6
G1 Z.2
G1 E.8 F1800
;TYPE:Inner wall
G1 F6000
G1 X58.115 Y28.01 E.00545
G1 X61.467 Y28.01 E.09056
G1 X62.735 Y29.277 E.04843
G1 X62.735 Y54.467 E.68061
G1 X61.102 Y54.467 E.04411
G1 X61.102 Y51.467 E.08106
G1 X60.911 Y51.467 E.00517
G1 X61.297 Y50.954 E.01735
G1 X61.622 Y50.334 E.01892
G1 X61.853 Y49.65 E.0195
G1 X61.967 Y48.944 E.01931
G1 X61.967 Y48.232 E.01924
G1 X61.853 Y47.529 E.01925
G1 X61.628 Y46.854 E.01924
G1 X61.302 Y46.233 E.01892
G1 X60.87 Y45.655 E.0195
G1 X60.355 Y45.16 E.01931
G1 X59.769 Y44.755 E.01924
G1 X59.125 Y44.45 E.01925
G1 X58.441 Y44.252 E.01924
G1 X57.734 Y44.166 E.01924
G1 X57.034 Y44.194 E.01892
G1 X56.327 Y44.336 E.0195
G1 X55.659 Y44.59 E.01931
G1 X55.042 Y44.946 E.01925
M73 P1 R21
G1 X54.49 Y45.396 E.01925
G1 X54.018 Y45.93 E.01924
G1 X53.637 Y46.532 E.01924
G1 X53.358 Y47.187 E.01924
G1 X53.19 Y47.867 E.01892
G1 X53.13 Y48.586 E.0195
G1 X53.187 Y49.298 E.01931
G1 X53.358 Y49.99 E.01925
G1 X53.632 Y50.634 E.01892
G1 X54.016 Y51.245 E.0195
G1 X54.213 Y51.467 E.008
G1 X54.01 Y51.467 E.00548
G1 X54.01 Y54.467 E.08106
G1 X52.377 Y54.467 E.04411
G1 X52.377 Y29.277 E.68061
G1 X53.645 Y28.01 E.04843
G1 X56.974 Y28.01 E.08994
G1 X56.993 Y28.203 E.00524
G1 X56.327 Y28.336 E.01836
G1 X55.659 Y28.59 E.01931
G1 X55.042 Y28.946 E.01925
G1 X54.49 Y29.396 E.01924
G1 X54.018 Y29.93 E.01924
G1 X53.637 Y30.532 E.01924
G1 X53.358 Y31.187 E.01924
G1 X53.19 Y31.867 E.01892
G1 X53.13 Y32.586 E.0195
G1 X53.187 Y33.298 E.01931
G1 X53.358 Y33.99 E.01925
G1 X53.632 Y34.634 E.01892
G1 X54.016 Y35.245 E.0195
G1 X54.49 Y35.78 E.01931
G1 X55.042 Y36.231 E.01925
G1 X55.659 Y36.587 E.01924
G1 X56.313 Y36.835 E.01892
G1 X57.02 Y36.982 E.0195
G1 X57.734 Y37.011 E.01931
G1 X58.441 Y36.925 E.01925
G1 X59.125 Y36.727 E.01924
G1 X59.769 Y36.421 E.01925
G1 X60.355 Y36.017 E.01924
G1 X60.869 Y35.523 E.01924
G1 X61.297 Y34.954 E.01925
G1 X61.628 Y34.323 E.01924
G1 X61.853 Y33.647 E.01925
G1 X61.967 Y32.944 E.01924
G1 X61.967 Y32.232 E.01924
G1 X61.853 Y31.529 E.01925
G1 X61.628 Y30.854 E.01924
G1 X61.297 Y30.223 E.01924
G1 X60.869 Y29.653 E.01924
G1 X60.355 Y29.16 E.01925
G1 X59.769 Y28.755 E.01924
G1 X59.125 Y28.45 E.01924
G1 X58.441 Y28.252 E.01924
G1 X58.143 Y28.216 E.00812
G1 E-.56 F1800
;WIPE_START
G1 F6000
G1 X58.115 Y28.01 E-.04991
G1 X58.907 Y28.01 E-.19009
;WIPE_END
G1 Z.6 F36000
G1 X60.745 Y54.824 Z.6
G1 Z.2
G1 E.8 F1800
G1 F6000
G1 X60.745 Y51.824 E.08106
G1 X60.04 Y51.824 E.01905
G1 X60.601 Y51.286 E.021
G1 X60.994 Y50.762 E.01769
G1 X61.293 Y50.193 E.01738
G1 X61.505 Y49.563 E.01794
G1 X61.61 Y48.916 E.01773
G1 X61.61 Y48.261 E.01769
G1 X61.505 Y47.615 E.01769
G1 X61.298 Y46.994 E.01769
G1 X60.999 Y46.424 E.01738
G1 X60.602 Y45.892 E.01794
G1 X60.128 Y45.438 E.01773
G1 X59.59 Y45.066 E.01769
G1 X58.998 Y44.785 E.01769
G1 X58.37 Y44.603 E.01769
G1 X57.72 Y44.524 E.01769
G1 X57.077 Y44.55 E.01738
G1 X56.426 Y44.681 E.01794
G1 X55.812 Y44.913 E.01773
G1 X55.245 Y45.241 E.01769
G1 X54.738 Y45.655 E.01769
G1 X54.304 Y46.145 E.01769
G1 X53.954 Y46.698 E.01769
G1 X53.698 Y47.3 E.01769
G1 X53.544 Y47.925 E.01738
G1 X53.488 Y48.587 E.01794
G1 X53.541 Y49.241 E.01773
G1 X53.698 Y49.876 E.01769
G1 X53.95 Y50.468 E.01738
G1 X54.303 Y51.031 E.01794
G1 X54.738 Y51.522 E.01773
G1 X55.108 Y51.824 E.01291
G1 X54.367 Y51.824 E.02004
G1 X54.367 Y54.824 E.08106
G1 X52.02 Y54.824 E.06341
