; HEADER_BLOCK_START
; generated by OrcaSlicer 2.3.2-rc2 on 2026-03-18 at 17:39:17
; total layer number: 73
; filament_density: 1.04
; filament_diameter: 1.75
; max_z_height: 14.60
; filament: 1
; HEADER_BLOCK_END

; THUMBNAIL_BLOCK_START

;
; THUMBNAIL_BLOCK_END

; THUMBNAIL_BLOCK_START

;
; THUMBNAIL_BLOCK_END

; external perimeters extrusion width = 0.40mm
; perimeters extrusion width = 0.40mm
; infill extrusion width = 0.40mm
; solid infill extrusion width = 0.40mm
; top infill extrusion width = 0.40mm
; first layer extrusion width = 0.40mm

; external perimeters extrusion width = 0.40mm
; perimeters extrusion width = 0.40mm
; infill extrusion width = 0.40mm
; solid infill extrusion width = 0.40mm
; top infill extrusion width = 0.40mm
; first layer extrusion width = 0.40mm

; EXECUTABLE_BLOCK_START


; Pre-Processed for Cancel-Object support by preprocess_cancellation v0.2.0
; 2 known objects
EXCLUDE_OBJECT_DEFINE NAME=Shaft_Cap_Screw_In_x2_stl_id_64_copy_0 CENTER=69.158,67.839 POLYGON=[[58.284,58.536],[58.284,83.117],[82.566,83.117],[82.566,58.536]]
EXCLUDE_OBJECT_DEFINE NAME=Shaft_Cap_Screw_In_x2_stl_id_53_copy_0 CENTER=48.417,46.167 POLYGON=[[37.542,36.865],[37.542,61.446],[61.824,61.446],[61.824,36.865]]
M73 P0 R8
;TYPE:Custom
PRINT_START EXTRUDER_TEMP=255 BED_TEMP=105
G90
G21
M83 ; use relative distances for extrusion
; Filament gcode
SET_PRESSURE_ADVANCE ADVANCE=0.04; Override pressure advance value
M106 S0
;LAYER_CHANGE
;Z:0.2
;HEIGHT:0.2
;BEFORE_LAYER_CHANGE
;0.2
G92 E0

G1 E-.8 F1800
;AFTER_LAYER_CHANGE
;0.2
;_SET_FAN_SPEED_CHANGING_LAYER
SET_VELOCITY_LIMIT ACCEL=10000 ACCEL_TO_DECEL=10000
SET_VELOCITY_LIMIT SQUARE_CORNER_VELOCITY=9
; printing object Shaft_Cap_Screw_In_x2.stl id:64 copy 0
EXCLUDE_OBJECT_START NAME=Shaft_Cap_Screw_In_x2_stl_id_64_copy_0
G1 Z.6 F36000
G1 X61.639 Y66.661
G1 Z.6
G1 Z.2
G1 E.8 F1800
;TYPE:Inner wall
;WIDTH:0.4
G1 F6000
G1 X61.641 Y66.637 E.00065
G3 X70.378 Y61.157 I8.72 J4.198 E.2939
G1 X70.704 Y61.163 E.00881
G3 X61.365 Y67.266 I-.344 J9.671 E1.32164
G1 X61.623 Y66.697 E.01688
G1 X61.312 Y66.518 F36000
G1 F6000
G1 X61.319 Y66.482 E.00098
G3 X70.379 Y60.8 I9.042 J4.353 E.30473
G1 X70.717 Y60.807 E.00915
G3 X61.032 Y67.136 I-.357 J10.028 E1.37038
G1 X61.296 Y66.554 E.01724
G1 X60.985 Y66.375 F36000
G1 F6000
G1 X60.997 Y66.327 E.00132
G3 X70.379 Y60.443 I9.363 J4.507 E.31557
G1 X70.73 Y60.45 E.0095
G3 X60.7 Y67.005 I-.37 J10.385 E1.41912
G1 X60.969 Y66.411 E.01759
G1 X60.658 Y66.232 F36000
;TYPE:Outer wall
G1 F6000
G1 X60.675 Y66.173 E.00167
G3 X70.379 Y60.086 I9.685 J4.662 E.32641
G1 X70.743 Y60.093 E.00985
G3 X60.368 Y66.874 I-.383 J10.742 E1.46785
G1 X60.642 Y66.268 E.01795
G1 E-.56 F1800
;WIPE_START
G1 F6000
G1 X60.675 Y66.173 E-.02436
G1 X61.074 Y65.438 E-.20062
G1 X61.107 Y65.385 E-.01501
;WIPE_END
G1 Z.6 F36000
G1 X68.585 Y61.434 Z.6
G1 Z.2
G1 E.8 F1800
;TYPE:Bottom surface
;WIDTH:0.404547
G1 F12600
G1 X70.726 Y61.434 E.0586
G3 X72.967 Y61.795 I-.337 J9.209 E.06227
G1 X67.763 Y61.795 E.1424
G2 X66.749 Y62.157 I3.188 J10.546 E.02948
G1 X73.994 Y62.157 E.19825
G3 X74.771 Y62.518 I-6.08 J14.089 E.02347
G1 X65.981 Y62.518 E.24053
G2 X65.345 Y62.88 I4.105 J7.957 E.02002
G1 X75.396 Y62.88 E.27501
G1 X75.926 Y63.242 E.01757
G1 X64.817 Y63.242 E.30398
G2 X64.356 Y63.603 I2.229 J3.317 E.01605
G1 X76.383 Y63.603 E.32909
G3 X76.791 Y63.965 I-2.193 J2.891 E.01495
G1 X63.941 Y63.965 E.35163
G2 X63.58 Y64.327 I3.079 J3.43 E.01398
G1 X77.163 Y64.327 E.37167
G3 X77.493 Y64.688 I-4.061 J4.036 E.0134
G1 X63.245 Y64.688 E.38987
G1 X62.957 Y65.05 E.01266
G1 X77.784 Y65.05 E.40572
G3 X78.053 Y65.411 I-2.25 J1.951 E.01234
G1 X62.682 Y65.411 E.42059
G2 X62.444 Y65.773 I3.195 J2.359 E.01185
G1 X78.298 Y65.773 E.43382
G3 X78.515 Y66.135 I-2.345 J1.651 E.01155
G1 X62.219 Y66.135 E.4459
G1 X62.028 Y66.496 E.0112
G1 X78.719 Y66.496 E.45673
G3 X78.896 Y66.858 I-4.533 J2.448 E.01102
G1 X61.845 Y66.858 E.46658
G1 X61.687 Y67.22 E.0108
G1 X79.054 Y67.22 E.4752
G1 X79.195 Y67.581 E.01063
G1 X61.542 Y67.581 E.48305
G2 X61.422 Y67.943 I2.9 J1.168 E.01044
G1 X79.318 Y67.943 E.4897
G1 X79.43 Y68.304 E.01036
G1 X61.311 Y68.304 E.49579
G2 X61.219 Y68.666 I2.417 J.808 E.01022
G1 X79.521 Y68.666 E.5008
G1 X79.604 Y69.028 E.01015
G1 X61.137 Y69.028 E.50532
M73 P1 R8
G2 X61.072 Y69.389 I3.269 J.772 E.01006
G1 X79.668 Y69.389 E.50884
G3 X79.717 Y69.751 I-4.556 J.808 E.00999
G1 X61.023 Y69.751 E.51153
G2 X60.993 Y70.113 I3.252 J.451 E.00993
G1 X79.746 Y70.113 E.51315
G3 X79.772 Y70.474 I-2.455 J.357 E.00993
G1 X60.967 Y70.474 E.51458
G1 X60.967 Y70.836 E.0099
G1 X79.773 Y70.836 E.5146
G3 X79.773 Y71.197 I-2.282 J.181 E.00991
G1 X60.967 Y71.197 E.5146
G2 X60.993 Y71.559 I2.435 J.002 E.00993
G1 X79.745 Y71.559 E.51311
G1 X79.717 Y71.921 E.00992
G1 X61.023 Y71.921 E.51153
G2 X61.072 Y72.282 I4.627 J-.437 E.00999
G1 X79.663 Y72.282 E.5087
G3 X79.604 Y72.644 I-3.335 J-.353 E.01003
G1 X61.137 Y72.644 E.50533
G1 X61.219 Y73.006 E.01015
G1 X79.525 Y73.006 E.50093
G3 X79.431 Y73.367 I-3.305 J-.672 E.01023
G1 X61.311 Y73.367 E.49581
G1 X61.423 Y73.729 E.01036
G1 X79.319 Y73.729 E.4897
G3 X79.194 Y74.091 I-2.49 J-.659 E.01048
G1 X61.544 Y74.091 E.48295
G1 X61.687 Y74.452 E.01063
G1 X79.052 Y74.452 E.47518
G3 X78.892 Y74.814 I-2.495 J-.887 E.01083
G1 X61.843 Y74.814 E.46653
G2 X62.022 Y75.175 I4.648 J-2.07 E.01104
G1 X78.718 Y75.175 E.45688
G3 X78.522 Y75.537 I-3.373 J-1.599 E.01127
G1 X62.225 Y75.537 E.44593
G2 X62.439 Y75.899 I3.299 J-1.708 E.0115
G1 X78.3 Y75.899 E.43401
G1 X78.054 Y76.26 E.01197
G1 X62.685 Y76.26 E.42054
G1 X62.952 Y76.622 E.0123
G1 X77.783 Y76.622 E.40581
G3 X77.495 Y76.984 I-3.105 J-2.178 E.01266
G1 X63.255 Y76.984 E.38965
G2 X63.579 Y77.345 I2.58 J-1.991 E.01331
G1 X77.161 Y77.345 E.37162
G1 X76.798 Y77.707 E.014
G1 X63.941 Y77.707 E.35182
G2 X64.352 Y78.068 I8.457 J-9.193 E.01498
G1 X76.381 Y78.068 E.32916
G3 X75.917 Y78.43 I-2.676 J-2.954 E.0161
G1 X64.823 Y78.43 E.30359
G2 X65.358 Y78.792 I2.732 J-3.464 E.01768
G1 X75.396 Y78.792 E.27468
G3 X74.77 Y79.153 I-3.462 J-5.267 E.01978
G1 X65.97 Y79.153 E.2408
G2 X66.745 Y79.515 I6.713 J-13.375 E.0234
G1 X74.002 Y79.515 E.19859
G3 X72.967 Y79.877 I-3.373 J-7.994 E.03003
G1 X67.774 Y79.877 E.1421
G2 X69.993 Y80.238 I2.722 J-9.714 E.06166
G1 X72.15 Y80.238 E.05902
; stop printing object Shaft_Cap_Screw_In_x2.stl id:64 copy 0
EXCLUDE_OBJECT_END NAME=Shaft_Cap_Screw_In_x2_stl_id_64_copy_0
; printing object Shaft_Cap_Screw_In_x2.stl id:53 copy 0
EXCLUDE_OBJECT_START NAME=Shaft_Cap_Screw_In_x2_stl_id_53_copy_0
G1 E-.65714 F1800
;WIPE_START
G1 F12600
G1 X71.15 Y80.238 E-.14286
;WIPE_END
G1 Z.6 F36000
G1 X40.897 Y44.989 Z.6
G1 Z.2
G1 E.8 F1800
;TYPE:Inner wall
;WIDTH:0.4
G1 F6000
G1 X40.899 Y44.965 E.00065
G3 X49.637 Y39.486 I8.72 J4.198 E.2939
G1 X49.962 Y39.492 E.00881
G3 X40.623 Y45.595 I-.344 J9.671 E1.32164
G1 X40.881 Y45.026 E.01688
G1 X40.57 Y44.846 F36000
G1 F6000
G1 X40.577 Y44.811 E.00098
G3 X49.637 Y39.129 I9.042 J4.353 E.30473
G1 X49.975 Y39.135 E.00915
G3 X40.291 Y45.464 I-.357 J10.028 E1.37038
G1 X40.554 Y44.883 E.01724
G1 X40.243 Y44.703 F36000
G1 F6000
G1 X40.255 Y44.656 E.00132
G3 X49.637 Y38.771 I9.363 J4.507 E.31557
G1 X49.988 Y38.778 E.0095
G3 X39.958 Y45.333 I-.37 J10.385 E1.41912
M73 P2 R8
G1 X40.227 Y44.74 E.01759
G1 X39.916 Y44.56 F36000
;TYPE:Outer wall
G1 F6000
G1 X39.933 Y44.501 E.00167
G3 X49.637 Y38.414 I9.685 J4.662 E.32641
G1 X50.001 Y38.421 E.00985
G3 X39.626 Y45.202 I-.383 J10.742 E1.46785
G1 X39.9 Y44.597 E.01795
G1 E-.56 F1800
;WIPE_START
G1 F6000
G1 X39.933 Y44.501 E-.02436
G1 X40.332 Y43.766 E-.20062
G1 X40.365 Y43.713 E-.01501
;WIPE_END
G1 Z.6 F36000
G1 X47.843 Y39.762 Z.6
G1 Z.2
G1 E.8 F1800
;TYPE:Bottom surface
;WIDTH:0.404547
G1 F12600
G1 X49.984 Y39.762 E.0586
G3 X52.225 Y40.124 I-.337 J9.209 E.06227
G1 X47.021 Y40.124 E.1424
G2 X46.007 Y40.485 I3.188 J10.546 E.02948
G1 X53.252 Y40.485 E.19825
G3 X54.029 Y40.847 I-6.08 J14.089 E.02347
G1 X45.239 Y40.847 E.24053
G2 X44.603 Y41.208 I4.105 J7.957 E.02002
G1 X54.654 Y41.208 E.27501
G1 X55.184 Y41.57 E.01757
G1 X44.075 Y41.57 E.30398
G2 X43.614 Y41.932 I2.229 J3.317 E.01605
G1 X55.641 Y41.932 E.32909
G3 X56.05 Y42.293 I-2.193 J2.891 E.01495
G1 X43.199 Y42.293 E.35163
G2 X42.839 Y42.655 I3.079 J3.43 E.01398
G1 X56.422 Y42.655 E.37167
G3 X56.751 Y43.017 I-4.061 J4.036 E.0134
G1 X42.504 Y43.017 E.38987
G1 X42.215 Y43.378 E.01266
G1 X57.042 Y43.378 E.40572
G3 X57.311 Y43.74 I-2.25 J1.951 E.01234
G1 X41.94 Y43.74 E.42059
G2 X41.702 Y44.101 I3.195 J2.359 E.01185
G1 X57.557 Y44.101 E.43382
G3 X57.773 Y44.463 I-2.345 J1.651 E.01155
G1 X41.478 Y44.463 E.4459
G1 X41.286 Y44.825 E.0112
G1 X57.977 Y44.825 E.45673
G3 X58.155 Y45.186 I-4.533 J2.448 E.01102
G1 X41.103 Y45.186 E.46658
G1 X40.945 Y45.548 E.0108
G1 X58.312 Y45.548 E.4752
G1 X58.454 Y45.91 E.01063
G1 X40.8 Y45.91 E.48305
G2 X40.68 Y46.271 I2.9 J1.168 E.01044
G1 X58.576 Y46.271 E.4897
G1 X58.688 Y46.633 E.01036
G1 X40.569 Y46.633 E.49579
G2 X40.477 Y46.994 I2.417 J.808 E.01022
G1 X58.779 Y46.994 E.5008
G1 X58.862 Y47.356 E.01015
G1 X40.395 Y47.356 E.50532
G2 X40.33 Y47.718 I3.269 J.772 E.01006
G1 X58.926 Y47.718 E.50884
G3 X58.975 Y48.079 I-4.556 J.808 E.00999
G1 X40.281 Y48.079 E.51153
G2 X40.251 Y48.441 I3.252 J.451 E.00993
G1 X59.005 Y48.441 E.51315
G3 X59.03 Y48.803 I-2.455 J.357 E.00993
G1 X40.225 Y48.803 E.51458
G1 X40.225 Y49.164 E.0099
G1 X59.031 Y49.164 E.5146
G3 X59.031 Y49.526 I-2.282 J.181 E.00991
G1 X40.225 Y49.526 E.5146
G2 X40.252 Y49.887 I2.435 J.002 E.00993
G1 X59.003 Y49.887 E.51311
G1 X58.975 Y50.249 E.00992
G1 X40.281 Y50.249 E.51153
G2 X40.33 Y50.611 I4.627 J-.437 E.00999
G1 X58.921 Y50.611 E.5087
G3 X58.862 Y50.972 I-3.335 J-.353 E.01003
G1 X40.395 Y50.972 E.50533
G1 X40.477 Y51.334 E.01015
G1 X58.784 Y51.334 E.50093
G3 X58.689 Y51.696 I-3.305 J-.672 E.01023
G1 X40.57 Y51.696 E.49581
G1 X40.681 Y52.057 E.01036
G1 X58.577 Y52.057 E.4897
G3 X58.452 Y52.419 I-2.49 J-.659 E.01048
G1 X40.803 Y52.419 E.48295
G1 X40.945 Y52.78 E.01063
G1 X58.31 Y52.78 E.47518
G3 X58.151 Y53.142 I-2.495 J-.887 E.01083
G1 X41.101 Y53.142 E.46653
G2 X41.28 Y53.504 I4.648 J-2.07 E.01104
G1 X57.977 Y53.504 E.45688
G3 X57.78 Y53.865 I-3.373 J-1.599 E.01127
M73 P3 R8
G1 X41.483 Y53.865 E.44593
G2 X41.697 Y54.227 I3.299 J-1.708 E.0115
G1 X57.558 Y54.227 E.43401
G1 X57.312 Y54.589 E.01197
G1 X41.943 Y54.589 E.42054
G1 X42.21 Y54.95 E.0123
G1 X57.041 Y54.95 E.40581
G3 X56.753 Y55.312 I-3.105 J-2.178 E.01266
G1 X42.513 Y55.312 E.38965
G2 X42.838 Y55.674 I2.58 J-1.991 E.01331
G1 X56.419 Y55.674 E.37162
G1 X56.057 Y56.035 E.014
G1 X43.199 Y56.035 E.35182
G2 X43.61 Y56.397 I8.457 J-9.193 E.01498
G1 X55.639 Y56.397 E.32916
G3 X55.175 Y56.758 I-2.676 J-2.954 E.0161
G1 X44.081 Y56.758 E.30359
G2 X44.616 Y57.12 I2.732 J-3.464 E.01768
G1 X54.654 Y57.12 E.27468
G3 X54.028 Y57.482 I-3.462 J-5.267 E.01978
G1 X45.228 Y57.482 E.2408
G2 X46.003 Y57.843 I6.713 J-13.375 E.0234
G1 X53.261 Y57.843 E.19859
G3 X52.225 Y58.205 I-3.373 J-7.994 E.03003
G1 X47.032 Y58.205 E.1421
G2 X49.251 Y58.567 I2.722 J-9.714 E.06166
G1 X51.408 Y58.567 E.05902
; stop printing object Shaft_Cap_Screw_In_x2.stl id:53 copy 0
EXCLUDE_OBJECT_END NAME=Shaft_Cap_Screw_In_x2_stl_id_53_copy_0
;LAYER_CHANGE
;Z:0.4
;HEIGHT:0.2
;BEFORE_LAYER_CHANGE
;0.4
G92 E0

G1 E-.65714 F1800
;WIPE_START
G1 F12600
G1 X50.408 Y58.567 E-.14286
;WIPE_END
;AFTER_LAYER_CHANGE
;0.4
;_SET_FAN_SPEED_CHANGING_LAYER
SET_VELOCITY_LIMIT ACCEL=20000 ACCEL_TO_DECEL=20000
M104 S250 ; set nozzle temperature
M140 S102 ; set bed temperature
; printing object Shaft_Cap_Screw_In_x2.stl id:64 copy 0
EXCLUDE_OBJECT_START NAME=Shaft_Cap_Screw_In_x2_stl_id_64_copy_0
SET_VELOCITY_LIMIT SQUARE_CORNER_VELOCITY=12
G1 Z.8 F36000
G1 X61.32 Y66.527 Z.8
G1 Z.4
G1 E.8 F1800
SET_VELOCITY_LIMIT ACCEL=15000 ACCEL_TO_DECEL=15000 SQUARE_CORNER_VELOCITY=9
;TYPE:Inner wall
;WIDTH:0.4
G1 F23081.008
G1 X61.36 Y66.417 E.00318
G3 X70.024 Y60.813 I9.002 J4.419 E.29283
G3 X70.677 Y60.813 I.337 J9.358 E.01764
G3 X61.027 Y67.173 I-.315 J10.023 E1.36955
G1 X61.303 Y66.564 E.01807
SET_VELOCITY_LIMIT ACCEL=20000 ACCEL_TO_DECEL=20000 SQUARE_CORNER_VELOCITY=12
G1 X60.993 Y66.383 F36000
SET_VELOCITY_LIMIT ACCEL=15000 ACCEL_TO_DECEL=15000 SQUARE_CORNER_VELOCITY=9
G1 F23081.008
G1 X61.052 Y66.262 E.00364
G3 X70.685 Y60.456 I9.323 J4.574 E.32115
G3 X70.775 Y81.214 I-.318 J10.381 E.86192
G3 X60.706 Y67.047 I-.4 J-10.377 E.55638
G1 X60.977 Y66.42 E.01845
SET_VELOCITY_LIMIT ACCEL=20000 ACCEL_TO_DECEL=20000 SQUARE_CORNER_VELOCITY=12
G1 X60.667 Y66.24 F36000
SET_VELOCITY_LIMIT ACCEL=15000 ACCEL_TO_DECEL=15000 SQUARE_CORNER_VELOCITY=9
G1 F23081.008
G1 X60.732 Y66.102 E.00412
G3 X70.693 Y60.099 I9.643 J4.734 E.33204
G3 X70.79 Y81.57 I-.326 J10.738 E.8916
G3 X60.374 Y66.916 I-.415 J-10.734 E.57554
G1 X60.651 Y66.276 E.01885
SET_VELOCITY_LIMIT ACCEL=10000 ACCEL_TO_DECEL=10000
G1 X60.34 Y66.095 F36000
;TYPE:Outer wall
G1 F23081.008
G1 X60.413 Y65.942 E.00459
G3 X70.701 Y59.742 I9.962 J4.894 E.34293
G3 X70.805 Y81.927 I-.335 J11.095 E.92128
G3 X60.041 Y66.786 I-.43 J-11.091 E.5947
G1 X60.324 Y66.132 E.01926
SET_VELOCITY_LIMIT ACCEL=20000 ACCEL_TO_DECEL=20000 SQUARE_CORNER_VELOCITY=12
G1 E-.72201 F1800
;WIPE_START
G1 F23081.008
G1 X60.413 Y65.942 E-.01636
G1 X60.744 Y65.309 E-.05572
G1 X60.783 Y65.244 E-.00591
;WIPE_END
G1 Z.8 F36000
G1 X80.087 Y69.03 Z.8
G1 Z.4
G1 E.8 F1800
SET_VELOCITY_LIMIT SQUARE_CORNER_VELOCITY=9
;TYPE:Internal solid infill
;WIDTH:0.402827
G1 F22899.689
G1 X80.087 Y71.212 E.05944
G3 X79.727 Y73.477 I-9.679 J-.377 E.0626
G1 X79.727 Y68.206 E.14355
G2 X79.367 Y67.155 I-7.34 J1.927 E.03028
G1 X79.367 Y74.507 E.2002
G3 X79.007 Y75.303 I-5.521 J-2.016 E.02382
G1 X79.007 Y66.37 E.24328
G2 X78.647 Y65.733 I-6.304 J3.143 E.01993
G1 X78.647 Y75.939 E.27793
G3 X78.287 Y76.477 I-5.311 J-3.157 E.01766
G1 X78.287 Y65.199 E.30715
G2 X77.927 Y64.724 I-3.279 J2.112 E.01624
G1 X77.927 Y76.943 E.33277
G3 X77.567 Y77.371 I-3.369 J-2.468 E.01524
G1 X77.567 Y64.299 E.35601
G2 X77.207 Y63.922 I-3.968 J3.43 E.01419
G1 X77.207 Y77.743 E.3764
G3 X76.848 Y78.081 I-2.374 J-2.173 E.01345
G1 X76.848 Y63.588 E.39468
G2 X76.488 Y63.287 I-2.147 J2.203 E.01279
G1 X76.488 Y78.388 E.41125
G3 X76.128 Y78.659 I-1.663 J-1.834 E.01228
G1 X76.128 Y63.002 E.42639
G2 X75.768 Y62.761 I-1.492 J1.845 E.0118
G1 X75.768 Y78.914 E.43987
G3 X75.408 Y79.146 I-1.433 J-1.824 E.01169
G1 X75.408 Y62.526 E.45261
G2 X75.048 Y62.313 I-1.622 J2.333 E.0114
G1 X75.048 Y79.354 E.46407
G3 X74.688 Y79.544 I-1.467 J-2.34 E.0111
G1 X74.688 Y62.128 E.47431
G1 X74.328 Y61.954 E.01088
G1 X74.328 Y79.718 E.48377
G3 X73.968 Y79.869 I-1.571 J-3.245 E.01063
G1 X73.968 Y61.811 E.49177
G1 X73.608 Y61.668 E.01054
G1 X73.608 Y80 E.49922
G3 X73.248 Y80.123 I-1.346 J-3.338 E.01037
G1 X73.248 Y61.553 E.50573
G2 X72.889 Y61.445 I-1.208 J3.375 E.01024
G1 X72.889 Y80.229 E.51154
G3 X72.529 Y80.309 I-.782 J-2.654 E.01005
G1 X72.529 Y61.354 E.51622
G1 X72.169 Y61.281 E.01
G1 X72.169 Y80.389 E.52036
G3 X71.809 Y80.448 I-.596 J-2.515 E.00994
M73 P4 R8
G1 X71.809 Y61.224 E.52353
G2 X71.449 Y61.172 I-.519 J2.322 E.00991
G1 X71.449 Y80.5 E.52637
G3 X71.089 Y80.534 I-.57 J-4.212 E.00985
G1 X71.089 Y61.146 E.52798
G1 X70.729 Y61.121 E.00983
G1 X70.729 Y80.552 E.52918
G3 X70.369 Y80.555 I-.206 J-3.387 E.00981
G1 X70.369 Y61.116 E.52937
G2 X70.009 Y61.118 I-.165 J3.46 E.00981
G1 X70.009 Y80.553 E.52928
G1 X69.649 Y80.532 E.00982
G1 X69.649 Y61.139 E.52815
G1 X69.289 Y61.173 E.00985
G1 X69.289 Y80.495 E.5262
G3 X68.93 Y80.451 I.116 J-2.46 E.00988
G1 X68.93 Y61.224 E.52363
G2 X68.57 Y61.281 I.213 J2.481 E.00994
G1 X68.57 Y80.384 E.52021
G1 X68.21 Y80.316 E.00997
G1 X68.21 Y61.363 E.51613
G1 X67.85 Y61.445 E.01005
G1 X67.85 Y80.216 E.51121
G1 X67.49 Y80.113 E.0102
G1 X67.49 Y61.548 E.5056
G2 X67.13 Y61.672 I1.022 J3.53 E.01038
G1 X67.13 Y80 E.49913
G1 X66.77 Y79.861 E.01051
G1 X66.77 Y61.807 E.49166
G1 X66.41 Y61.962 E.01068
G1 X66.41 Y79.716 E.48348
G1 X66.05 Y79.543 E.01087
G1 X66.05 Y62.126 E.47432
G1 X65.69 Y62.316 E.01107
G1 X65.69 Y79.357 E.4641
G3 X65.33 Y79.145 I1.4 J-2.785 E.01139
G1 X65.33 Y62.522 E.45271
