; HEADER_BLOCK_START
; generated by OrcaSlicer 2.3.1 on 2026-02-10 at 21:45:34
; total layer number: 161
; filament_density: 1.04
; filament_diameter: 1.75
; max_z_height: 32.20
; HEADER_BLOCK_END

; THUMBNAIL_BLOCK_START

;
; THUMBNAIL_BLOCK_END

; THUMBNAIL_BLOCK_START

;
; THUMBNAIL_BLOCK_END

; external perimeters extrusion width = 0.40mm
; perimeters extrusion width = 0.40mm
; infill extrusion width = 0.40mm
; solid infill extrusion width = 0.40mm
; top infill extrusion width = 0.40mm
; first layer extrusion width = 0.40mm

; EXECUTABLE_BLOCK_START


; Pre-Processed for Cancel-Object support by preprocess_cancellation v0.2.0
; 1 known objects
EXCLUDE_OBJECT_DEFINE NAME=simrig_moza_racing_wheel_mount_8040_vertical_stl_id_15_copy_0 CENTER=60.218,59.585 POLYGON=[[10.2,30.2],[10.2,89.8],[109.8,89.8],[109.8,30.2]]
M73 P0 R31
;TYPE:Custom
PRINT_START EXTRUDER_TEMP=255 BED_TEMP=105
G90
G21
M83 ; use relative distances for extrusion
; Filament gcode
SET_PRESSURE_ADVANCE ADVANCE=0.04; Override pressure advance value
M106 S0
;LAYER_CHANGE
;Z:0.2
;HEIGHT:0.2
;BEFORE_LAYER_CHANGE
;0.2
G92 E0

G1 E-.8 F1800
;AFTER_LAYER_CHANGE
;0.2
;_SET_FAN_SPEED_CHANGING_LAYER
SET_VELOCITY_LIMIT ACCEL=10000 ACCEL_TO_DECEL=10000
SET_VELOCITY_LIMIT SQUARE_CORNER_VELOCITY=9
; printing object simrig-moza_racing_wheel_mount-8040_vertical.stl id:15 copy 0
EXCLUDE_OBJECT_START NAME=simrig_moza_racing_wheel_mount_8040_vertical_stl_id_15_copy_0
G1 Z.6 F36000
G1 X96.848 Y75.468
G1 Z.6
G1 Z.2
G1 E.8 F1800
;TYPE:Inner wall
;WIDTH:0.4
G1 F6000
G1 X96.901 Y75.429 E.00176
G3 X99.106 Y74.549 I3.099 J4.567 E.06466
G1 X99.701 Y74.485 E.01616
G3 X96.425 Y75.791 I.299 J5.511 E.83999
G1 X96.817 Y75.492 E.01331
G1 X97.065 Y75.752 F36000
G1 F6000
G1 X97.101 Y75.725 E.00124
G3 X99.164 Y74.902 I2.898 J4.271 E.06048
G1 X99.72 Y74.842 E.01511
G3 X96.656 Y76.063 I.279 J5.154 E.7856
G1 X97.033 Y75.776 E.01279
G1 X97.281 Y76.036 F36000
G1 F6000
G1 X97.302 Y76.021 E.00072
G3 X99.222 Y75.255 I2.698 J3.976 E.05629
G1 X99.74 Y75.199 E.01407
G3 X96.888 Y76.336 I.26 J4.798 E.73122
G1 X97.249 Y76.061 E.01227
G1 X97.497 Y76.321 F36000
;TYPE:Outer wall
G1 F6000
G1 X97.503 Y76.317 E.00019
G3 X99.28 Y75.608 I2.497 J3.68 E.0521
G1 X99.759 Y75.556 E.01302
G3 X97.119 Y76.608 I.241 J4.441 E.67683
G1 X97.465 Y76.345 E.01175
G1 E-.56 F1800
;WIPE_START
G1 F6000
G1 X97.503 Y76.317 E-.01131
G1 X97.915 Y76.068 E-.11565
G1 X98.343 Y75.87 E-.11304
;WIPE_END
G1 Z.6 F36000
G1 X101.544 Y45.3 Z.6
G1 Z.2
G1 E.8 F1800
;TYPE:Inner wall
G1 F6000
G1 X101.477 Y45.314 E.00186
G3 X99.106 Y34.549 I-1.477 J-5.318 E.48466
G1 X99.701 Y34.485 E.01616
G3 X102.049 Y45.12 I.299 J5.511 E.41982
G1 X101.582 Y45.286 E.01341
G1 X101.429 Y44.961 F36000
G1 F6000
G1 X101.381 Y44.97 E.00133
G3 X99.164 Y34.902 I-1.381 J-4.974 E.45327
G1 X99.72 Y34.842 E.01511
G3 X101.917 Y44.789 I.279 J5.154 E.39263
G1 X101.467 Y44.948 E.0129
G1 X101.315 Y44.623 F36000
G1 F6000
G1 X101.285 Y44.626 E.00081
G3 X99.222 Y35.255 I-1.285 J-4.629 E.42189
G1 X99.74 Y35.199 E.01407
G3 X101.785 Y44.457 I.26 J4.798 E.36544
G1 X101.352 Y44.61 E.01238
G1 X101.2 Y44.285 F36000
;TYPE:Outer wall
G1 F6000
G1 X101.189 Y44.282 E.00031
G3 X99.28 Y35.608 I-1.19 J-4.285 E.3905
G1 X99.759 Y35.556 E.01302
G3 X101.652 Y44.126 I.241 J4.441 E.33826
G1 X101.238 Y44.272 E.01187
G1 E-.56 F1800
;WIPE_START
G1 F6000
G1 X101.189 Y44.282 E-.01192
G1 X100.72 Y44.392 E-.11565
G1 X100.254 Y44.443 E-.11242
;WIPE_END
G1 Z.6 F36000
G1 X16.477 Y44.249 Z.6
G1 Z.2
G1 E.8 F1800
;TYPE:Inner wall
G1 F6000
G1 X16.429 Y44.204 E.00177
G3 X19.106 Y34.549 I3.571 J-4.208 E.33933
G1 X19.701 Y34.485 E.01616
G3 X16.904 Y44.566 I.299 J5.511 E.56534
G1 X16.509 Y44.273 E.0133
G1 X16.693 Y43.965 F36000
G1 F6000
G1 X16.66 Y43.932 E.00125
G3 X19.164 Y34.902 I3.34 J-3.936 E.31736
G1 X19.72 Y34.842 E.01511
G3 X17.105 Y44.27 I.279 J5.154 E.52874
G1 X16.725 Y43.989 E.01277
G1 X16.909 Y43.681 F36000
G1 F6000
G1 X16.891 Y43.66 E.00074
G3 X19.222 Y35.255 I3.108 J-3.664 E.29539
G1 X19.74 Y35.199 E.01407
G3 X17.305 Y43.974 I.26 J4.798 E.49214
G1 X16.941 Y43.705 E.01225
G1 X17.125 Y43.397 F36000
;TYPE:Outer wall
G1 F6000
G1 X17.122 Y43.388 E.00025
G3 X19.28 Y35.608 I2.877 J-3.391 E.27342
G1 X19.759 Y35.556 E.01302
G3 X17.506 Y43.679 I.241 J4.441 E.45554
G1 X17.157 Y43.42 E.01173
G1 E-.56 F1800
;WIPE_START
G1 F6000
G1 X17.122 Y43.388 E-.0114
G1 X16.769 Y43.061 E-.11559
G1 X16.464 Y42.702 E-.11301
;WIPE_END
G1 Z.6 F36000
G1 X20.231 Y74.485 Z.6
G1 Z.2
G1 E.8 F1800
;TYPE:Inner wall
G1 F6000
G1 X20.299 Y74.485 E.00183
G3 X19.106 Y74.549 I-.299 J5.511 E.90465
G1 X19.701 Y74.485 E.01616
G1 X20.191 Y74.485 E.01325
G1 X20.231 Y74.842 F36000
G1 F6000
G1 X20.28 Y74.842 E.0013
G3 X19.164 Y74.902 I-.28 J5.154 E.84608
G1 X19.72 Y74.842 E.01511
G1 X20.191 Y74.842 E.01273
G1 X20.231 Y75.199 F36000
G1 F6000
G1 X20.26 Y75.199 E.00078
G3 X19.222 Y75.255 I-.261 J4.798 E.78751
G1 X19.74 Y75.199 E.01407
G1 X20.191 Y75.199 E.01221
G1 X20.231 Y75.556 F36000
;TYPE:Outer wall
G1 F6000
G1 X20.241 Y75.556 E.00026
G3 X19.28 Y75.608 I-.241 J4.441 E.72894
G1 X19.759 Y75.556 E.01302
G1 X20.191 Y75.556 E.01168
G1 E-.56 F1800
;WIPE_START
G1 F6000
G1 X20.241 Y75.556 E-.01188
G1 X20.72 Y75.608 E-.11566
G1 X21.178 Y75.709 E-.11247
;WIPE_END
G1 Z.6 F36000
G1 X103.415 Y32.135 Z.6
G1 Z.2
G1 E.8 F1800
;TYPE:Inner wall
G1 F6000
G3 X108.579 Y40.024 I-3.428 J7.878 E.26966
G1 X108.579 Y79.976 E1.07945
G3 X99.976 Y88.579 I-8.593 J.01 E.36525
G1 X20.024 Y88.579 E2.16021
G3 X11.421 Y79.976 I-.01 J-8.593 E.36524
G1 X11.421 Y40.024 E1.07945
G3 X20.024 Y31.421 I8.593 J-.01 E.36524
G1 X20.497 Y31.421 E.01277
G1 X99.989 Y31.422 E2.14781
G3 X103.378 Y32.119 I-.003 J8.592 E.09413
M73 P0 R30
G1 X103.558 Y31.808 F36000
G1 F6000
G3 X108.936 Y40.018 I-3.571 J8.206 E.28069
G1 X108.936 Y79.982 E1.07978
G3 X99.982 Y88.936 I-8.95 J.004 E.38007
G1 X20.018 Y88.936 E2.16054
G3 X11.064 Y79.982 I-.004 J-8.95 E.38007
G1 X11.064 Y40.018 E1.07978
G3 X20.018 Y31.064 I8.95 J-.004 E.38007
G1 X20.497 Y31.064 E.01294
G1 X99.995 Y31.065 E2.14798
G3 X103.521 Y31.792 I-.009 J8.949 E.09793
G1 X103.7 Y31.48 F36000
G1 F6000
G3 X109.293 Y40.012 I-3.713 J8.533 E.29172
G1 X109.293 Y79.988 E1.08011
G3 X99.988 Y89.293 I-9.307 J-.002 E.39489
G1 X20.012 Y89.293 E2.16087
G3 X10.707 Y79.988 I.002 J-9.307 E.39489
G1 X10.707 Y40.012 E1.08011
G3 X20.012 Y30.707 I9.307 J.002 E.39489
G1 X20.497 Y30.707 E.0131
G1 X100.002 Y30.708 E2.14814
G3 X103.663 Y31.465 I-.015 J9.306 E.10172
G1 X103.835 Y31.145 F36000
;TYPE:Outer wall
G1 F6000
G1 X103.843 Y31.153 E.0003
G3 X109.65 Y40.006 I-3.856 J8.861 E.30275
G1 X109.65 Y79.994 E1.08044
G3 X99.994 Y89.65 I-9.664 J-.008 E.40972
G1 X20.006 Y89.65 E2.1612
G3 X10.35 Y79.994 I.008 J-9.664 E.40972
G1 X10.35 Y40.006 E1.08044
G3 X20.006 Y30.35 I9.664 J.008 E.40972
G1 X20.497 Y30.35 E.01327
G1 X100.008 Y30.35 E2.14831
G3 X103.23 Y30.911 I-.021 J9.663 E.08881
M73 P1 R30
G1 X103.797 Y31.131 E.01643
G1 E-.56 F1800
;WIPE_START
G1 F6000
G1 X103.843 Y31.153 E-.01212
G1 X104.451 Y31.439 E-.16137
G1 X104.693 Y31.574 E-.06651
;WIPE_END
G1 Z.6 F36000
G1 X18.373 Y31.69 Z.6
G1 Z.2
G1 E.8 F1800
;TYPE:Bottom surface
;WIDTH:0.401278
G1 F12600
G1 X99.991 Y31.69 E2.21314
G3 X102.399 Y32.048 I-.044 J8.564 E.06623
G1 X17.601 Y32.048 E2.29938
G2 X16.629 Y32.406 I2.893 J9.337 E.02809
G1 X103.37 Y32.406 E2.35204
G3 X104.078 Y32.765 I-2.319 J5.455 E.02152
G1 X15.922 Y32.765 E2.3904
G2 X15.342 Y33.123 I2.329 J4.423 E.01852
G1 X104.658 Y33.123 E2.42189
G3 X105.149 Y33.482 I-2.375 J3.766 E.01649
G1 X14.851 Y33.482 E2.4485
G2 X14.428 Y33.84 I2.408 J3.274 E.01505
G1 X105.572 Y33.84 E2.47146
G3 X105.943 Y34.198 I-2.434 J2.892 E.014
G1 X14.057 Y34.198 E2.49159
G2 X13.727 Y34.557 I2.455 J2.585 E.0132
G1 X18.044 Y34.557 E.11704
G3 X21.956 Y34.557 I1.956 J5.463 E.1082
G1 X98.044 Y34.557 E2.06318
G3 X101.956 Y34.557 I1.956 J5.463 E.1082
G1 X106.272 Y34.557 E.11703
G3 X106.567 Y34.915 I-2.524 J2.379 E.0126
G1 X102.766 Y34.915 E.10307
G1 X103.338 Y35.273 E.01831
G1 X106.832 Y35.273 E.09474
G1 X107.067 Y35.632 E.01162
G1 X103.798 Y35.632 E.08865
G1 X104.176 Y35.99 E.01413
G1 X107.273 Y35.99 E.08398
G3 X107.46 Y36.348 I-2.526 J1.543 E.01096
G1 X104.486 Y36.348 E.08064
G3 X104.754 Y36.707 I-1.514 J1.412 E.01216
G1 X107.629 Y36.707 E.07795
G1 X107.77 Y37.065 E.01045
G1 X104.99 Y37.065 E.0754
G1 X105.18 Y37.423 E.011
G1 X107.896 Y37.423 E.07365
G3 X108.008 Y37.782 I-2.564 J.998 E.01019
G1 X105.341 Y37.782 E.0723
G1 X105.484 Y38.14 E.01046
G1 X108.095 Y38.14 E.07079
G3 X108.169 Y38.499 I-2.583 J.719 E.00993
G1 X105.585 Y38.499 E.07006
G3 X105.673 Y38.857 I-1.604 J.583 E.01002
G1 X108.231 Y38.857 E.06936
G3 X108.268 Y39.215 I-2.6 J.454 E.00978
G1 X105.732 Y39.215 E.06878
G3 X105.768 Y39.574 I-1.629 J.349 E.00979
G1 X108.295 Y39.574 E.06852
G1 X108.308 Y39.932 E.00972
G1 X105.788 Y39.932 E.06833
G3 X105.776 Y40.29 I-1.653 J.124 E.00974
G1 X108.311 Y40.29 E.06874
G1 X108.311 Y40.649 E.00972
G1 X105.754 Y40.649 E.06934
G1 X105.695 Y41.007 E.00985
G1 X108.311 Y41.007 E.07093
G1 X108.311 Y41.365 E.00972
G1 X105.623 Y41.365 E.07289
G1 X105.523 Y41.724 E.01008
G1 X108.311 Y41.724 E.07559
G1 X108.311 Y42.082 E.00972
G1 X105.396 Y42.082 E.07905
G3 X105.252 Y42.44 I-1.719 J-.482 E.01049
G1 X108.311 Y42.44 E.08296
G1 X108.311 Y42.799 E.00972
G1 X105.062 Y42.799 E.08811
G3 X104.846 Y43.157 I-1.755 J-.811 E.01136
G1 X108.311 Y43.157 E.09395
G1 X108.311 Y43.516 E.00972
G1 X104.602 Y43.516 E.10058
G1 X104.297 Y43.874 E.01275
G1 X108.311 Y43.874 E.10884
G1 X108.311 Y44.232 E.00972
G1 X103.941 Y44.232 E.11849
G3 X103.517 Y44.591 I-1.86 J-1.771 E.01509
G1 X108.311 Y44.591 E.12999
G1 X108.311 Y44.949 E.00972
G1 X102.992 Y44.949 E.14423
G3 X102.301 Y45.307 I-1.993 J-2.996 E.02114
G1 X108.472 Y45.307 E.16732
G1 E-.65714 F1800
;WIPE_START
G1 F12600
G1 X107.472 Y45.307 E-.14286
;WIPE_END
G1 Z.6 F36000
G1 X97.601 Y34.915 Z.6
G1 Z.2
G1 E.8 F1800
G1 F12600
G1 X22.766 Y34.915 E2.02922
G1 X23.338 Y35.273 E.01831
G1 X96.662 Y35.273 E1.98823
G1 X96.202 Y35.632 E.0158
G1 X23.798 Y35.632 E1.96331
G1 X24.176 Y35.99 E.01413
G1 X95.824 Y35.99 E1.94279
G2 X95.514 Y36.348 I1.493 J1.604 E.01287
G1 X24.486 Y36.348 E1.92598
G3 X24.754 Y36.707 I-1.514 J1.412 E.01216
G1 X95.246 Y36.707 E1.91144
G2 X95.01 Y37.065 I1.529 J1.261 E.01165
G1 X24.99 Y37.065 E1.89867
G1 X25.18 Y37.423 E.011
G1 X94.82 Y37.423 E1.88837
G2 X94.659 Y37.782 I1.567 J.923 E.01068
G1 X25.341 Y37.782 E1.87959
G1 X25.484 Y38.14 E.01046
G1 X94.516 Y38.14 E1.87185
G2 X94.415 Y38.499 I1.597 J.643 E.01011
G1 X25.585 Y38.499 E1.86639
G3 X25.673 Y38.857 I-1.604 J.583 E.01002
G1 X94.327 Y38.857 E1.86162
G1 X94.268 Y39.215 E.00985
G1 X25.732 Y39.215 E1.85843
G3 X25.768 Y39.574 I-1.629 J.349 E.00979
G1 X94.232 Y39.574 E1.85643
G1 X94.212 Y39.932 E.00973
G1 X25.788 Y39.932 E1.85538
G3 X25.776 Y40.29 I-1.653 J.124 E.00974
G1 X94.224 Y40.29 E1.85603
G2 X94.246 Y40.649 I1.659 J.078 E.00975
G1 X25.754 Y40.649 E1.85722
G1 X25.695 Y41.007 E.00985
G1 X94.305 Y41.007 E1.86041
G2 X94.377 Y41.365 I1.684 J-.154 E.00993
G1 X25.623 Y41.365 E1.86434
G1 X25.523 Y41.724 E.01008
G1 X94.477 Y41.724 E1.86973
G2 X94.604 Y42.082 I1.711 J-.408 E.01034
G1 X25.396 Y42.082 E1.87665
G3 X25.252 Y42.44 I-1.72 J-.483 E.01049
G1 X94.748 Y42.44 E1.88446
G1 X94.938 Y42.799 E.011
G1 X25.062 Y42.799 E1.89476
G3 X24.846 Y43.157 I-1.755 J-.811 E.01136
G1 X95.154 Y43.157 E1.90644
G2 X95.398 Y43.516 I1.77 J-.946 E.01179
G1 X24.602 Y43.516 E1.91972
G1 X24.297 Y43.874 E.01275
G1 X95.703 Y43.874 E1.93622
G2 X96.059 Y44.232 I1.826 J-1.457 E.01372
G1 X23.941 Y44.232 E1.95552
G3 X23.517 Y44.591 I-1.86 J-1.771 E.01509
G1 X96.483 Y44.591 E1.97853
G2 X97.008 Y44.949 I1.91 J-2.236 E.01728
G1 X22.992 Y44.949 E2.00701
G3 X22.301 Y45.307 I-1.993 J-2.996 E.02114
G1 X98.143 Y45.307 E2.05652
G1 E-.65714 F1800
;WIPE_START
G1 F12600
G1 X97.143 Y45.307 E-.14286
;WIPE_END
G1 Z.6 F36000
G1 X17.601 Y34.915 Z.6
G1 Z.2
G1 E.8 F1800
G1 F12600
G1 X13.433 Y34.915 E.11302
G2 X13.168 Y35.273 I2.487 J2.117 E.0121
G1 X16.662 Y35.273 E.09474
G1 X16.202 Y35.632 E.0158
G1 X12.933 Y35.632 E.08865
G2 X12.727 Y35.99 I2.517 J1.687 E.01122
G1 X15.824 Y35.99 E.08398
G2 X15.514 Y36.348 I1.493 J1.604 E.01287
G1 X12.54 Y36.348 E.08064
G2 X12.371 Y36.707 I2.536 J1.415 E.01075
G1 X15.246 Y36.707 E.07795
G2 X15.01 Y37.065 I1.529 J1.261 E.01165
G1 X12.23 Y37.065 E.0754
G2 X12.104 Y37.423 I2.557 J1.096 E.0103
G1 X14.82 Y37.423 E.07365
G2 X14.659 Y37.782 I1.567 J.923 E.01068
G1 X11.992 Y37.782 E.0723
G1 X11.905 Y38.14 E.01
G1 X14.516 Y38.14 E.07079
G2 X14.415 Y38.499 I1.597 J.642 E.01011
G1 X11.831 Y38.499 E.07006
G1 X11.769 Y38.857 E.00986
G1 X14.327 Y38.857 E.06935
G1 X14.268 Y39.215 E.00985
G1 X11.732 Y39.215 E.06877
G2 X11.705 Y39.574 I2.555 J.377 E.00975
G1 X14.232 Y39.574 E.06852
G1 X14.212 Y39.932 E.00973
G1 X11.692 Y39.932 E.06833
G2 X11.689 Y40.29 I5.244 J.228 E.00972
G1 X14.224 Y40.29 E.06874
G2 X14.246 Y40.649 I1.659 J.078 E.00975
G1 X11.689 Y40.649 E.06934
G1 X11.689 Y41.007 E.00972
G1 X14.305 Y41.007 E.07093
G2 X14.377 Y41.365 I1.684 J-.154 E.00993
G1 X11.689 Y41.365 E.07289
G1 X11.689 Y41.724 E.00972
M73 P2 R30
G1 X14.477 Y41.724 E.07559
G2 X14.604 Y42.082 I1.711 J-.407 E.01034
G1 X11.689 Y42.082 E.07905
G1 X11.689 Y42.44 E.00972
G1 X14.748 Y42.44 E.08296
G1 X14.938 Y42.799 E.011
G1 X11.689 Y42.799 E.08811
G1 X11.689 Y43.157 E.00972
G1 X15.154 Y43.157 E.09395
G2 X15.398 Y43.516 I1.77 J-.947 E.01179
G1 X11.689 Y43.516 E.10058
G1 X11.689 Y43.874 E.00972
G1 X15.703 Y43.874 E.10884
G2 X16.059 Y44.232 I1.826 J-1.457 E.01372
G1 X11.689 Y44.232 E.11849
G1 X11.689 Y44.591 E.00972
G1 X16.483 Y44.591 E.12999
G2 X17.008 Y44.949 I1.91 J-2.236 E.01728
G1 X11.689 Y44.949 E.14423
G1 X11.689 Y45.307 E.00972
G1 X18.143 Y45.307 E.17501
G1 E-.65714 F1800
;WIPE_START
G1 F12600
G1 X17.143 Y45.307 E-.14286
;WIPE_END
G1 Z.6 F36000
G1 X11.528 Y45.666 Z.6
G1 Z.2
G1 E.8 F1800
G1 F12600
G1 X108.311 Y45.666 E2.62434
G1 X108.311 Y46.024 E.00972
G1 X11.689 Y46.024 E2.61998
G1 X11.689 Y46.382 E.00972
G1 X108.311 Y46.382 E2.61998
G1 X108.311 Y46.741 E.00972
G1 X11.689 Y46.741 E2.61998
G1 X11.689 Y47.099 E.00972
G1 X108.311 Y47.099 E2.61998
G1 X108.311 Y47.457 E.00972
G1 X11.689 Y47.457 E2.61998
G1 X11.689 Y47.816 E.00972
G1 X108.311 Y47.816 E2.61998
G1 X108.311 Y48.174 E.00972
G1 X11.689 Y48.174 E2.61998
G1 X11.689 Y48.533 E.00972
G1 X108.311 Y48.533 E2.61998
G1 X108.311 Y48.891 E.00972
G1 X11.689 Y48.891 E2.61998
G1 X11.689 Y49.249 E.00972
G1 X108.311 Y49.249 E2.61998
G1 X108.311 Y49.608 E.00972
G1 X11.689 Y49.608 E2.61998
G1 X11.689 Y49.966 E.00972
G1 X108.311 Y49.966 E2.61998
G1 X108.311 Y50.324 E.00972
G1 X11.689 Y50.324 E2.61998
G1 X11.689 Y50.683 E.00972
G1 X108.311 Y50.683 E2.61998
G1 X108.311 Y51.041 E.00972
G1 X11.689 Y51.041 E2.61998
G1 X11.689 Y51.399 E.00972
G1 X108.311 Y51.399 E2.61998
G1 X108.311 Y51.758 E.00972
G1 X11.689 Y51.758 E2.61998
G1 X11.689 Y52.116 E.00972
G1 X108.311 Y52.116 E2.61998
G1 X108.311 Y52.475 E.00972
G1 X11.689 Y52.475 E2.61998
G1 X11.689 Y52.833 E.00972
G1 X108.311 Y52.833 E2.61998
G1 X108.311 Y53.191 E.00972
G1 X11.689 Y53.191 E2.61998
G1 X11.689 Y53.55 E.00972
G1 X108.311 Y53.55 E2.61998
G1 X108.311 Y53.908 E.00972
G1 X11.689 Y53.908 E2.61998
G1 X11.689 Y54.266 E.00972
G1 X108.311 Y54.266 E2.61998
G1 X108.311 Y54.625 E.00972
G1 X11.689 Y54.625 E2.61998
G1 X11.689 Y54.983 E.00972
G1 X108.311 Y54.983 E2.61998
G1 X108.311 Y55.341 E.00972
G1 X11.689 Y55.341 E2.61998
G1 X11.689 Y55.7 E.00972
G1 X108.311 Y55.7 E2.61998
G1 X108.311 Y56.058 E.00972
G1 X11.689 Y56.058 E2.61998
G1 X11.689 Y56.416 E.00972
G1 X108.311 Y56.416 E2.61998
G1 X108.311 Y56.775 E.00972
G1 X11.689 Y56.775 E2.61998
G1 X11.689 Y57.133 E.00972
G1 X108.311 Y57.133 E2.61998
G1 X108.311 Y57.492 E.00972
G1 X11.689 Y57.492 E2.61998
G1 X11.689 Y57.85 E.00972
G1 X108.311 Y57.85 E2.61998
G1 X108.311 Y58.208 E.00972
G1 X11.689 Y58.208 E2.61998
G1 X11.689 Y58.567 E.00972
G1 X108.311 Y58.567 E2.61998
G1 X108.311 Y58.925 E.00972
M73 P3 R30
G1 X11.689 Y58.925 E2.61998
G1 X11.689 Y59.283 E.00972
G1 X108.311 Y59.283 E2.61998
G1 X108.311 Y59.642 E.00972
G1 X11.689 Y59.642 E2.61998
