; HEADER_BLOCK_START
; generated by OrcaSlicer 2.3.2-beta2 on 2026-02-28 at 15:56:33
; total layer number: 75
; filament_density: 1.04
; filament_diameter: 1.75
; max_z_height: 15.00
; filament: 1
; HEADER_BLOCK_END

; THUMBNAIL_BLOCK_START

;
; THUMBNAIL_BLOCK_END

; THUMBNAIL_BLOCK_START

;
; THUMBNAIL_BLOCK_END

; external perimeters extrusion width = 0.40mm
; perimeters extrusion width = 0.40mm
; infill extrusion width = 0.40mm
; solid infill extrusion width = 0.40mm
; top infill extrusion width = 0.40mm
; first layer extrusion width = 0.40mm

; EXECUTABLE_BLOCK_START


; Pre-Processed for Cancel-Object support by preprocess_cancellation v0.2.0
; 1 known objects
EXCLUDE_OBJECT_DEFINE NAME=skr_pico_mount_stl_id_87_copy_0 CENTER=60.041,71.924 POLYGON=[[23.551,20.063],[23.551,99.938],[96.02,99.938],[96.02,20.063]]
M73 P0 R29
;TYPE:Custom
PRINT_START EXTRUDER_TEMP=255 BED_TEMP=105
G90
G21
M83 ; use relative distances for extrusion
; Filament gcode
SET_PRESSURE_ADVANCE ADVANCE=0.04; Override pressure advance value
M106 S0
;LAYER_CHANGE
;Z:0.2
;HEIGHT:0.2
;BEFORE_LAYER_CHANGE
;0.2
G92 E0

G1 E-.8 F1800
;AFTER_LAYER_CHANGE
;0.2
;_SET_FAN_SPEED_CHANGING_LAYER
SET_VELOCITY_LIMIT ACCEL=10000 ACCEL_TO_DECEL=10000
SET_VELOCITY_LIMIT SQUARE_CORNER_VELOCITY=9
; printing object skr_pico_mount.stl id:87 copy 0
EXCLUDE_OBJECT_START NAME=skr_pico_mount_stl_id_87_copy_0
G1 Z.6 F36000
G1 X91.722 Y74.469
G1 Z.6
G1 Z.2
G1 E.8 F1800
;TYPE:Outer wall
;WIDTH:0.4
G1 F6000
G1 X88.924 Y94.97 E.55906
G1 X87.873 Y95.888 E.03771
G1 X28.59 Y95.888 E1.60176
G1 X27.601 Y94.899 E.03779
G1 X27.601 Y81.582 E.35983
G1 X34.901 Y74.897 E.26744
G2 X37.888 Y72.273 I.279 J-2.694 E.12061
G1 X70.447 Y44.914 E1.14906
G3 X72.224 Y44.272 I2.013 J2.792 E.05172
G3 X75.253 Y45.859 I.177 J3.347 E.09695
G1 X90.686 Y71.423 E.80681
G2 X91.69 Y74.445 I2.643 J.8 E.09172
G1 E-.56 F1800
;WIPE_START
G1 F6000
G1 X91.556 Y75.436 E-.24
;WIPE_END
G1 Z.6 F36000
G1 X91.469 Y25.696 Z.6
G1 Z.2
G1 E.8 F1800
;TYPE:Inner wall
G1 F6000
G1 X78.878 Y36.349 E.44563
G2 X77.678 Y45.176 I4.358 J5.088 E.2633
G1 X92.317 Y69.426 E.76534
G2 X91.151 Y70.121 I1.031 J3.056 E.03696
G1 X76.154 Y45.278 E.78407
G2 X69.808 Y44.052 I-3.738 J2.312 E.19617
G1 X37.859 Y70.899 E1.12756
G2 X37.097 Y69.936 I-2.854 J1.475 E.03337
G1 X36.986 Y69.859 E.00366
G1 X64.65 Y46.613 E.9763
G2 X63.832 Y39.083 I-3.003 J-3.483 E.24045
G1 X37.433 Y25.254 E.80524
G2 X38.07 Y24.055 I-2.489 J-2.093 E.03695
G1 X68.362 Y39.924 E.92396
G2 X73.433 Y39.214 I1.964 J-4.434 E.14574
G1 X90.547 Y24.62 E.6077
G1 X90.863 Y25.112 E.01581
G2 X91.436 Y25.673 I2.071 J-1.544 E.02174
G1 X92.073 Y25.652 F36000
G1 F6000
G1 X79.115 Y36.617 E.45864
G2 X77.982 Y44.989 I4.122 J4.82 E.24981
G1 X92.876 Y69.661 E.77867
G2 X91.099 Y70.724 I.394 J2.677 E.05744
G1 X75.854 Y45.472 E.797
G2 X70.021 Y44.339 I-3.437 J2.117 E.18039
G1 X37.71 Y71.49 E1.1403
G2 X36.87 Y70.213 I-2.555 J.767 E.04188
G1 X36.398 Y69.887 E.01551
G1 X64.412 Y46.347 E.98865
G2 X63.657 Y39.395 I-2.764 J-3.217 E.22212
G1 X36.827 Y25.339 E.81837
G2 X37.807 Y23.514 I-1.726 J-2.102 E.05743
G1 X68.509 Y39.598 E.93649
G2 X73.208 Y38.936 I1.817 J-4.107 E.13508
G1 X90.697 Y24.023 E.621
G2 X91.762 Y25.473 I2.757 J-.909 E.04941
G1 X92.038 Y25.632 E.00863
G1 X92.684 Y25.603 F36000
G1 F6000
G1 X79.351 Y36.884 E.47188
G2 X78.286 Y44.802 I3.886 J4.553 E.23632
G1 X93.491 Y69.988 E.7949
G2 X92.243 Y70.222 I-.119 J2.807 E.03462
G2 X91.123 Y71.455 I.998 J2.031 E.04609
G1 X75.553 Y45.665 E.81396
G2 X70.234 Y44.627 I-3.136 J1.922 E.16461
G1 X37.475 Y72.154 E1.15613
G2 X35.675 Y70.028 I-2.298 J.12 E.08085
G1 X64.174 Y46.08 E1.00579
G2 X63.482 Y39.706 I-2.524 J-2.95 E.20379
G1 X36.086 Y25.354 E.83565
G2 X37.425 Y22.911 I-.887 J-2.075 E.08114
G1 X68.657 Y39.272 E.95262
G2 X72.983 Y38.658 I1.671 J-3.779 E.12441
G1 X90.969 Y23.321 E.63865
G2 X92.789 Y25.514 I2.26 J-.024 E.0833
G1 X92.714 Y25.577 E.00265
G1 E-.56 F1800
;WIPE_START
G1 F6000
G1 X91.951 Y26.223 E-.24
;WIPE_END
G1 Z.6 F36000
G1 X92.255 Y21.677 Z.6
G1 Z.2
G1 E.8 F1800
;TYPE:Outer wall
G1 F6000
G1 X92.394 Y21.597 E.00433
G3 X93.046 Y21.415 I.934 J2.087 E.01835
G3 X92.174 Y21.723 I.176 J1.89 E.29706
G1 X92.22 Y21.697 E.00145
G1 E-.56 F1800
;WIPE_START
G1 F6000
G1 X92.394 Y21.597 E-.04807
G1 X92.68 Y21.485 E-.07375
G1 X93.046 Y21.415 E-.08936
G1 X93.166 Y21.411 E-.02882
;WIPE_END
G1 Z.6 F36000
G1 X92.259 Y70.625 Z.6
G1 Z.2
G1 E.8 F1800
G1 F6000
G1 X92.398 Y70.545 E.00433
G3 X93.05 Y70.363 I.934 J2.088 E.01835
G3 X92.177 Y70.671 I.176 J1.89 E.29706
G1 X92.224 Y70.645 E.00145
G1 E-.56 F1800
;WIPE_START
G1 F6000
G1 X92.398 Y70.545 E-.04807
G1 X92.684 Y70.433 E-.07374
G1 X93.05 Y70.363 E-.08936
G1 X93.17 Y70.358 E-.02883
;WIPE_END
G1 Z.6 F36000
G1 X32.62 Y73.693 Z.6
G1 Z.2
G1 E.8 F1800
;TYPE:Inner wall
G1 F6000
G1 X32.846 Y74.045 E.0113
G2 X33.536 Y74.695 I2.318 J-1.767 E.02572
G1 X26.53 Y81.11 E.25666
G1 X26.53 Y95.343 E.38456
G1 X28.147 Y96.96 E.06176
G1 X88.274 Y96.959 E1.6246
G1 X89.931 Y95.513 E.05942
G1 X92.707 Y75.174 E.55464
G1 X92.848 Y75.204 E.00391
G2 X94.088 Y75.093 I.342 J-3.161 E.03385
G1 X90.919 Y98.317 E.6333
G1 X25.173 Y98.317 E1.7764
G1 X25.173 Y80.513 E.48104
G1 X32.591 Y73.72 E.27177
G1 X32.741 Y73.098 F36000
G1 F6000
G1 X32.854 Y73.363 E.00778
G2 X34.135 Y74.63 I2.468 J-1.214 E.04961
G1 X26.887 Y81.267 E.26554
G1 X26.887 Y95.195 E.37632
G1 X28.294 Y96.602 E.05377
G1 X88.14 Y96.602 E1.61699
G1 X89.596 Y95.332 E.05218
G1 X92.405 Y74.744 E.56143
G2 X94.526 Y74.527 I.808 J-2.576 E.05921
G1 X91.23 Y98.674 E.65848
G1 X24.815 Y98.674 E1.79447
G1 X24.815 Y80.356 E.49494
M73 P1 R29
G1 X32.711 Y73.125 E.28927
G1 X32.938 Y72.433 F36000
G1 F6000
G1 X33.07 Y72.96 E.01467
G2 X34.847 Y74.462 I2.137 J-.726 E.06607
G1 X27.244 Y81.425 E.27855
G1 X27.244 Y95.047 E.36807
G1 X28.442 Y96.245 E.04578
G1 X88.007 Y96.245 E1.60937
G1 X89.26 Y95.151 E.04495
G1 X92.114 Y74.233 E.57042
G2 X93.308 Y74.511 I1.195 J-2.43 E.03341
G2 X94.835 Y73.835 I-.109 J-2.306 E.04616
G1 X94.971 Y73.904 E.00412
G1 X91.542 Y99.031 E.68521
G1 X24.458 Y99.031 E1.81254
G1 X24.458 Y80.198 E.50883
G1 X32.909 Y72.46 E.30959
G1 E-.56 F1800
;WIPE_START
G1 F6000
G1 X33.07 Y72.96 E-.12603
G1 X33.222 Y73.308 E-.0912
G1 X33.273 Y73.388 E-.02277
;WIPE_END
G1 Z.6 F36000
G1 X34.239 Y70.61 Z.6
G1 Z.2
G1 E.8 F1800
;TYPE:Outer wall
G1 F6000
G1 X34.377 Y70.53 E.00433
G3 X35.029 Y70.348 I.934 J2.088 E.01835
G3 X34.157 Y70.655 I.176 J1.89 E.29706
G1 X34.204 Y70.629 E.00145
G1 E-.56 F1800
;WIPE_START
G1 F6000
G1 X34.377 Y70.53 E-.04807
G1 X34.663 Y70.417 E-.07374
G1 X35.029 Y70.348 E-.08934
G1 X35.149 Y70.343 E-.02885
;WIPE_END
G1 Z.6 F36000
G1 X34.232 Y21.652 Z.6
G1 Z.2
G1 E.8 F1800
G1 F6000
G1 X34.371 Y21.572 E.00433
G3 X35.023 Y21.39 I.934 J2.09 E.01835
G3 X34.15 Y21.698 I.176 J1.89 E.29706
G1 X34.197 Y21.671 E.00145
G1 E-.56 F1800
;WIPE_START
G1 F6000
G1 X34.371 Y21.572 E-.04808
G1 X34.657 Y21.46 E-.07375
G1 X35.023 Y21.39 E-.08934
G1 X35.143 Y21.385 E-.02883
;WIPE_END
G1 Z.6 F36000
G1 X93 Y25.968 Z.6
G1 Z.2
G1 E.8 F1800
G1 F6000
G1 X92.814 Y25.96 E.00503
G1 X79.588 Y37.152 E.46813
G2 X78.59 Y44.614 I3.65 J4.286 E.22283
G1 X93.682 Y69.614 E.789
G3 X95.331 Y73.909 I-.478 J2.647 E.1491
G1 X91.854 Y99.388 E.6948
G1 X24.101 Y99.388 E1.83061
G1 X24.101 Y80.041 E.52273
G1 X32.534 Y72.319 E.30895
G3 X35.636 Y69.594 I2.705 J-.049 E.1269
G1 X63.937 Y45.813 E.99877
G2 X63.307 Y40.018 I-2.285 J-2.684 E.18545
G1 X36.143 Y25.787 E.82857
G3 X32.671 Y22.445 I-.915 J-2.524 E.16163
G3 X35.402 Y20.622 I2.531 J.835 E.09558
G3 X37.822 Y22.716 I-.219 J2.698 E.09251
G1 X68.804 Y38.946 E.94502
G2 X72.759 Y38.38 I1.524 J-3.451 E.11375
G1 X90.519 Y23.236 E.63063
G3 X94.911 Y21.238 I2.693 J.094 E.16149
G3 X93.225 Y25.978 I-1.715 J2.059 E.1764
G1 X93.04 Y25.97 E.00501
G1 X92.948 Y25.613 F36000
;TYPE:Gap infill
;WIDTH:0.453958
G1 F6000
G2 X94.382 Y25.271 I.067 J-2.895 E.04634
G2 X91.39 Y21.927 I-1.167 J-1.966 E.25098
;WIDTH:0.484115
G2 X90.994 Y22.776 I2.04 J1.469 E.03146
G1 X90.701 Y23.215 E.01762
G1 X90.791 Y23.708 F36000
;WIDTH:0.0909195
G1 F6000
G1 X90.828 Y23.819 E.00042
G1 E-.76501 F1800
;WIPE_START
G1 F6000
G1 X90.791 Y23.708 E-.03499
;WIPE_END
G1 Z.6 F36000
G1 X93.576 Y69.77 Z.6
G1 Z.2
G1 E.8 F1800
;WIDTH:0.411546
G1 F6000
G1 X93.997 Y70.104 E.015
;WIDTH:0.452063
G3 X94.992 Y73.714 I-.771 J2.155 E.13579
G1 E-.56 F1800
;WIPE_START
G1 F6000
G1 X95.176 Y73.447 E-.07788
G1 X95.336 Y73.14 E-.08307
G1 X95.435 Y72.825 E-.07905
;WIPE_END
G1 Z.6 F36000
G1 X93.883 Y75.803 Z.6
G1 Z.2
G1 E.8 F1800
;TYPE:Bottom surface
;WIDTH:0.401703
G1 F12600
G1 X92.891 Y75.803 E.02692
G1 X92.842 Y76.162 E.00983
G1 X93.672 Y76.162 E.02252
G1 X93.623 Y76.521 E.00983
G1 X92.793 Y76.521 E.02252
G1 X92.744 Y76.88 E.00983
G1 X93.574 Y76.88 E.02252
G1 X93.525 Y77.238 E.00983
G1 X92.695 Y77.238 E.02252
G1 X92.646 Y77.597 E.00983
G1 X93.476 Y77.597 E.02252
G1 X93.427 Y77.956 E.00983
G1 X92.597 Y77.956 E.02252
G1 X92.548 Y78.315 E.00983
G1 X93.378 Y78.315 E.02252
G1 X93.329 Y78.674 E.00983
G1 X92.499 Y78.674 E.02252
G1 X92.451 Y79.032 E.00983
G1 X93.28 Y79.032 E.02252
G1 X93.231 Y79.391 E.00983
G1 X92.402 Y79.391 E.02252
G1 X92.353 Y79.75 E.00983
G1 X93.182 Y79.75 E.02252
G1 X93.133 Y80.109 E.00983
G1 X92.304 Y80.109 E.02252
G1 X92.255 Y80.468 E.00983
G1 X93.084 Y80.468 E.02252
G1 X93.035 Y80.826 E.00983
G1 X92.206 Y80.826 E.02252
G1 X92.157 Y81.185 E.00983
G1 X92.986 Y81.185 E.02252
G1 X92.937 Y81.544 E.00983
G1 X92.108 Y81.544 E.02252
G1 X92.059 Y81.903 E.00983
G1 X92.888 Y81.903 E.02252
G1 X92.839 Y82.261 E.00983
G1 X92.01 Y82.261 E.02252
G1 X91.961 Y82.62 E.00983
G1 X92.79 Y82.62 E.02252
G1 X92.742 Y82.979 E.00983
G1 X91.912 Y82.979 E.02252
G1 X91.863 Y83.338 E.00983
G1 X92.693 Y83.338 E.02252
G1 X92.644 Y83.697 E.00983
G1 X91.814 Y83.697 E.02252
G1 X91.765 Y84.055 E.00983
G1 X92.595 Y84.055 E.02252
G1 X92.546 Y84.414 E.00983
G1 X91.716 Y84.414 E.02252
G1 X91.667 Y84.773 E.00983
G1 X92.497 Y84.773 E.02252
G1 X92.448 Y85.132 E.00983
G1 X91.618 Y85.132 E.02252
G1 X91.569 Y85.49 E.00983
G1 X92.399 Y85.49 E.02252
G1 X92.35 Y85.849 E.00983
G1 X91.52 Y85.849 E.02252
G1 X91.471 Y86.208 E.00983
G1 X92.301 Y86.208 E.02252
G1 X92.252 Y86.567 E.00983
G1 X91.422 Y86.567 E.02252
G1 X91.373 Y86.926 E.00983
G1 X92.203 Y86.926 E.02252
G1 X92.154 Y87.284 E.00983
G1 X91.324 Y87.284 E.02252
G1 X91.275 Y87.643 E.00983
G1 X92.105 Y87.643 E.02252
G1 X92.056 Y88.002 E.00983
G1 X91.227 Y88.002 E.02252
G1 X91.178 Y88.361 E.00983
G1 X92.007 Y88.361 E.02252
G1 X91.958 Y88.72 E.00983
G1 X91.129 Y88.72 E.02252
G1 X91.08 Y89.078 E.00983
G1 X91.909 Y89.078 E.02252
G1 X91.86 Y89.437 E.00983
G1 X91.031 Y89.437 E.02252
G1 X90.982 Y89.796 E.00983
G1 X91.811 Y89.796 E.02252
G1 X91.762 Y90.155 E.00983
G1 X90.933 Y90.155 E.02252
G1 X90.884 Y90.513 E.00983
G1 X91.713 Y90.513 E.02252
G1 X91.664 Y90.872 E.00983
G1 X90.835 Y90.872 E.02252
G1 X90.786 Y91.231 E.00983
G1 X91.615 Y91.231 E.02252
G1 X91.566 Y91.59 E.00983
G1 X90.737 Y91.59 E.02252
G1 X90.688 Y91.949 E.00983
G1 X91.517 Y91.949 E.02252
G1 X91.469 Y92.307 E.00983
G1 X90.639 Y92.307 E.02252
G1 X90.59 Y92.666 E.00983
G1 X91.42 Y92.666 E.02252
G1 X91.371 Y93.025 E.00983
G1 X90.541 Y93.025 E.02252
G1 X90.492 Y93.384 E.00983
G1 X91.322 Y93.384 E.02252
G1 X91.273 Y93.743 E.00983
G1 X90.443 Y93.743 E.02252
G1 X90.394 Y94.101 E.00983
G1 X91.224 Y94.101 E.02252
G1 X91.175 Y94.46 E.00983
G1 X90.345 Y94.46 E.02252
G1 X90.296 Y94.819 E.00983
G1 X91.126 Y94.819 E.02252
G1 X91.077 Y95.178 E.00983
G1 X90.247 Y95.178 E.02252
G1 X90.198 Y95.536 E.00983
G1 X91.028 Y95.536 E.02252
G1 X90.979 Y95.895 E.00983
G1 X89.9 Y95.895 E.02928
G1 X89.489 Y96.254 E.01481
G1 X90.93 Y96.254 E.03911
G1 X90.881 Y96.613 E.00983
G1 X88.834 Y96.613 E.05557
G1 E-.65714 F1800
;WIPE_START
G1 F12600
G1 X89.834 Y96.613 E-.14286
;WIPE_END
G1 Z.6 F36000
G1 X32.994 Y74.368 Z.6
G1 Z.2
G1 E.8 F1800
G1 F12600
G1 X32.279 Y74.368 E.01942
G1 X31.887 Y74.727 E.01442
G1 X33.104 Y74.727 E.03304
G1 X32.712 Y75.086 E.01442
G1 X31.495 Y75.086 E.03304
G1 X31.104 Y75.445 E.01442
G1 X32.321 Y75.445 E.03304
G1 X31.929 Y75.803 E.01442
G1 X30.712 Y75.803 E.03304
G1 X30.32 Y76.162 E.01442
G1 X31.537 Y76.162 E.03304
G1 X31.145 Y76.521 E.01442
G1 X29.928 Y76.521 E.03304
G1 X29.536 Y76.88 E.01442
G1 X30.753 Y76.88 E.03304
G1 X30.362 Y77.238 E.01442
G1 X29.145 Y77.238 E.03304
G1 X28.753 Y77.597 E.01442
G1 X29.97 Y77.597 E.03304
G1 X29.578 Y77.956 E.01442
G1 X28.361 Y77.956 E.03304
G1 X27.969 Y78.315 E.01442
G1 X29.186 Y78.315 E.03304
G1 X28.794 Y78.674 E.01442
G1 X27.577 Y78.674 E.03304
G1 X27.186 Y79.032 E.01442
G1 X28.403 Y79.032 E.03304
G1 X28.011 Y79.391 E.01442
G1 X26.794 Y79.391 E.03304
G1 X26.402 Y79.75 E.01442
G1 X27.619 Y79.75 E.03304
G1 X27.227 Y80.109 E.01442
G1 X26.01 Y80.109 E.03304
G1 X25.618 Y80.468 E.01442
G1 X26.835 Y80.468 E.03304
G1 X26.444 Y80.826 E.01442
G1 X25.44 Y80.826 E.02724
G1 X25.44 Y81.185 E.00974
G1 X26.262 Y81.185 E.02231
G1 X26.262 Y81.544 E.00974
G1 X25.44 Y81.544 E.02231
G1 X25.44 Y81.903 E.00974
G1 X26.262 Y81.903 E.02231
G1 X26.262 Y82.261 E.00974
G1 X25.44 Y82.261 E.02231
G1 X25.44 Y82.62 E.00974
G1 X26.262 Y82.62 E.02231
G1 X26.262 Y82.979 E.00974
G1 X25.44 Y82.979 E.02231
G1 X25.44 Y83.338 E.00974
G1 X26.262 Y83.338 E.02231
G1 X26.262 Y83.697 E.00974
G1 X25.44 Y83.697 E.02231
G1 X25.44 Y84.055 E.00974
G1 X26.262 Y84.055 E.02231
G1 X26.262 Y84.414 E.00974
G1 X25.44 Y84.414 E.02231
G1 X25.44 Y84.773 E.00974
G1 X26.262 Y84.773 E.02231
G1 X26.262 Y85.132 E.00974
G1 X25.44 Y85.132 E.02231
G1 X25.44 Y85.49 E.00974
G1 X26.262 Y85.49 E.02231
G1 X26.262 Y85.849 E.00974
G1 X25.44 Y85.849 E.02231
G1 X25.44 Y86.208 E.00974
G1 X26.262 Y86.208 E.02231
G1 X26.262 Y86.567 E.00974
G1 X25.44 Y86.567 E.02231
G1 X25.44 Y86.926 E.00974
G1 X26.262 Y86.926 E.02231
G1 X26.262 Y87.284 E.00974
G1 X25.44 Y87.284 E.02231
G1 X25.44 Y87.643 E.00974
G1 X26.262 Y87.643 E.02231
G1 X26.262 Y88.002 E.00974
G1 X25.44 Y88.002 E.02231
G1 X25.44 Y88.361 E.00974
G1 X26.262 Y88.361 E.02231
G1 X26.262 Y88.72 E.00974
G1 X25.44 Y88.72 E.02231
G1 X25.44 Y89.078 E.00974
G1 X26.262 Y89.078 E.02231
G1 X26.262 Y89.437 E.00974
G1 X25.44 Y89.437 E.02231
G1 X25.44 Y89.796 E.00974
G1 X26.262 Y89.796 E.02231
G1 X26.262 Y90.155 E.00974
G1 X25.44 Y90.155 E.02231
G1 X25.44 Y90.513 E.00974
G1 X26.262 Y90.513 E.02231
G1 X26.262 Y90.872 E.00974
G1 X25.44 Y90.872 E.02231
G1 X25.44 Y91.231 E.00974
G1 X26.262 Y91.231 E.02231
G1 X26.262 Y91.59 E.00974
G1 X25.44 Y91.59 E.02231
G1 X25.44 Y91.949 E.00974
G1 X26.262 Y91.949 E.02231
G1 X26.262 Y92.307 E.00974
G1 X25.44 Y92.307 E.02231
G1 X25.44 Y92.666 E.00974
G1 X26.262 Y92.666 E.02231
G1 X26.262 Y93.025 E.00974
G1 X25.44 Y93.025 E.02231
G1 X25.44 Y93.384 E.00974
G1 X26.262 Y93.384 E.02231
G1 X26.262 Y93.742 E.00974
G1 X25.44 Y93.742 E.02231
G1 X25.44 Y94.101 E.00974
G1 X26.262 Y94.101 E.02231
G1 X26.262 Y94.46 E.00974
G1 X25.44 Y94.46 E.02231
G1 X25.44 Y94.819 E.00974
G1 X26.262 Y94.819 E.02231
G1 X26.262 Y95.178 E.00974
G1 X25.44 Y95.178 E.02231
G1 X25.44 Y95.536 E.00974
G1 X26.345 Y95.536 E.02455
G1 X26.703 Y95.895 E.01378
G1 X25.44 Y95.895 E.03429
G1 X25.44 Y96.254 E.00974
G1 X27.062 Y96.254 E.04403
G1 X27.421 Y96.613 E.01378
G1 X25.44 Y96.613 E.05377
G1 X25.44 Y96.972 E.00974
G1 X27.78 Y96.972 E.06351
G1 X28.036 Y97.227 E.00982
G1 X88.375 Y97.227 E1.63809
G1 X88.667 Y96.972 E.01054
G1 X90.832 Y96.972 E.05877
G1 X90.783 Y97.33 E.00983
G1 X25.44 Y97.33 E1.77392
G1 X25.44 Y97.689 E.00974
G1 X90.734 Y97.689 E1.77259
G1 X90.685 Y98.048 E.00983
G1 X25.28 Y98.048 E1.77563
G1 E-.65714 F1800
;WIPE_START
G1 F12600
G1 X26.28 Y98.048 E-.14286
;WIPE_END
G1 Z.6 F36000
G1 X34.871 Y74.718 Z.6
G1 Z.2
G1 E.8 F1800
;TYPE:Gap infill
;WIDTH:0.450438
G1 F6000
G1 X35.338 Y74.524 E.0156
G2 X37.435 Y72.745 I-.146 J-2.297 E.09086
G1 X37.449 Y72.674 E.00223
;WIDTH:0.431056
G1 X37.429 Y72.649 E.00094
;WIDTH:0.38345
G1 X37.409 Y72.625 E.00082
;WIDTH:0.335844
G1 X37.388 Y72.6 E.00071
;WIDTH:0.288238
G1 X37.368 Y72.576 E.00059
;WIDTH:0.240632
G1 X37.348 Y72.551 E.00048
;WIDTH:0.193026
G1 X37.327 Y72.526 E.00036
;WIDTH:0.14542
G1 X37.307 Y72.502 E.00025
;WIDTH:0.121617
