; HEADER_BLOCK_START
; generated by OrcaSlicer 2.3.2-rc on 2026-03-04 at 16:37:37
; total layer number: 91
; filament_density: 1.04
; filament_diameter: 1.75
; max_z_height: 28.68
; filament: 1
; HEADER_BLOCK_END

; THUMBNAIL_BLOCK_START

;
; THUMBNAIL_BLOCK_END

; THUMBNAIL_BLOCK_START

;
; THUMBNAIL_BLOCK_END

; external perimeters extrusion width = 0.70mm
; perimeters extrusion width = 0.40mm
; infill extrusion width = 0.40mm
; solid infill extrusion width = 0.40mm
; top infill extrusion width = 0.40mm
; first layer extrusion width = 0.40mm

; EXECUTABLE_BLOCK_START


; Pre-Processed for Cancel-Object support by preprocess_cancellation v0.2.0
; 1 known objects
EXCLUDE_OBJECT_DEFINE NAME=SpeedTestStructure_drc_id_0_copy_0 CENTER=61.929,61.137 POLYGON=[[5.679,10.179],[5.679,109.821],[114.319,109.821],[114.319,10.179]]
M73 P0 R9
;TYPE:Custom
PRINT_START EXTRUDER_TEMP=255 BED_TEMP=105
G90
G21
M83 ; use relative distances for extrusion
; Filament gcode
SET_PRESSURE_ADVANCE ADVANCE=0.04; Override pressure advance value
M106 S0
;LAYER_CHANGE
;Z:0.2
;HEIGHT:0.2
;BEFORE_LAYER_CHANGE
;0.2
G92 E0

G1 Z.2 F36000
;AFTER_LAYER_CHANGE
;0.2
;_SET_FAN_SPEED_CHANGING_LAYER
SET_VELOCITY_LIMIT ACCEL=10000 ACCEL_TO_DECEL=10000
SET_VELOCITY_LIMIT SQUARE_CORNER_VELOCITY=9
; printing object SpeedTestStructure.drc id:0 copy 0
EXCLUDE_OBJECT_START NAME=SpeedTestStructure_drc_id_0_copy_0
G1 E-.8 F1800
G1 Z.6 F36000
G1 X13.019 Y13.606
G1 Z.2
G1 Z.2
G1 E.8 F1800
;TYPE:Brim
;WIDTH:0.4
G1 F6000
G1 X13.664 Y13.06 E.02286
G1 X14.196 Y12.654 E.01806
G1 X14.745 Y12.274 E.01807
G1 X15.313 Y11.92 E.01806
G1 X16.315 Y11.384 E.03072
G1 X16.931 Y11.107 E.01823
G1 X17.435 Y10.91 E.01462
G1 X18.077 Y10.695 E.01829
G1 X18.535 Y10.565 E.01287
G1 X19.199 Y10.411 E.01842
G1 X19.727 Y10.316 E.01449
G1 X20.404 Y10.232 E.01842
G1 X20.887 Y10.196 E.0131
G1 X21.502 Y10.179 E.01663
G1 X104.086 Y10.181 E2.23134
G1 X104.64 Y10.206 E.01498
G1 X105.081 Y10.252 E.01196
G1 X105.449 Y10.309 E.01008
G1 X106.027 Y10.434 E.01598
G1 X106.882 Y10.7 E.02419
G1 X107.737 Y11.069 E.02515
G1 X108.506 Y11.498 E.0238
G1 X108.95 Y11.793 E.01441
G1 X109.369 Y12.105 E.01411
G1 X109.765 Y12.433 E.01389
G1 X110.148 Y12.786 E.01408
G1 X110.851 Y13.533 E.02772
G1 X111.153 Y13.901 E.01285
G1 X111.551 Y14.434 E.01799
G1 X112.151 Y15.374 E.03012
G1 X112.54 Y16.091 E.02203
G1 X113.033 Y17.173 E.03213
G1 X113.303 Y17.879 E.02043
G1 X113.479 Y18.406 E.015
G1 X113.803 Y19.573 E.03273
G1 X114.048 Y20.762 E.0328
G1 X114.214 Y21.969 E.03294
G1 X114.296 Y23.039 E.02897
G1 X114.317 Y23.63 E.01598
G1 X114.314 Y24.485 E.02311
G1 X114.287 Y25.134 E.01754
G1 X114.225 Y25.93 E.02159
G1 X114.066 Y27.13 E.03271
G1 X113.835 Y28.292 E.032
G1 X113.54 Y29.396 E.03086
G1 X113.225 Y30.335 E.02677
G1 X112.786 Y31.4 E.03114
G1 X112.34 Y32.292 E.02693
G1 X111.781 Y33.226 E.02942
G1 X111.227 Y34.005 E.02582
G1 X110.889 Y34.422 E.0145
G1 X110.487 Y34.87 E.01627
G1 X109.773 Y35.559 E.0268
G1 X109.294 Y35.954 E.01678
G1 X108.911 Y36.235 E.01285
G1 X108.517 Y36.495 E.01275
G1 X108.091 Y36.746 E.01335
G1 X107.671 Y36.964 E.01278
G1 X107.206 Y37.173 E.01379
G1 X106.444 Y37.449 E.02187
G1 X105.6 Y37.662 E.02355
G1 X104.789 Y37.782 E.02214
G1 X103.996 Y37.821 E.02146
G1 X27.544 Y37.821 E2.06566
G1 X27.393 Y37.903 E.00464
G1 X27.118 Y38.338 E.01391
G1 X26.859 Y38.903 E.01678
G1 X26.627 Y39.61 E.02011
G1 X26.5 Y40.148 E.01493
G1 X26.406 Y40.712 E.01547
G1 X26.345 Y41.315 E.01636
G1 X26.322 Y41.941 E.01692
G1 X26.354 Y42.793 E.02305
G1 X26.479 Y43.744 E.02592
G1 X26.623 Y44.377 E.01752
G1 X26.752 Y44.804 E.01206
G1 X26.927 Y45.265 E.01332
G1 X27.074 Y45.58 E.00941
G1 X27.254 Y45.895 E.00978
G1 X27.399 Y46.103 E.00686
G1 X27.545 Y46.179 E.00446
G1 X103.996 Y46.179 E2.06564
G1 X104.706 Y46.211 E.0192
G1 X105.451 Y46.31 E.02032
G1 X106.028 Y46.434 E.01594
G1 X106.734 Y46.647 E.01993
G1 X107.411 Y46.915 E.01966
G1 X108.054 Y47.234 E.01939
G1 X108.66 Y47.596 E.01909
G1 X109.369 Y48.105 E.02356
G1 X110.018 Y48.662 E.02313
G1 X110.625 Y49.278 E.02336
G1 X111.154 Y49.901 E.02208
G1 X111.666 Y50.601 E.02345
G1 X112.087 Y51.263 E.02119
G1 X112.541 Y52.091 E.02551
G1 X112.959 Y52.994 E.02688
G1 X113.287 Y53.835 E.0244
G1 X113.605 Y54.821 E.028
G1 X113.833 Y55.695 E.0244
G1 X114.016 Y56.583 E.02449
G1 X114.161 Y57.521 E.02565
G1 X114.271 Y58.616 E.02974
G1 X114.319 Y59.798 E.03197
G1 X114.298 Y60.926 E.03048
G1 X114.237 Y61.802 E.02372
G1 X114.139 Y62.643 E.02286
G1 X113.975 Y63.636 E.02721
G1 X113.72 Y64.759 E.03111
G1 X113.498 Y65.534 E.02179
G1 X113.151 Y66.529 E.02846
G1 X112.831 Y67.3 E.02255
G1 X112.396 Y68.189 E.02675
G1 X111.944 Y68.97 E.02439
G1 X111.478 Y69.667 E.02265
G1 X110.888 Y70.422 E.02589
G1 X110.44 Y70.921 E.0181
G1 X109.774 Y71.559 E.02492
G1 X109.169 Y72.049 E.02105
G1 X108.517 Y72.495 E.02134
G1 X107.803 Y72.898 E.02216
G1 X107.205 Y73.173 E.01777
G1 X106.443 Y73.449 E.0219
G1 X105.795 Y73.621 E.0181
G1 X104.925 Y73.767 E.02384
G1 X104.239 Y73.817 E.0186
G1 X27.544 Y73.821 E2.07223
G1 X27.393 Y73.903 E.00464
G1 X27.118 Y74.338 E.01391
G1 X26.86 Y74.899 E.01668
G1 X26.699 Y75.36 E.01319
G1 X26.532 Y75.996 E.01776
G1 X26.425 Y76.577 E.01595
G1 X26.356 Y77.173 E.01622
G1 X26.323 Y77.799 E.01693
G1 X26.34 Y78.609 E.02189
G1 X26.451 Y79.587 E.0266
G1 X26.585 Y80.232 E.01778
G1 X26.7 Y80.643 E.01155
G1 X26.824 Y81.009 E.01044
G1 X27.031 Y81.492 E.01419
G1 X27.197 Y81.804 E.00954
G1 X27.398 Y82.101 E.0097
G1 X27.546 Y82.179 E.00452
G1 X103.996 Y82.179 E2.06562
G1 X104.706 Y82.211 E.01919
G1 X105.451 Y82.31 E.02032
G1 X106.028 Y82.434 E.01595
G1 X106.734 Y82.647 E.01992
G1 X107.411 Y82.915 E.01967
G1 X108.053 Y83.233 E.01936
G1 X108.66 Y83.596 E.01912
G1 X109.369 Y84.105 E.02358
G1 X109.898 Y84.552 E.01872
G1 X110.498 Y85.141 E.0227
G1 X110.943 Y85.642 E.01811
G1 X111.474 Y86.327 E.02341
G1 X111.918 Y86.986 E.02148
G1 X112.405 Y87.829 E.02629
G1 X112.735 Y88.491 E.01999
G1 X113.092 Y89.316 E.0243
G1 X113.401 Y90.164 E.02436
G1 X113.663 Y91.028 E.02442
G1 X113.881 Y91.908 E.0245
G1 X114.074 Y92.922 E.02787
G1 X114.198 Y93.823 E.02458
G1 X114.279 Y94.733 E.02468
G1 X114.317 Y95.63 E.02426
G1 X114.31 Y96.633 E.02711
G1 X114.236 Y97.803 E.03167
G1 X114.14 Y98.642 E.02283
M73 P1 R9
G1 X113.945 Y99.787 E.03136
G1 X113.72 Y100.758 E.02694
G1 X113.426 Y101.758 E.02817
G1 X113.107 Y102.643 E.0254
G1 X112.786 Y103.4 E.02222
G1 X112.395 Y104.189 E.02379
G1 X111.944 Y104.97 E.02437
G1 X111.443 Y105.716 E.02427
G1 X110.888 Y106.423 E.02429
G1 X110.487 Y106.87 E.01624
G1 X109.828 Y107.509 E.02479
G1 X109.418 Y107.856 E.01451
G1 X109.045 Y108.14 E.01268
G1 X108.242 Y108.66 E.02585
G1 X107.507 Y109.041 E.02236
G1 X106.761 Y109.344 E.02176
G1 X105.931 Y109.59 E.02338
G1 X105.128 Y109.742 E.02208
G1 X104.238 Y109.817 E.02412
G1 X21.502 Y109.821 E2.23545
G1 X20.88 Y109.804 E.01682
G1 X20.352 Y109.763 E.01433
G1 X19.762 Y109.689 E.01606
G1 X19.236 Y109.597 E.01441
G1 X18.654 Y109.466 E.01612
G1 X18.145 Y109.326 E.01428
G1 X17.576 Y109.141 E.01616
G1 X16.877 Y108.87 E.02024
G1 X15.86 Y108.387 E.03043
G1 X15.417 Y108.142 E.01368
G1 X14.783 Y107.751 E.02012
G1 X14.302 Y107.422 E.01576
G1 X13.763 Y107.019 E.01817
G1 X13.378 Y106.705 E.01342
G1 X12.743 Y106.143 E.02292
G1 X11.926 Y105.321 E.03131
G1 X11.161 Y104.441 E.03151
G1 X10.458 Y103.523 E.03124
G1 X9.88 Y102.674 E.02775
G1 X9.151 Y101.457 E.03832
G1 X8.611 Y100.425 E.03149
G1 X8.115 Y99.355 E.03186
G1 X7.628 Y98.15 E.03512
G1 X7.149 Y96.772 E.0394
G1 X6.778 Y95.506 E.03565
G1 X6.435 Y94.099 E.03913
G1 X6.206 Y92.951 E.03162
G1 X5.983 Y91.534 E.03878
G1 X5.81 Y89.987 E.04206
G1 X5.729 Y88.84 E.03105
G1 X5.68 Y87.053 E.04832
G1 X5.679 Y33.002 E1.4604
G1 X5.716 Y31.431 E.04245
G1 X5.804 Y30.09 E.03633
G1 X5.923 Y28.933 E.03143
G1 X6.1 Y27.672 E.03438
G1 X6.258 Y26.767 E.02483
G1 X6.512 Y25.561 E.03329
G1 X6.883 Y24.114 E.04037
G1 X7.236 Y22.96 E.0326
G1 X7.635 Y21.831 E.03234
G1 X7.924 Y21.097 E.02132
G1 X8.399 Y20.018 E.03187
G1 X8.795 Y19.21 E.02431
G1 X9.31 Y18.263 E.02913
G1 X9.849 Y17.375 E.02805
G1 X10.448 Y16.491 E.02885
G1 X10.936 Y15.841 E.02197
G1 X11.688 Y14.94 E.03173
G1 X12.143 Y14.45 E.01806
G1 X12.99 Y13.634 E.03176
G1 X13.238 Y13.891 F36000
G1 F6000
G1 X13.261 Y13.869 E.00086
G1 X13.886 Y13.34 E.02214
G1 X14.404 Y12.945 E.0176
G1 X14.94 Y12.573 E.01761
G1 X15.488 Y12.231 E.01748
G1 X16.476 Y11.703 E.03026
G1 X17.067 Y11.438 E.01749
G1 X17.554 Y11.247 E.01414
G1 X18.18 Y11.037 E.01783
G1 X18.621 Y10.911 E.0124
G1 X19.268 Y10.761 E.01794
G1 X19.778 Y10.67 E.01399
G1 X20.436 Y10.588 E.01793
G1 X20.908 Y10.553 E.01277
G1 X21.509 Y10.537 E.01625
G1 X104.076 Y10.538 E2.23089
G1 X104.611 Y10.562 E.01446
M73 P1 R8
G1 X105.032 Y10.606 E.01144
G1 X105.929 Y10.778 E.0247
G1 X106.763 Y11.038 E.0236
G1 X107.583 Y11.392 E.02414
G1 X108.323 Y11.805 E.0229
G1 X108.742 Y12.083 E.01358
G1 X109.146 Y12.384 E.0136
G1 X109.9 Y13.043 E.02706
G1 X110.585 Y13.772 E.02704
G1 X110.874 Y14.123 E.01227
G1 X111.255 Y14.634 E.01724
G1 X111.841 Y15.552 E.02943
G1 X112.222 Y16.253 E.02156
G1 X112.705 Y17.314 E.03148
G1 X112.966 Y17.997 E.01977
G1 X113.136 Y18.507 E.01453
G1 X113.455 Y19.653 E.03212
G1 X113.695 Y20.819 E.03216
G1 X113.858 Y22.004 E.03234
G1 X113.94 Y23.061 E.02862
G1 X113.96 Y23.637 E.01559
G1 X113.957 Y24.479 E.02274
G1 X113.93 Y25.114 E.01718
G1 X113.87 Y25.89 E.02103
G1 X113.713 Y27.069 E.03213
G1 X113.488 Y28.208 E.03138
G1 X113.199 Y29.289 E.03024
G1 X112.889 Y30.213 E.02633
G1 X112.459 Y31.256 E.03047
G1 X112.025 Y32.124 E.02622
G1 X111.479 Y33.034 E.02868
G1 X110.94 Y33.792 E.02512
G1 X110.615 Y34.192 E.01393
G1 X110.227 Y34.625 E.01572
G1 X109.532 Y35.295 E.02608
G1 X109.077 Y35.67 E.01593
G1 X108.709 Y35.941 E.01235
G1 X107.916 Y36.435 E.02524
G1 X107.513 Y36.643 E.01226
G1 X107.075 Y36.84 E.01296
G1 X106.335 Y37.108 E.02128
G1 X105.535 Y37.31 E.02229
G1 X104.759 Y37.425 E.02119
G1 X103.984 Y37.463 E.02096
G1 X27.557 Y37.463 E2.06499
G1 X27.36 Y37.514 E.0055
G1 X27.233 Y37.584 E.00391
G1 X27.084 Y37.724 E.00552
G1 X26.791 Y38.195 E.01502
G1 X26.537 Y38.748 E.01643
G1 X26.289 Y39.494 E.02124
G1 X26.147 Y40.092 E.01661
G1 X26.051 Y40.68 E.01608
G1 X25.99 Y41.276 E.01618
G1 X25.965 Y41.958 E.01846
G1 X26 Y42.845 E.02398
G1 X26.124 Y43.786 E.02566
G1 X26.274 Y44.452 E.01843
G1 X26.419 Y44.935 E.01362
G1 X26.605 Y45.418 E.014
G1 X26.766 Y45.761 E.01024
G1 X26.942 Y46.068 E.00955
G1 X27.099 Y46.297 E.0075
G1 X27.245 Y46.426 E.00529
G1 X27.369 Y46.49 E.00376
G1 X27.558 Y46.537 E.00526
G1 X103.986 Y46.537 E2.06501
G1 X104.679 Y46.567 E.01875
G1 X105.386 Y46.661 E.01926
G1 X105.943 Y46.782 E.0154
G1 X106.613 Y46.983 E.0189
G1 X107.261 Y47.24 E.01885
G1 X107.886 Y47.55 E.01885
G1 X108.468 Y47.898 E.01831
G1 X109.151 Y48.389 E.02274
G1 X109.777 Y48.927 E.0223
G1 X110.359 Y49.516 E.02237
G1 X110.875 Y50.125 E.02159
G1 X111.373 Y50.806 E.02278
G1 X111.781 Y51.448 E.02056
G1 X112.223 Y52.256 E.02487
G1 X112.629 Y53.131 E.02607
G1 X112.949 Y53.952 E.02382
G1 X113.261 Y54.918 E.02744
G1 X113.484 Y55.774 E.02389
G1 X113.665 Y56.649 E.02414
G1 X113.807 Y57.569 E.02515
G1 X113.915 Y58.644 E.0292
G1 X113.962 Y59.799 E.03123
G1 X113.942 Y60.908 E.02996
G1 X113.881 Y61.767 E.02327
G1 X113.785 Y62.595 E.02254
G1 X113.624 Y63.57 E.0267
G1 X113.375 Y64.667 E.03039
G1 X113.158 Y65.423 E.02125
G1 X112.819 Y66.399 E.0279
G1 X112.507 Y67.15 E.02197
G1 X112.082 Y68.018 E.02611
G1 X111.642 Y68.779 E.02374
G1 X111.186 Y69.461 E.02218
G1 X110.612 Y70.196 E.0252
G1 X110.181 Y70.675 E.01741
G1 X109.534 Y71.293 E.02418
G1 X108.952 Y71.765 E.02025
G1 X108.332 Y72.189 E.02029
G1 X107.644 Y72.578 E.02135
G1 X107.065 Y72.844 E.01721
G1 X106.341 Y73.106 E.02082
G1 X105.715 Y73.273 E.01749
G1 X104.888 Y73.412 E.02266
G1 X104.222 Y73.459 E.01804
G1 X27.557 Y73.463 E2.07142
G1 X27.36 Y73.514 E.0055
M73 P2 R8
G1 X27.233 Y73.584 E.00391
G1 X27.084 Y73.724 E.00552
G1 X26.791 Y74.195 E.01501
G1 X26.538 Y74.746 E.01637
G1 X26.363 Y75.239 E.01413
G1 X26.18 Y75.936 E.01947
G1 X26.07 Y76.539 E.01657
G1 X26.002 Y77.129 E.01604
G1 X25.966 Y77.81 E.01844
G1 X25.983 Y78.612 E.02165
G1 X26.103 Y79.664 E.02863
G1 X26.242 Y80.33 E.01837
G1 X26.498 Y81.154 E.02331
G1 X26.718 Y81.664 E.01501
G1 X26.904 Y82.008 E.01056
G1 X27.095 Y82.29 E.00921
G1 X27.242 Y82.423 E.00537
G1 X27.367 Y82.489 E.00381
G1 X27.559 Y82.537 E.00534
G1 X103.986 Y82.537 E2.06499
G1 X104.679 Y82.567 E.01875
G1 X105.386 Y82.661 E.01926
G1 X105.943 Y82.782 E.01541
G1 X106.612 Y82.983 E.01889
G1 X107.261 Y83.24 E.01886
G1 X107.885 Y83.549 E.01881
G1 X108.468 Y83.898 E.01834
G1 X109.146 Y84.384 E.02256
G1 X109.661 Y84.819 E.0182
G1 X110.242 Y85.39 E.022
G1 X110.67 Y85.873 E.01745
G1 X111.187 Y86.539 E.02277
G1 X111.616 Y87.179 E.02082
G1 X112.088 Y87.996 E.02549
G1 X112.413 Y88.644 E.01959
G1 X112.761 Y89.451 E.02375
G1 X113.063 Y90.28 E.02382
G1 X113.32 Y91.126 E.0239
G1 X113.533 Y91.988 E.02398
G1 X113.722 Y92.982 E.02736
G1 X113.843 Y93.866 E.0241
G1 X113.923 Y94.759 E.02423
G1 X113.96 Y95.639 E.0238
G1 X113.953 Y96.624 E.02661
G1 X113.881 Y97.768 E.03099
G1 X113.785 Y98.595 E.02247
G1 X113.595 Y99.713 E.03066
G1 X113.375 Y100.664 E.02638
G1 X113.088 Y101.644 E.02759
G1 X112.776 Y102.51 E.02485
G1 X112.46 Y103.253 E.02183
G1 X112.082 Y104.017 E.02303
G1 X111.643 Y104.778 E.02373
G1 X111.156 Y105.502 E.02358
G1 X110.616 Y106.19 E.02363
G1 X110.232 Y106.62 E.01558
G1 X109.584 Y107.249 E.02439
G1 X108.845 Y107.843 E.02563
G1 X108.066 Y108.349 E.02507
G1 X107.362 Y108.714 E.02145
G1 X106.637 Y109.008 E.02112
G1 X105.841 Y109.243 E.02243
G1 X105.074 Y109.388 E.0211
G1 X104.219 Y109.459 E.02319
G1 X21.509 Y109.463 E2.23475
G1 X20.901 Y109.447 E.01642
G1 X20.39 Y109.408 E.01386
G1 X19.817 Y109.336 E.0156
G1 X19.304 Y109.246 E.01409
G1 X18.743 Y109.12 E.01552
G1 X18.245 Y108.983 E.01396
G1 X17.693 Y108.803 E.01568
G1 X17.022 Y108.543 E.01944
G1 X16.02 Y108.067 E.02997
G1 X15.595 Y107.832 E.01313
G1 X14.976 Y107.45 E.01967
G1 X14.508 Y107.13 E.01532
G1 X13.981 Y106.736 E.01777
G1 X13.608 Y106.431 E.01303
G1 X12.986 Y105.881 E.02244
G1 X12.185 Y105.075 E.03069
G1 X11.44 Y104.218 E.0307
G1 X10.749 Y103.316 E.03068
G1 X10.183 Y102.484 E.0272
G1 X9.465 Y101.285 E.03776
G1 X8.932 Y100.269 E.03099
G1 X8.442 Y99.21 E.03153
G1 X7.961 Y98.022 E.03464
G1 X7.49 Y96.666 E.03878
G1 X7.124 Y95.416 E.03519
G1 X6.784 Y94.024 E.03871
G1 X6.557 Y92.887 E.03134
G1 X6.336 Y91.484 E.03837
G1 X6.166 Y89.952 E.04164
G1 X6.086 Y88.821 E.03065
G1 X6.037 Y87.046 E.04796
G1 X6.037 Y33.007 E1.46008
G1 X6.073 Y31.449 E.04211
G1 X6.16 Y30.118 E.03606
G1 X6.278 Y28.974 E.03107
G1 X6.452 Y27.73 E.03394
G1 X6.61 Y26.833 E.02461
G1 X6.86 Y25.64 E.03293
G1 X7.226 Y24.213 E.03981
G1 X7.575 Y23.074 E.03218
G1 X7.968 Y21.958 E.03197
G1 X8.253 Y21.237 E.02095
G1 X8.722 Y20.17 E.03148
G1 X9.113 Y19.372 E.02402
G1 X9.618 Y18.443 E.02856
G1 X10.148 Y17.571 E.02758
G1 X10.737 Y16.701 E.02838
G1 X11.214 Y16.065 E.02147
G1 X11.955 Y15.178 E.03122
G1 X12.396 Y14.702 E.01753
G1 X13.209 Y13.919 E.03049
G1 X13.457 Y14.177 F36000
G1 F6000
G1 X13.503 Y14.132 E.00173
G1 X14.108 Y13.62 E.02142
G1 X14.612 Y13.235 E.01714
G1 X15.134 Y12.873 E.01716
G1 X15.664 Y12.542 E.0169
G1 X16.637 Y12.022 E.0298
G1 X17.203 Y11.768 E.01675
G1 X17.674 Y11.584 E.01367
G1 X18.713 Y11.257 E.02943
G1 X19.337 Y11.112 E.01731
G1 X19.829 Y11.024 E.01349
G1 X20.469 Y10.944 E.01744
G1 X20.928 Y10.909 E.01244
G1 X21.515 Y10.894 E.01586
G1 X104.065 Y10.895 E2.23044
G1 X104.581 Y10.918 E.01395
G1 X104.975 Y10.959 E.0107
G1 X105.836 Y11.124 E.0237
G1 X106.644 Y11.375 E.02286
G1 X107.43 Y11.715 E.02312
G1 X108.141 Y12.113 E.02201
G1 X108.534 Y12.374 E.01276
G1 X108.918 Y12.659 E.01292
G1 X109.655 Y13.304 E.02646
G1 X110.321 Y14.013 E.02629
G1 X110.963 Y14.841 E.02829
G1 X111.532 Y15.73 E.02853
G1 X111.904 Y16.416 E.02108
G1 X112.376 Y17.455 E.03083
G1 X112.629 Y18.116 E.01911
G1 X112.794 Y18.609 E.01407
G1 X113.107 Y19.733 E.03152
G1 X113.342 Y20.876 E.03152
G1 X113.503 Y22.039 E.03174
G1 X113.583 Y23.085 E.02834
G1 X113.6 Y24.475 E.03756
G1 X113.515 Y25.848 E.03716
G1 X113.361 Y27.007 E.03159
G1 X113.14 Y28.124 E.03075
