; HEADER_BLOCK_START
; generated by OrcaSlicer 2.3.1 on 2026-02-01 at 21:20:55
; total layer number: 99
; filament_density: 1.04
; filament_diameter: 1.75
; max_z_height: 19.80
; HEADER_BLOCK_END

; THUMBNAIL_BLOCK_START

;
; THUMBNAIL_BLOCK_END

; THUMBNAIL_BLOCK_START

;
; THUMBNAIL_BLOCK_END

; external perimeters extrusion width = 0.40mm
; perimeters extrusion width = 0.40mm
; infill extrusion width = 0.40mm
; solid infill extrusion width = 0.40mm
; top infill extrusion width = 0.40mm
; first layer extrusion width = 0.40mm

; EXECUTABLE_BLOCK_START


; Pre-Processed for Cancel-Object support by preprocess_cancellation v0.2.0
; 1 known objects
EXCLUDE_OBJECT_DEFINE NAME=Tensioner_x1_stl_id_15_copy_0 CENTER=59.979,60.388 POLYGON=[[50.8,53.3],[50.8,66.7],[69.2,66.7],[69.2,53.3]]
M73 P0 R7
;TYPE:Custom
PRINT_START EXTRUDER_TEMP=250 BED_TEMP=110
G90
G21
M83 ; use relative distances for extrusion
; Filament gcode
SET_PRESSURE_ADVANCE ADVANCE=0.04; Override pressure advance value
M106 S0
;LAYER_CHANGE
;Z:0.2
;HEIGHT:0.2
;BEFORE_LAYER_CHANGE
;0.2
G92 E0

G1 E-.8 F1800
;AFTER_LAYER_CHANGE
;0.2
;_SET_FAN_SPEED_CHANGING_LAYER
SET_VELOCITY_LIMIT ACCEL=10000 ACCEL_TO_DECEL=10000
SET_VELOCITY_LIMIT SQUARE_CORNER_VELOCITY=9
; printing object Tensioner_x1.stl id:15 copy 0
EXCLUDE_OBJECT_START NAME=Tensioner_x1_stl_id_15_copy_0
G1 Z.6 F36000
G1 X59.416 Y62.766
G1 Z.6
G1 Z.2
G1 E.8 F1800
;TYPE:Inner wall
;WIDTH:0.4
G1 F6000
G1 X59.08 Y62.687 E.00934
G3 X59.552 Y56.007 I.918 J-3.291 E.25286
G1 X59.814 Y55.983 E.0071
G3 X59.507 Y62.777 I.184 J3.412 E.30833
G1 X59.456 Y62.771 E.00139
G1 X59.49 Y62.417 F36000
G1 F6000
G1 X59.178 Y62.344 E.00866
G3 X59.599 Y56.361 I.82 J-2.948 E.22651
G1 X59.833 Y56.34 E.00637
G3 X59.556 Y62.424 I.165 J3.056 E.27619
G1 X59.53 Y62.421 E.00072
G1 X59.564 Y62.069 F36000
G1 F6000
G1 X59.276 Y62.001 E.00798
G3 X59.645 Y56.716 I.722 J-2.605 E.20015
G1 X59.853 Y56.696 E.00564
G3 X59.606 Y62.071 I.145 J2.7 E.24405
G1 X59.604 Y62.071 E.00005
G1 X59.637 Y61.72 F36000
;TYPE:Outer wall
G1 F6000
G1 X59.374 Y61.658 E.0073
G3 X59.692 Y57.07 I.625 J-2.262 E.1738
G1 X59.873 Y57.053 E.00491
G3 X59.677 Y61.721 I.126 J2.343 E.21131
G1 E-.56 F1800
;WIPE_START
G1 F6000
G1 X59.374 Y61.658 E-.07416
G1 X58.994 Y61.524 E-.0967
G1 X58.743 Y61.383 E-.06914
;WIPE_END
G1 Z.6 F36000
G1 X52.321 Y54.821 Z.6
G1 Z.2
G1 E.8 F1800
;TYPE:Inner wall
G1 F6000
G1 X67.679 Y54.822 E.41495
G1 X67.679 Y64.146 E.2519
G1 X66.646 Y65.179 E.03948
G1 X53.354 Y65.179 E.35912
G1 X52.321 Y64.146 E.03948
G1 X52.321 Y54.861 E.25085
G1 X51.964 Y54.464 F36000
G1 F6000
G1 X68.036 Y54.465 E.43424
G1 X68.036 Y64.294 E.26555
G1 X66.794 Y65.536 E.04747
G1 X53.206 Y65.536 E.36711
G1 X51.964 Y64.294 E.04747
G1 X51.964 Y54.504 E.2645
G1 X51.607 Y54.107 F36000
G1 F6000
G1 X68.393 Y54.108 E.45354
G1 X68.393 Y64.441 E.27919
G1 X66.941 Y65.893 E.05546
G1 X53.059 Y65.893 E.3751
G1 X51.607 Y64.441 E.05546
G1 X51.607 Y54.147 E.27814
G1 X51.25 Y53.75 F36000
;TYPE:Outer wall
G1 F6000
G1 X51.595 Y53.75 E.00932
G1 X68.75 Y53.751 E.46351
G1 X68.75 Y64.589 E.29283
G1 X67.089 Y66.25 E.06345
G1 X52.911 Y66.25 E.38309
G1 X51.25 Y64.589 E.06346
G1 X51.25 Y53.79 E.29179
G1 E-.56 F1800
;WIPE_START
G1 F6000
G1 X51.595 Y53.75 E-.08333
G1 X52.248 Y53.75 E-.15667
;WIPE_END
G1 Z.6 F36000
G1 X67.572 Y55.092 Z.6
G1 Z.2
G1 E.8 F1800
;TYPE:Bottom surface
;WIDTH:0.406451
G1 F12600
G1 X52.589 Y55.092 E.41213
G1 X52.589 Y55.456 E.01
G1 X67.411 Y55.456 E.40771
G1 X67.411 Y55.819 E.01
G1 X52.589 Y55.819 E.40771
G1 X52.589 Y56.183 E.01
M73 P1 R7
G1 X58.194 Y56.183 E.15417
G1 X58.171 Y56.195 E.00071
G2 X57.664 Y56.547 I1.389 J2.54 E.01699
G1 X52.589 Y56.547 E.1396
G1 X52.589 Y56.91 E.01
G1 X57.29 Y56.91 E.12931
G2 X56.995 Y57.274 I1.05 J1.153 E.01292
G1 X52.589 Y57.274 E.1212
G1 X52.589 Y57.637 E.01
G1 X56.763 Y57.637 E.1148
G2 X56.595 Y58.001 I1.417 J.875 E.01104
G1 X52.589 Y58.001 E.11018
G1 X52.589 Y58.364 E.01
G1 X56.464 Y58.364 E.10658
G1 X56.378 Y58.728 E.01028
G1 X52.589 Y58.728 E.10421
G1 X52.589 Y59.091 E.01
G1 X56.323 Y59.091 E.10272
G2 X56.32 Y59.455 I1.548 J.195 E.01002
G1 X52.589 Y59.455 E.10263
G1 X52.589 Y59.818 E.01
G1 X56.34 Y59.818 E.10318
G1 X56.395 Y60.182 E.01011
G1 X52.589 Y60.182 E.1047
G1 X52.589 Y60.545 E.01
G1 X56.493 Y60.545 E.10739
G1 X56.638 Y60.909 E.01077
G1 X52.589 Y60.909 E.11138
G1 X52.589 Y61.272 E.01
G1 X56.832 Y61.272 E.11671
G2 X57.068 Y61.636 I1.672 J-.825 E.01194
G1 X52.589 Y61.636 E.12319
G1 X52.589 Y62 E.01
G1 X57.392 Y62 E.1321
G2 X57.804 Y62.363 I2.49 J-2.409 E.01514
G1 X52.428 Y62.363 E.14787
G1 E-.65714 F1800
;WIPE_START
G1 F12600
G1 X53.428 Y62.363 E-.14286
;WIPE_END
G1 Z.6 F36000
G1 X61.429 Y56.183 Z.6
G1 Z.2
G1 E.8 F1800
G1 F12600
G1 X67.411 Y56.183 E.16455
G1 X67.411 Y56.547 E.01
G1 X62.335 Y56.547 E.13963
G3 X62.713 Y56.91 I-1.872 J2.327 E.01445
G1 X67.411 Y56.91 E.12922
G1 X67.411 Y57.274 E.01
G1 X63.007 Y57.274 E.12114
G1 X63.242 Y57.637 E.0119
G1 X67.411 Y57.637 E.11468
G1 X67.411 Y58.001 E.01
G1 X63.412 Y58.001 E.11
G3 X63.533 Y58.364 I-1.559 J.721 E.01056
G1 X67.411 Y58.364 E.10667
G1 X67.411 Y58.728 E.01
G1 X63.626 Y58.728 E.10412
G3 X63.675 Y59.091 I-1.981 J.453 E.0101
G1 X67.411 Y59.091 E.10277
G1 X67.411 Y59.455 E.01
G1 X63.682 Y59.455 E.10257
G3 X63.666 Y59.818 I-1.673 J.106 E.01003
G1 X67.411 Y59.818 E.10303
G1 X67.411 Y60.182 E.01
G1 X63.6 Y60.182 E.10482
G1 X63.503 Y60.545 E.01035
G1 X67.411 Y60.545 E.10751
G1 X67.411 Y60.909 E.01
G1 X63.357 Y60.909 E.11152
G3 X63.177 Y61.272 I-1.608 J-.57 E.01119
G1 X67.411 Y61.272 E.11647
G1 X67.411 Y61.636 E.01
G1 X62.935 Y61.636 E.12311
G1 X62.618 Y62 E.01328
G1 X67.411 Y62 E.13185
G1 X67.411 Y62.363 E.01
G1 X61.903 Y62.363 E.15152
G1 E-.65714 F1800
;WIPE_START
G1 F12600
G1 X62.903 Y62.363 E-.14286
;WIPE_END
G1 Z.6 F36000
G1 X67.572 Y62.727 Z.6
G1 Z.2
G1 E.8 F1800
G1 F12600
G1 X61.592 Y62.727 E.16449
G1 X61.412 Y62.81 E.00545
G3 X58.405 Y62.727 I-1.41 J-3.453 E.08519
G1 X52.589 Y62.727 E.15997
G1 X52.589 Y63.09 E.01
G1 X67.411 Y63.09 E.40771
G1 X67.411 Y63.454 E.01
G1 X52.589 Y63.454 E.40771
G1 X52.589 Y63.817 E.01
G1 X67.411 Y63.817 E.40771
G1 X67.411 Y64.035 E.00598
G1 X67.265 Y64.181 E.00568
G1 X52.735 Y64.181 E.39968
G1 X53.099 Y64.544 E.01414
G1 X66.901 Y64.544 E.37968
G1 X66.538 Y64.908 E.01414
G1 X53.235 Y64.908 E.36593
; stop printing object Tensioner_x1.stl id:15 copy 0
EXCLUDE_OBJECT_END NAME=Tensioner_x1_stl_id_15_copy_0
;LAYER_CHANGE
;Z:0.4
;HEIGHT:0.2
;BEFORE_LAYER_CHANGE
;0.4
G92 E0

G1 E-.65714 F1800
;WIPE_START
G1 F12600
G1 X54.235 Y64.908 E-.14286
;WIPE_END
;AFTER_LAYER_CHANGE
;0.4
;_SET_FAN_SPEED_CHANGING_LAYER
SET_VELOCITY_LIMIT ACCEL=20000 ACCEL_TO_DECEL=20000
M140 S108 ; set bed temperature
; printing object Tensioner_x1.stl id:15 copy 0
EXCLUDE_OBJECT_START NAME=Tensioner_x1_stl_id_15_copy_0
SET_VELOCITY_LIMIT SQUARE_CORNER_VELOCITY=12
G1 Z.8 F36000
G1 X59.596 Y62.438 Z.8
G1 Z.4
G1 E.8 F1800
SET_VELOCITY_LIMIT ACCEL=15000 ACCEL_TO_DECEL=15000 SQUARE_CORNER_VELOCITY=9
;TYPE:Inner wall
;WIDTH:0.4
G1 F23081.008
G1 X59.447 Y62.421 E.00405
G3 X59.356 Y56.396 I.548 J-3.021 E.22839
G3 X59.909 Y56.33 I.615 J2.811 E.01508
G3 X59.857 Y62.467 I.085 J3.069 E.26665
G1 X59.635 Y62.442 E.00604
SET_VELOCITY_LIMIT ACCEL=20000 ACCEL_TO_DECEL=20000 SQUARE_CORNER_VELOCITY=12
G1 X59.638 Y62.083 F36000
SET_VELOCITY_LIMIT ACCEL=15000 ACCEL_TO_DECEL=15000 SQUARE_CORNER_VELOCITY=9
G1 F23081.008
G1 X59.507 Y62.069 E.00355
G3 X59.431 Y56.745 I.488 J-2.669 E.20172
G3 X59.922 Y56.687 I.545 J2.497 E.01339
G3 X59.874 Y62.11 I.072 J2.712 E.23555
G1 X59.678 Y62.088 E.00534
SET_VELOCITY_LIMIT ACCEL=20000 ACCEL_TO_DECEL=20000 SQUARE_CORNER_VELOCITY=12
G1 X59.68 Y61.729 F36000
SET_VELOCITY_LIMIT ACCEL=15000 ACCEL_TO_DECEL=15000 SQUARE_CORNER_VELOCITY=9
G1 F23081.008
G1 X59.567 Y61.718 E.00307
G3 X59.701 Y57.061 I.423 J-2.318 E.18071
G1 X59.935 Y57.044 E.00635
G3 X59.89 Y61.754 I.054 J2.356 E.20418
G1 X59.72 Y61.734 E.00463
SET_VELOCITY_LIMIT ACCEL=20000 ACCEL_TO_DECEL=20000 SQUARE_CORNER_VELOCITY=12
G1 X59.723 Y61.376 F36000
SET_VELOCITY_LIMIT ACCEL=10000 ACCEL_TO_DECEL=10000 SQUARE_CORNER_VELOCITY=9
;TYPE:Outer wall
G1 F23081.008
G1 X59.628 Y61.366 E.0026
G3 X59.744 Y57.416 I.364 J-1.966 E.15309
G1 X59.949 Y57.401 E.00553
G3 X59.907 Y61.397 I.044 J1.999 E.17318
G1 X59.763 Y61.38 E.00391
SET_VELOCITY_LIMIT ACCEL=20000 ACCEL_TO_DECEL=20000 SQUARE_CORNER_VELOCITY=12
G1 E-.72201 F1800
;WIPE_START
G1 F23081.008
G1 X59.628 Y61.366 E-.01062
G1 X59.266 Y61.261 E-.02936
G1 X58.935 Y61.093 E-.02895
G1 X58.842 Y61.023 E-.00906
;WIPE_END
G1 Z.8 F36000
G1 X51.971 Y54.471 Z.8
G1 Z.4
G1 E.8 F1800
SET_VELOCITY_LIMIT ACCEL=15000 ACCEL_TO_DECEL=15000 SQUARE_CORNER_VELOCITY=9
;TYPE:Inner wall
G1 F23081.008
G1 X68.029 Y54.471 E.43386
G1 X68.029 Y64.291 E.26531
G1 X66.791 Y65.529 E.04731
G1 X53.209 Y65.529 E.36695
G1 X51.971 Y64.291 E.04731
G1 X51.971 Y54.511 E.26423
SET_VELOCITY_LIMIT ACCEL=20000 ACCEL_TO_DECEL=20000 SQUARE_CORNER_VELOCITY=12
G1 X51.614 Y54.114 F36000
SET_VELOCITY_LIMIT ACCEL=15000 ACCEL_TO_DECEL=15000 SQUARE_CORNER_VELOCITY=9
G1 F23081.008
G1 X68.386 Y54.114 E.45316
G1 X68.386 Y64.439 E.27895
M73 P2 R7
G1 X66.938 Y65.886 E.0553
G1 X53.061 Y65.886 E.37494
G1 X51.614 Y64.439 E.0553
G1 X51.614 Y54.154 E.27787
SET_VELOCITY_LIMIT ACCEL=20000 ACCEL_TO_DECEL=20000 SQUARE_CORNER_VELOCITY=12
G1 X51.257 Y53.757 F36000
SET_VELOCITY_LIMIT ACCEL=15000 ACCEL_TO_DECEL=15000 SQUARE_CORNER_VELOCITY=9
G1 F23081.008
G1 X68.743 Y53.757 E.47245
G1 X68.743 Y64.586 E.2926
G1 X67.086 Y66.243 E.0633
G1 X52.914 Y66.243 E.38294
G1 X51.257 Y64.586 E.0633
G1 X51.257 Y53.797 E.29152
SET_VELOCITY_LIMIT ACCEL=20000 ACCEL_TO_DECEL=20000 SQUARE_CORNER_VELOCITY=12
G1 X50.9 Y53.607 F36000
SET_VELOCITY_LIMIT ACCEL=10000 ACCEL_TO_DECEL=10000 SQUARE_CORNER_VELOCITY=9
;TYPE:Outer wall
G1 F23081.008
G3 X51.107 Y53.4 I.203 J-.005 E.00885
G1 X68.925 Y53.402 E.48143
G3 X69.1 Y53.607 I-.032 J.204 E.00792
G1 X69.1 Y64.734 E.30064
G1 X67.234 Y66.6 E.07129
G1 X52.766 Y66.6 E.39093
G1 X50.9 Y64.734 E.07129
G1 X50.9 Y53.647 E.29956
SET_VELOCITY_LIMIT ACCEL=20000 ACCEL_TO_DECEL=20000 SQUARE_CORNER_VELOCITY=12
G1 E-.72201 F1800
;WIPE_START
G1 F23081.008
G1 X50.909 Y53.543 E-.00819
G1 X50.949 Y53.469 E-.00651
G1 X51.019 Y53.418 E-.00674
G1 X51.107 Y53.4 E-.00706
G1 X51.742 Y53.4 E-.04949
;WIPE_END
G1 Z.8 F36000
G1 X67.724 Y64.393 Z.8
G1 Z.4
G1 E.8 F1800
SET_VELOCITY_LIMIT SQUARE_CORNER_VELOCITY=9
;TYPE:Internal solid infill
;WIDTH:0.402182
G1 F22940.801
G1 X67.724 Y54.775 E.26147
G1 X67.365 Y54.775 E.00977
G1 X67.365 Y64.525 E.26506
G1 X67.006 Y64.885 E.01381
G1 X67.006 Y54.775 E.27483
G1 X66.646 Y54.775 E.00977
G1 X66.646 Y65.225 E.28409
G1 X66.287 Y65.225 E.00977
G1 X66.287 Y54.775 E.28409
G1 X65.928 Y54.775 E.00977
G1 X65.928 Y65.225 E.28409
G1 X65.569 Y65.225 E.00977
G1 X65.569 Y54.775 E.28409
G1 X65.209 Y54.775 E.00977
G1 X65.209 Y65.225 E.28409
G1 X64.85 Y65.225 E.00977
G1 X64.85 Y54.775 E.28409
G1 X64.491 Y54.775 E.00977
G1 X64.491 Y65.225 E.28409
G1 X64.131 Y65.225 E.00977
G1 X64.131 Y54.775 E.28409
G1 X63.772 Y54.775 E.00977
G1 X63.772 Y65.225 E.28409
G1 X63.413 Y65.225 E.00977
G1 X63.413 Y54.775 E.28409
G1 X63.054 Y54.775 E.00977
G1 X63.054 Y57.968 E.08681
G3 X63.054 Y60.818 I-2.998 J1.425 E.08006
G1 X63.054 Y65.225 E.11982
G1 X62.694 Y65.225 E.00977
G1 X62.694 Y61.43 E.10317
G3 X62.335 Y61.834 I-3.032 J-2.333 E.01471
G1 X62.335 Y65.225 E.09218
G1 X61.976 Y65.225 E.00977
G1 X61.976 Y62.126 E.08425
G3 X61.617 Y62.36 I-1.213 J-1.469 E.01168
G1 X61.617 Y65.225 E.07788
G1 X61.257 Y65.225 E.00977
G1 X61.257 Y62.533 E.0732
G1 X60.898 Y62.645 E.01023
G1 X60.898 Y65.225 E.07014
G1 X60.539 Y65.225 E.00977
G1 X60.539 Y62.729 E.06786
G3 X60.18 Y62.769 I-.397 J-1.913 E.00984
G1 X60.18 Y65.225 E.06676
G1 X59.82 Y65.225 E.00977
G1 X59.82 Y62.77 E.06674
G1 X59.461 Y62.727 E.00984
G1 X59.461 Y65.225 E.06791
G1 X59.102 Y65.225 E.00977
G1 X59.102 Y62.65 E.06999
G3 X58.743 Y62.532 I1.067 J-3.848 E.01029
G1 X58.743 Y65.225 E.07321
G1 X58.383 Y65.225 E.00977
G1 X58.383 Y62.359 E.0779
G3 X58.024 Y62.135 I1.033 J-2.052 E.01153
G1 X58.024 Y65.225 E.08401
G1 X57.665 Y65.225 E.00977
G1 X57.665 Y61.83 E.0923
G3 X57.306 Y61.43 I2.262 J-2.39 E.01464
G1 X57.306 Y65.386 E.10755
SET_VELOCITY_LIMIT SQUARE_CORNER_VELOCITY=12
G1 E-.72154 F1800
;WIPE_START
G1 F22940.801
G1 X57.306 Y64.386 E-.07846
;WIPE_END
G1 Z.8 F36000
G1 X62.694 Y57.65 Z.8
G1 Z.4
G1 E.8 F1800
SET_VELOCITY_LIMIT SQUARE_CORNER_VELOCITY=9
G1 F22940.801
G1 X62.694 Y54.775 E.07816
G1 X62.335 Y54.775 E.00977
G1 X62.335 Y56.966 E.05956
G2 X61.976 Y56.674 I-1.407 J1.365 E.01261
G1 X61.976 Y54.775 E.05163
G1 X61.617 Y54.775 E.00977
G1 X61.617 Y56.44 E.04526
G2 X61.257 Y56.268 I-2.034 J3.782 E.01083
G1 X61.257 Y54.775 E.04058
G1 X60.898 Y54.775 E.00977
G1 X60.898 Y56.149 E.03736
G2 X60.539 Y56.07 I-.61 J1.923 E.01001
M73 P2 R6
G1 X60.539 Y54.775 E.03522
G1 X60.18 Y54.775 E.00977
G1 X60.18 Y56.038 E.03433
G2 X59.82 Y56.032 I-.203 J1.545 E.00979
G1 X59.82 Y54.775 E.03418
G1 X59.461 Y54.775 E.00977
G1 X59.461 Y56.07 E.03521
G2 X59.102 Y56.148 I.293 J2.213 E.01001
G1 X59.102 Y54.775 E.03733
G1 X58.743 Y54.775 E.00977
G1 X58.743 Y56.269 E.04062
G2 X58.383 Y56.444 I.561 J1.608 E.01089
G1 X58.383 Y54.775 E.04538
G1 X58.024 Y54.775 E.00977
G1 X58.024 Y56.663 E.05133
G2 X57.665 Y56.966 I1.408 J2.034 E.01279
G1 X57.665 Y54.775 E.05956
G1 X57.306 Y54.775 E.00977
G1 X57.306 Y57.649 E.07813
SET_VELOCITY_LIMIT SQUARE_CORNER_VELOCITY=12
G1 X56.946 Y54.614 F36000
SET_VELOCITY_LIMIT SQUARE_CORNER_VELOCITY=9
G1 F22940.801
G1 X56.946 Y57.963 E.09104
G2 X56.946 Y60.832 I3.029 J1.435 E.0806
G1 X56.946 Y65.225 E.11942
G1 X56.587 Y65.225 E.00977
G1 X56.587 Y54.775 E.28409
G1 X56.228 Y54.775 E.00977
G1 X56.228 Y65.225 E.28409
G1 X55.868 Y65.225 E.00977
G1 X55.868 Y54.775 E.28409
G1 X55.509 Y54.775 E.00977
G1 X55.509 Y65.225 E.28409
G1 X55.15 Y65.225 E.00977
G1 X55.15 Y54.775 E.28409
G1 X54.791 Y54.775 E.00977
G1 X54.791 Y65.225 E.28409
G1 X54.431 Y65.225 E.00977
G1 X54.431 Y54.775 E.28409
G1 X54.072 Y54.775 E.00977
G1 X54.072 Y65.225 E.28409
G1 X53.713 Y65.225 E.00977
G1 X53.713 Y54.775 E.28409
G1 X53.354 Y54.775 E.00977
G1 X53.354 Y65.225 E.28409
G1 X53.335 Y65.225 E.0005
G1 X52.994 Y64.884 E.0131
G1 X52.994 Y54.775 E.27482
G1 X52.635 Y54.775 E.00977
G1 X52.635 Y64.525 E.26506
G1 X52.276 Y64.166 E.01381
G1 X52.276 Y54.614 E.25966
; stop printing object Tensioner_x1.stl id:15 copy 0
EXCLUDE_OBJECT_END NAME=Tensioner_x1_stl_id_15_copy_0
;LAYER_CHANGE
;Z:0.6
;HEIGHT:0.2
;BEFORE_LAYER_CHANGE
;0.6
G92 E0

G1 E-.72154 F1800
;WIPE_START
G1 F22940.801
G1 X52.276 Y55.614 E-.07846
;WIPE_END
;AFTER_LAYER_CHANGE
;0.6
;_SET_FAN_SPEED_CHANGING_LAYER
; printing object Tensioner_x1.stl id:15 copy 0
EXCLUDE_OBJECT_START NAME=Tensioner_x1_stl_id_15_copy_0
SET_VELOCITY_LIMIT SQUARE_CORNER_VELOCITY=12
G1 Z1 F36000
G1 X59.631 Y62.34 Z1
G1 Z.6
G1 E.8 F1800
SET_VELOCITY_LIMIT ACCEL=15000 ACCEL_TO_DECEL=15000 SQUARE_CORNER_VELOCITY=9
;TYPE:Inner wall
;WIDTH:0.4
G1 F23081.008
G1 X59.397 Y62.308 E.00639
G3 X59.356 Y56.498 I.603 J-2.909 E.21825
G1 X59.64 Y56.449 E.00779
G3 X59.856 Y62.366 I.359 J2.949 E.2658
G1 X59.671 Y62.345 E.00503
SET_VELOCITY_LIMIT ACCEL=20000 ACCEL_TO_DECEL=20000 SQUARE_CORNER_VELOCITY=12
G1 X59.676 Y61.987 F36000
SET_VELOCITY_LIMIT ACCEL=15000 ACCEL_TO_DECEL=15000 SQUARE_CORNER_VELOCITY=9
G1 F23081.008
G1 X59.469 Y61.958 E.00563
G3 X59.433 Y56.847 I.53 J-2.559 E.19198
G1 X59.684 Y56.804 E.0069
G3 X59.872 Y62.009 I.315 J2.595 E.23384
G1 X59.716 Y61.991 E.00427
SET_VELOCITY_LIMIT ACCEL=20000 ACCEL_TO_DECEL=20000 SQUARE_CORNER_VELOCITY=12
G1 X59.721 Y61.633 F36000
SET_VELOCITY_LIMIT ACCEL=15000 ACCEL_TO_DECEL=15000 SQUARE_CORNER_VELOCITY=9
G1 F23081.008
G1 X59.542 Y61.608 E.00487
G3 X59.509 Y57.197 I.458 J-2.209 E.16572
G1 X59.729 Y57.159 E.00601
M73 P3 R6
G3 X59.889 Y61.653 I.271 J2.24 E.20187
G1 X59.76 Y61.638 E.0035
SET_VELOCITY_LIMIT ACCEL=20000 ACCEL_TO_DECEL=20000 SQUARE_CORNER_VELOCITY=12
G1 X59.766 Y61.28 F36000
SET_VELOCITY_LIMIT ACCEL=10000 ACCEL_TO_DECEL=10000 SQUARE_CORNER_VELOCITY=9
;TYPE:Outer wall
G1 F23081.008
