; HEADER_BLOCK_START
; generated by OrcaSlicer 2.3.2-rc on 2026-03-01 at 18:12:31
; total layer number: 50
; filament_density: 1.04
; filament_diameter: 1.75
; max_z_height: 10.00
; filament: 1
; HEADER_BLOCK_END

; THUMBNAIL_BLOCK_START

;
; THUMBNAIL_BLOCK_END

; THUMBNAIL_BLOCK_START

;
; THUMBNAIL_BLOCK_END

; external perimeters extrusion width = 0.40mm
; perimeters extrusion width = 0.40mm
; infill extrusion width = 0.40mm
; solid infill extrusion width = 0.40mm
; top infill extrusion width = 0.40mm
; first layer extrusion width = 0.40mm

; external perimeters extrusion width = 0.40mm
; perimeters extrusion width = 0.40mm
; infill extrusion width = 0.40mm
; solid infill extrusion width = 0.40mm
; top infill extrusion width = 0.40mm
; first layer extrusion width = 0.40mm

; EXECUTABLE_BLOCK_START


; Pre-Processed for Cancel-Object support by preprocess_cancellation v0.2.0
; 2 known objects
EXCLUDE_OBJECT_DEFINE NAME=top_side_mount_clip_30_degree_x4_2_stl_id_0_copy_0 CENTER=63.480,67.975 POLYGON=[[56.711,61.76],[56.711,73.553],[70.075,73.553],[70.075,61.76]]
EXCLUDE_OBJECT_DEFINE NAME=top_side_mount_clip_30_degree_x4_2_stl_id_87_copy_0 CENTER=56.753,52.733 POLYGON=[[49.984,46.518],[49.984,58.311],[63.348,58.311],[63.348,46.518]]
M73 P0 R6
;TYPE:Custom
PRINT_START EXTRUDER_TEMP=255 BED_TEMP=105
G90
G21
M83 ; use relative distances for extrusion
; Filament gcode
SET_PRESSURE_ADVANCE ADVANCE=0.04; Override pressure advance value
M106 S0
;LAYER_CHANGE
;Z:0.2
;HEIGHT:0.2
;BEFORE_LAYER_CHANGE
;0.2
G92 E0

G1 E-.8 F1800
;AFTER_LAYER_CHANGE
;0.2
;_SET_FAN_SPEED_CHANGING_LAYER
SET_VELOCITY_LIMIT ACCEL=10000 ACCEL_TO_DECEL=10000
SET_VELOCITY_LIMIT SQUARE_CORNER_VELOCITY=9
; printing object top_side_mount_clip_30_degree_x4(2).stl id:0 copy 0
EXCLUDE_OBJECT_START NAME=top_side_mount_clip_30_degree_x4_2_stl_id_0_copy_0
G1 Z.6 F36000
G1 X62.161 Y68.58
G1 Z.6
G1 Z.2
G1 E.8 F1800
;TYPE:Inner wall
;WIDTH:0.4
G1 F6000
G1 X64.772 Y71.192 E.09978
G1 X67.459 Y68.505 E.10268
G1 X68.065 Y69.111 E.02317
G1 X65.045 Y72.131 E.11542
G1 X58.612 Y72.131 E.17382
G1 X58.452 Y72.089 E.00447
G1 X60.084 Y65.996 E.17043
G1 X61.474 Y66.368 E.03888
G1 X60.712 Y67.131 E.02915
G1 X62.132 Y68.552 E.0543
G1 X62.666 Y68.58 F36000
G1 F6000
G1 X64.772 Y70.687 E.08048
G1 X67.459 Y68 E.10268
G1 X68.57 Y69.111 E.04247
G1 X65.193 Y72.488 E.12906
G1 X58.565 Y72.489 E.17909
G1 X58.015 Y72.341 E.01539
G1 X59.832 Y65.558 E.18973
G1 X61.248 Y65.938 E.03961
G2 X63.053 Y64.085 I-23.347 J-24.547 E.06991
G1 X63.62 Y64.728 E.02316
G1 X61.217 Y67.131 E.09182
G1 X62.637 Y68.552 E.0543
G1 X63.171 Y68.58 F36000
G1 F6000
G1 X64.772 Y70.182 E.06119
G1 X67.459 Y67.495 E.10268
G1 X69.075 Y69.111 E.06176
G1 X65.341 Y72.846 E.14271
G1 X58.518 Y72.846 E.18436
G1 X57.577 Y72.594 E.0263
G1 X59.579 Y65.121 E.20902
G1 X61.141 Y65.54 E.04368
G2 X62.77 Y63.866 I-21.433 J-22.481 E.06311
G1 X63.07 Y63.478 E.01325
G1 X63.304 Y63.83 E.01142
G1 X64.109 Y64.743 E.03291
G1 X61.722 Y67.131 E.09123
G1 X63.142 Y68.552 E.0543
G1 X63.676 Y68.58 F36000
;TYPE:Outer wall
G1 F6000
G1 X64.772 Y69.677 E.04188
G1 X67.459 Y66.99 E.10268
G1 X69.58 Y69.111 E.08106
G1 X65.489 Y73.203 E.15635
G1 X58.471 Y73.203 E.18962
G1 X57.14 Y72.846 E.03722
G1 X59.327 Y64.684 E.22832
G1 X61.034 Y65.141 E.04776
G2 X62.495 Y63.637 I-19.485 J-20.383 E.05667
G1 X63.058 Y62.909 E.02487
G1 X63.201 Y62.814 E.00463
G2 X63.31 Y62.924 I.692 J-.578 E.0042
G1 X63.234 Y63.08 E.00469
G1 X63.588 Y63.612 E.01725
G1 X64.162 Y64.264 E.02348
G2 X64.945 Y63.422 I-4.039 J-4.541 E.03111
G1 X65.123 Y63.113 E.00962
G1 X65.138 Y63.105 E.00047
G1 X65.278 Y63.358 E.00782
G1 X65.594 Y63.019 E.01251
G2 X65.64 Y62.466 I-.359 J-.308 E.01604
G3 X65.684 Y62.217 I3.216 J.449 E.00682
G1 X67.27 Y61.922 E.04359
G1 X67.353 Y62.004 E.00316
G1 X62.227 Y67.131 E.19589
G1 X63.287 Y68.192 E.04053
G1 X67.294 Y64.182 E.15315
G3 X68.309 Y63.157 I14.675 J13.502 E.039
G1 X68.41 Y63.059 E.00378
G1 X68.43 Y63.079 E.00077
G3 X68.245 Y64.091 I-13.102 J-1.874 E.02778
G1 X68.132 Y64.663 E.01576
G3 X67.881 Y64.706 I-.548 J-2.465 E.00688
G2 X67.326 Y64.73 I-.26 J.415 E.01597
G1 X66.935 Y65.064 E.01389
G1 X67.107 Y65.15 E.00521
G1 X63.705 Y68.552 E.12999
G1 X63.355 Y68.512 F36000
;TYPE:Gap infill
;WIDTH:0.237385
G1 F6000
G1 X66.715 Y65.153 E.06991
G1 X67.204 Y64.525 F36000
;WIDTH:0.222368
G1 F6000
G3 X67.485 Y64.372 I1.349 J2.14 E.00435
G1 X68.061 Y64.099 E.00865
G1 X68.053 Y64.139 F36000
;WIDTH:0.39652
G1 F6000
G1 X67.303 Y64.426 E.02148
G1 X67.692 Y64.453 F36000
;WIDTH:0.35617
G1 F6000
G1 X68.154 Y63.562 E.0238
G1 X68.154 Y63.561 F36000
;WIDTH:0.38905
G1 F6000
G1 X67.693 Y64.454 E.02629
G1 E-.56 F1800
;WIPE_START
G1 F6000
G1 X68.152 Y63.565 E-.24
;WIPE_END
G1 Z.6 F36000
G1 X66.268 Y62.29 Z.6
G1 Z.2
G1 E.8 F1800
;WIDTH:0.487514
G1 F6000
G1 X66.087 Y62.744 E.01645
;WIDTH:0.472207
G1 X65.906 Y63.199 E.01588
G1 X66.006 Y62.903 F36000
;WIDTH:0.310323
G1 F6000
G1 X65.987 Y62.936 E.00076
;WIDTH:0.286698
G1 X65.943 Y63 E.00144
;WIDTH:0.255248
G1 X65.888 Y63.078 E.00153
;WIDTH:0.225552
G1 X65.796 Y63.189 E.00199
;WIDTH:0.200416
G1 X65.294 Y63.709 E.00862
;WIDTH:0.211091
G1 X65.248 Y63.722 E.0006
;WIDTH:0.257262
G1 X65.202 Y63.735 E.00077
;WIDTH:0.303433
G1 X65.157 Y63.748 E.00094
;WIDTH:0.366291
G1 X65.111 Y63.761 E.00116
G1 X65.126 Y63.466 E.00723
G1 X65.111 Y63.761 F36000
;WIDTH:0.352205
G1 F6000
G1 X64.937 Y63.953 E.00607
G3 X64.254 Y64.638 I-14.783 J-14.049 E.02263
G1 E-.56 F1800
;WIPE_START
G1 F6000
G1 X64.937 Y63.953 E-.23206
G1 X64.959 Y63.929 E-.00794
;WIPE_END
G1 Z.6 F36000
G1 X63.214 Y64.537 Z.6
G1 Z.2
G1 E.8 F1800
;WIDTH:0.5101
G1 F6000
G1 X61.56 Y66.206 E.08305
G1 X61.029 Y66.662 F36000
;TYPE:Bottom surface
;WIDTH:0.413988
G1 F12600
G1 X60.183 Y66.662 E.02376
G1 X60.084 Y67.033 E.01079
G1 X60.431 Y67.033 E.00975
G1 X60.333 Y67.131 E.0039
G1 X60.606 Y67.404 E.01084
G1 X59.984 Y67.404 E.01744
G1 X59.885 Y67.775 E.01079
G1 X60.977 Y67.775 E.03065
G1 X61.348 Y68.146 E.01473
G1 X59.786 Y68.146 E.04386
G1 X59.686 Y68.517 E.01079
G1 X61.719 Y68.517 E.05707
G1 X62.09 Y68.888 E.01473
G1 X59.587 Y68.888 E.07028
G1 X59.487 Y69.259 E.01079
G1 X62.461 Y69.259 E.08349
G1 X62.832 Y69.63 E.01473
G1 X59.388 Y69.63 E.0967
G1 X59.288 Y70.001 E.01079
G1 X63.203 Y70.001 E.10991
G1 X63.574 Y70.372 E.01473
G1 X59.189 Y70.372 E.12312
G1 X59.09 Y70.743 E.01079
G1 X63.945 Y70.743 E.13633
G1 X64.316 Y71.115 E.01473
G1 X58.99 Y71.115 E.14954
G1 X58.891 Y71.486 E.01079
G1 X64.434 Y71.486 E.15566
G1 X64.806 Y71.857 E.01473
G1 X58.625 Y71.857 E.17354
G1 E-.65714 F1800
;WIPE_START
G1 F12600
G1 X59.625 Y71.857 E-.14286
;WIPE_END
G1 Z.6 F36000
G1 X64.949 Y71.621 Z.6
G1 Z.2
M73 P1 R6
G1 E.8 F1800
;TYPE:Gap infill
;WIDTH:0.543365
G1 F6000
G1 X67.636 Y68.934 E.14391
; stop printing object top_side_mount_clip_30_degree_x4(2).stl id:0 copy 0
EXCLUDE_OBJECT_END NAME=top_side_mount_clip_30_degree_x4_2_stl_id_0_copy_0
; printing object top_side_mount_clip_30_degree_x4(2).stl id:87 copy 0
EXCLUDE_OBJECT_START NAME=top_side_mount_clip_30_degree_x4_2_stl_id_87_copy_0
G1 E-.56 F1800
;WIPE_START
G1 F6000
G1 X66.929 Y69.641 E-.24
;WIPE_END
G1 Z.6 F36000
G1 X55.433 Y53.338 Z.6
G1 Z.2
G1 E.8 F1800
;TYPE:Inner wall
;WIDTH:0.4
G1 F6000
G1 X58.045 Y55.95 E.09978
G1 X60.732 Y53.262 E.10268
G1 X61.338 Y53.869 E.02317
G1 X58.318 Y56.889 E.11542
G1 X51.884 Y56.889 E.17382
G1 X51.725 Y56.847 E.00447
G1 X53.357 Y50.754 E.17043
G1 X54.747 Y51.126 E.03888
G1 X53.984 Y51.889 E.02915
G1 X55.405 Y53.31 E.0543
G1 X55.938 Y53.338 F36000
G1 F6000
G1 X58.045 Y55.445 E.08048
G1 X60.732 Y52.757 E.10268
G1 X61.843 Y53.869 E.04247
G1 X58.466 Y57.246 E.12906
G1 X51.837 Y57.246 E.17909
G1 X51.287 Y57.099 E.01539
G1 X53.105 Y50.316 E.18973
G1 X54.521 Y50.696 E.03961
G2 X56.326 Y48.843 I-23.347 J-24.547 E.06991
G1 X56.892 Y49.486 E.02316
G1 X54.489 Y51.889 E.09182
G1 X55.91 Y53.31 E.0543
G1 X56.443 Y53.338 F36000
G1 F6000
G1 X58.045 Y54.94 E.06119
G1 X60.732 Y52.252 E.10268
G1 X62.348 Y53.869 E.06176
G1 X58.613 Y57.603 E.14271
G1 X51.79 Y57.603 E.18436
G1 X50.85 Y57.352 E.0263
G1 X52.852 Y49.879 E.20902
G1 X54.414 Y50.297 E.04368
G2 X56.042 Y48.624 I-21.433 J-22.481 E.06311
G1 X56.342 Y48.236 E.01325
G1 X56.577 Y48.588 E.01142
G1 X57.382 Y49.501 E.03291
G1 X54.994 Y51.889 E.09123
G1 X56.415 Y53.31 E.0543
G1 X56.949 Y53.338 F36000
;TYPE:Outer wall
G1 F6000
G1 X58.045 Y54.435 E.04188
G1 X60.732 Y51.747 E.10268
G1 X62.853 Y53.869 E.08106
G1 X58.761 Y57.961 E.15635
G1 X51.743 Y57.961 E.18962
G1 X50.413 Y57.604 E.03722
G1 X52.6 Y49.442 E.22832
G1 X54.307 Y49.899 E.04776
G2 X55.768 Y48.395 I-19.485 J-20.383 E.05667
G1 X56.331 Y47.667 E.02487
G1 X56.474 Y47.572 E.00463
G2 X56.583 Y47.682 I.692 J-.578 E.0042
G1 X56.507 Y47.838 E.00469
G1 X56.86 Y48.37 E.01725
G1 X57.435 Y49.021 E.02348
G2 X58.218 Y48.18 I-4.039 J-4.541 E.03111
G1 X58.396 Y47.871 E.00962
G1 X58.411 Y47.862 E.00047
G1 X58.551 Y48.116 E.00782
G1 X58.867 Y47.777 E.01251
G2 X58.912 Y47.223 I-.359 J-.308 E.01604
G3 X58.957 Y46.975 I3.216 J.449 E.00682
G1 X60.543 Y46.68 E.04359
G1 X60.626 Y46.762 E.00316
G1 X55.499 Y51.889 E.19589
G1 X56.56 Y52.95 E.04053
G1 X60.567 Y48.94 E.15315
G3 X61.582 Y47.915 I14.675 J13.502 E.039
G1 X61.682 Y47.817 E.00378
G1 X61.702 Y47.837 E.00077
G3 X61.517 Y48.848 I-13.102 J-1.874 E.02778
G1 X61.405 Y49.421 E.01576
G3 X61.154 Y49.463 I-.548 J-2.465 E.00688
G2 X60.598 Y49.488 I-.26 J.415 E.01597
G1 X60.207 Y49.821 E.01389
G1 X60.38 Y49.908 E.00521
G1 X56.977 Y53.31 E.12999
G1 X56.628 Y53.27 F36000
;TYPE:Gap infill
;WIDTH:0.237385
G1 F6000
G1 X59.987 Y49.91 E.06991
G1 X60.477 Y49.283 F36000
;WIDTH:0.222368
G1 F6000
G3 X60.758 Y49.13 I1.349 J2.14 E.00435
G1 X61.334 Y48.857 E.00865
G1 X61.326 Y48.897 F36000
;WIDTH:0.39652
G1 F6000
G1 X60.576 Y49.184 E.02148
G1 X60.965 Y49.211 F36000
;WIDTH:0.35617
G1 F6000
G1 X61.427 Y48.319 E.0238
G1 X61.426 Y48.319 F36000
;WIDTH:0.38905
G1 F6000
G1 X60.966 Y49.211 E.02629
G1 E-.56 F1800
;WIPE_START
G1 F6000
G1 X61.425 Y48.323 E-.24
;WIPE_END
G1 Z.6 F36000
G1 X59.541 Y47.048 Z.6
G1 Z.2
G1 E.8 F1800
;WIDTH:0.487514
G1 F6000
G1 X59.36 Y47.502 E.01645
;WIDTH:0.472207
G1 X59.179 Y47.957 E.01588
G1 X59.279 Y47.661 F36000
;WIDTH:0.310323
G1 F6000
G1 X59.26 Y47.694 E.00076
;WIDTH:0.286698
G1 X59.215 Y47.758 E.00144
;WIDTH:0.255248
G1 X59.161 Y47.836 E.00153
;WIDTH:0.225552
G1 X59.069 Y47.947 E.00199
;WIDTH:0.200416
G1 X58.566 Y48.467 E.00862
;WIDTH:0.211091
G1 X58.521 Y48.48 E.0006
;WIDTH:0.257262
G1 X58.475 Y48.493 E.00077
;WIDTH:0.303433
G1 X58.429 Y48.506 E.00094
;WIDTH:0.366291
G1 X58.384 Y48.519 E.00116
G1 X58.398 Y48.224 E.00723
G1 X58.384 Y48.519 F36000
;WIDTH:0.352205
G1 F6000
G1 X58.209 Y48.711 E.00607
G3 X57.527 Y49.396 I-14.783 J-14.049 E.02263
G1 E-.56 F1800
;WIPE_START
G1 F6000
G1 X58.209 Y48.711 E-.23206
G1 X58.232 Y48.686 E-.00794
;WIPE_END
G1 Z.6 F36000
G1 X56.486 Y49.295 Z.6
G1 Z.2
G1 E.8 F1800
;WIDTH:0.5101
G1 F6000
G1 X54.833 Y50.964 E.08305
G1 X54.302 Y51.42 F36000
;TYPE:Bottom surface
;WIDTH:0.413988
G1 F12600
G1 X53.456 Y51.42 E.02376
G1 X53.357 Y51.791 E.01079
G1 X53.704 Y51.791 E.00975
G1 X53.606 Y51.889 E.0039
G1 X53.878 Y52.162 E.01084
G1 X53.257 Y52.162 E.01744
G1 X53.158 Y52.533 E.01079
G1 X54.249 Y52.533 E.03065
G1 X54.621 Y52.904 E.01473
G1 X53.058 Y52.904 E.04386
G1 X52.959 Y53.275 E.01079
G1 X54.992 Y53.275 E.05707
G1 X55.363 Y53.646 E.01473
G1 X52.859 Y53.646 E.07028
G1 X52.76 Y54.017 E.01079
G1 X55.734 Y54.017 E.08349
G1 X56.105 Y54.388 E.01473
G1 X52.661 Y54.388 E.0967
G1 X52.561 Y54.759 E.01079
G1 X56.476 Y54.759 E.10991
G1 X56.847 Y55.13 E.01473
G1 X52.462 Y55.13 E.12312
G1 X52.362 Y55.501 E.01079
G1 X57.218 Y55.501 E.13633
G1 X57.589 Y55.872 E.01473
G1 X52.263 Y55.872 E.14954
G1 X52.163 Y56.244 E.01079
G1 X57.707 Y56.244 E.15566
G1 X58.078 Y56.615 E.01473
G1 X51.898 Y56.615 E.17354
G1 E-.65714 F1800
;WIPE_START
G1 F12600
G1 X52.898 Y56.615 E-.14286
;WIPE_END
G1 Z.6 F36000
G1 X58.222 Y56.379 Z.6
M73 P2 R6
G1 Z.2
G1 E.8 F1800
;TYPE:Gap infill
;WIDTH:0.543365
G1 F6000
G1 X60.909 Y53.692 E.14391
; stop printing object top_side_mount_clip_30_degree_x4(2).stl id:87 copy 0
EXCLUDE_OBJECT_END NAME=top_side_mount_clip_30_degree_x4_2_stl_id_87_copy_0
;LAYER_CHANGE
;Z:0.4
;HEIGHT:0.2
;BEFORE_LAYER_CHANGE
;0.4
G92 E0

G1 E-.56 F1800
;WIPE_START
G1 F6000
G1 X60.202 Y54.399 E-.24
;WIPE_END
;AFTER_LAYER_CHANGE
;0.4
;_SET_FAN_SPEED_CHANGING_LAYER
SET_VELOCITY_LIMIT ACCEL=20000 ACCEL_TO_DECEL=20000
M104 S250 ; set nozzle temperature
M140 S102 ; set bed temperature
; printing object top_side_mount_clip_30_degree_x4(2).stl id:0 copy 0
EXCLUDE_OBJECT_START NAME=top_side_mount_clip_30_degree_x4_2_stl_id_0_copy_0
SET_VELOCITY_LIMIT SQUARE_CORNER_VELOCITY=12
G1 Z.8 F36000
G1 X62.373 Y68.581 Z.8
G1 Z.4
G1 E.8 F1800
SET_VELOCITY_LIMIT ACCEL=15000 ACCEL_TO_DECEL=15000 SQUARE_CORNER_VELOCITY=9
;TYPE:Inner wall
;WIDTH:0.4
G1 F23081.008
G1 X64.772 Y70.979 E.09166
G1 X67.601 Y68.151 E.10808
G1 X68.56 Y69.111 E.03668
G1 X65.19 Y72.481 E.12879
G1 X58.945 Y72.481 E.16872
G3 X58.024 Y72.334 I.025 J-3.122 E.02531
G1 X59.837 Y65.567 E.1893
G1 X61.25 Y65.946 E.03952
G1 X62.898 Y64.297 E.06299
G1 X63.328 Y64.727 E.01641
G1 X60.924 Y67.131 E.09186
G1 X62.345 Y68.552 E.05431
SET_VELOCITY_LIMIT ACCEL=20000 ACCEL_TO_DECEL=20000 SQUARE_CORNER_VELOCITY=12
G1 X62.878 Y68.581 F36000
SET_VELOCITY_LIMIT ACCEL=15000 ACCEL_TO_DECEL=15000 SQUARE_CORNER_VELOCITY=9
G1 F23081.008
G1 X64.772 Y70.474 E.07237
G1 X67.601 Y67.646 E.10808
G1 X69.065 Y69.111 E.05597
G1 X65.338 Y72.838 E.14243
G1 X58.939 Y72.839 E.17288
G3 X58.231 Y72.759 I.175 J-4.772 E.01929
G1 X57.586 Y72.587 E.01802
G1 X59.584 Y65.13 E.20861
G1 X61.143 Y65.547 E.0436
G1 X62.898 Y63.792 E.06707
G1 X63.833 Y64.727 E.03571
G1 X61.429 Y67.131 E.09186
G1 X62.85 Y68.552 E.05431
SET_VELOCITY_LIMIT ACCEL=20000 ACCEL_TO_DECEL=20000 SQUARE_CORNER_VELOCITY=12
G1 X63.383 Y68.581 F36000
SET_VELOCITY_LIMIT ACCEL=15000 ACCEL_TO_DECEL=15000 SQUARE_CORNER_VELOCITY=9
G1 F23081.008
G1 X64.772 Y69.969 E.05307
G1 X67.601 Y67.141 E.10808
G1 X69.57 Y69.111 E.07527
G1 X65.486 Y73.196 E.15608
G1 X58.934 Y73.196 E.17703
G3 X58.147 Y73.106 I.196 J-5.244 E.02141
G1 X57.149 Y72.84 E.02792
G1 X59.332 Y64.692 E.22792
G1 X61.036 Y65.149 E.04768
G1 X62.898 Y63.287 E.07114
G1 X64.171 Y64.56 E.04863
G1 X65.258 Y63.473 E.04152
G1 X65.484 Y63.58 E.00677
G1 X61.934 Y67.131 E.13567
G1 X63.355 Y68.552 E.05431
SET_VELOCITY_LIMIT ACCEL=20000 ACCEL_TO_DECEL=20000 SQUARE_CORNER_VELOCITY=12
G1 E-.72201 F1800
;WIPE_START
G1 F23081.008
G1 X64.062 Y69.259 E-.07799
;WIPE_END
G1 Z.8 F36000
G1 X65.894 Y62.958 Z.8
G1 Z.4
G1 E.8 F1800
SET_VELOCITY_LIMIT ACCEL=15000 ACCEL_TO_DECEL=15000 SQUARE_CORNER_VELOCITY=9
G1 F23081.008
G2 X65.894 Y62.389 I-1.054 J-.283 E.01556
G1 X66.593 Y62.259 E.01921
G1 X66.666 Y62.398 E.00427
G1 X66.034 Y63.031 E.02417
G1 X65.93 Y62.977 E.00316
SET_VELOCITY_LIMIT ACCEL=20000 ACCEL_TO_DECEL=20000 SQUARE_CORNER_VELOCITY=12
G1 E-.72201 F1800
;WIPE_START
G1 F23081.008
G1 X65.932 Y62.747 E-.01794
G1 X65.932 Y62.606 E-.011
G1 X65.894 Y62.389 E-.01716
G1 X66.296 Y62.314 E-.03189
;WIPE_END
G1 Z.8 F36000
G1 X67.356 Y64.416 Z.8
G1 Z.4
G1 E.8 F1800
SET_VELOCITY_LIMIT ACCEL=15000 ACCEL_TO_DECEL=15000 SQUARE_CORNER_VELOCITY=9
G1 F23081.008
G1 X67.917 Y63.855 E.02142
G1 X68.056 Y63.929 E.00427
G1 X67.958 Y64.454 E.01444
G2 X67.396 Y64.412 I-.41 J1.689 E.01532
SET_VELOCITY_LIMIT ACCEL=20000 ACCEL_TO_DECEL=20000 SQUARE_CORNER_VELOCITY=12
G1 E-.72201 F1800
;WIPE_START
G1 F23081.008
G1 X67.917 Y63.855 E-.05946
G1 X68.056 Y63.929 E-.01231
G1 X68.042 Y64.007 E-.00621
;WIPE_END
G1 Z.8 F36000
G1 X63.888 Y68.581 Z.8
G1 Z.4
G1 E.8 F1800
SET_VELOCITY_LIMIT ACCEL=10000 ACCEL_TO_DECEL=10000 SQUARE_CORNER_VELOCITY=9
;TYPE:Outer wall
G1 F23081.008
G1 X64.772 Y69.464 E.03377
G1 X67.601 Y66.636 E.10808
G1 X70.075 Y69.111 E.09457
G1 X65.634 Y73.553 E.16972
G1 X58.928 Y73.553 E.18119
G3 X58.063 Y73.454 I.217 J-5.72 E.02353
G1 X56.711 Y73.093 E.03781
G1 X59.079 Y64.255 E.24723
G1 X60.93 Y64.751 E.05175
G1 X63.252 Y62.429 E.08873
G1 X63.535 Y62.712 E.01081
G1 X63.181 Y63.065 E.01351
G1 X64.171 Y64.055 E.03783
