; HEADER_BLOCK_START
; generated by OrcaSlicer 2.3.2-beta2 on 2026-02-25 at 08:47:17
; total layer number: 50
; filament_density: 1.04
; filament_diameter: 1.75
; max_z_height: 10.00
; filament: 1
; HEADER_BLOCK_END

; THUMBNAIL_BLOCK_START

;
; THUMBNAIL_BLOCK_END

; THUMBNAIL_BLOCK_START

;
; THUMBNAIL_BLOCK_END

; external perimeters extrusion width = 0.40mm
; perimeters extrusion width = 0.40mm
; infill extrusion width = 0.40mm
; solid infill extrusion width = 0.40mm
; top infill extrusion width = 0.40mm
; first layer extrusion width = 0.40mm

; EXECUTABLE_BLOCK_START


; Pre-Processed for Cancel-Object support by preprocess_cancellation v0.2.0
; 1 known objects
EXCLUDE_OBJECT_DEFINE NAME=u2c_mount_4_swithwire_1_stl_id_18446744073695314177_copy_0 CENTER=60.091,59.808 POLYGON=[[17.785,39.981],[17.785,80.019],[102.215,80.019],[102.215,39.981]]
M73 P0 R19
;TYPE:Custom
PRINT_START EXTRUDER_TEMP=255 BED_TEMP=105
G90
G21
M83 ; use relative distances for extrusion
; Filament gcode
SET_PRESSURE_ADVANCE ADVANCE=0.04; Override pressure advance value
M106 S0
;LAYER_CHANGE
;Z:0.2
;HEIGHT:0.2
;BEFORE_LAYER_CHANGE
;0.2
G92 E0

G1 E-.8 F1800
;AFTER_LAYER_CHANGE
;0.2
;_SET_FAN_SPEED_CHANGING_LAYER
SET_VELOCITY_LIMIT ACCEL=10000 ACCEL_TO_DECEL=10000
SET_VELOCITY_LIMIT SQUARE_CORNER_VELOCITY=9
; printing object u2c_mount_4_swithwire(1).stl id:18446744073695314177 copy 0
EXCLUDE_OBJECT_START NAME=u2c_mount_4_swithwire_1_stl_id_18446744073695314177_copy_0
G1 Z.6 F36000
G1 X98.221 Y60.696
G1 Z.6
G1 Z.2
G1 E.8 F1800
;TYPE:Outer wall
;WIDTH:0.4
G1 F6000
G1 X98.343 Y60.549 E.00515
G3 X99.43 Y59.976 I1.344 J1.231 E.03388
G3 X101.428 Y61.982 I.242 J1.757 E.08858
G3 X97.866 Y61.686 I-1.776 J-.203 E.14877
G3 X98.152 Y60.797 I1.82 J.094 E.02552
G1 X98.199 Y60.729 E.00222
G1 E-.56 F1800
;WIPE_START
G1 F6000
G1 X98.343 Y60.549 E-.05533
G1 X98.511 Y60.379 E-.05734
G1 X98.765 Y60.202 E-.0744
G1 X98.965 Y60.108 E-.05293
;WIPE_END
G1 Z.6 F36000
G1 X98.246 Y43.628 Z.6
G1 Z.2
G1 E.8 F1800
G1 F6000
G1 X98.143 Y43.5 E.00443
G3 X99.364 Y40.775 I1.513 J-.958 E.0954
G1 X99.447 Y40.768 E.00227
G3 X100.051 Y44.289 I.206 J1.777 E.14661
G3 X98.334 Y43.75 I-.394 J-1.747 E.05093
G1 X98.27 Y43.66 E.00299
G1 E-.56 F1800
;WIPE_START
G1 F6000
G1 X98.143 Y43.5 E-.04897
G1 X97.973 Y43.146 E-.09418
G1 X97.892 Y42.843 E-.07532
G1 X97.886 Y42.754 E-.02153
;WIPE_END
G1 Z.6 F36000
G1 X90.098 Y72.606 Z.6
G1 Z.2
G1 E.8 F1800
;TYPE:Inner wall
G1 F6000
G1 X90.098 Y72.531 E.00203
G3 X94.038 Y68.414 I4.317 J.188 E.16812
G1 X94.226 Y68.402 E.00509
G3 X90.098 Y72.908 I.188 J4.317 E.55016
G1 X90.098 Y72.646 E.00708
G1 X90.454 Y72.606 F36000
G1 F6000
G1 X90.455 Y72.546 E.00161
G3 X94.069 Y68.77 I3.96 J.172 E.15423
G1 X94.242 Y68.759 E.00467
G3 X90.455 Y72.892 I.173 J3.96 E.50469
G1 X90.454 Y72.646 E.00666
G1 X90.811 Y72.606 F36000
G1 F6000
G1 X90.812 Y72.562 E.00119
G3 X94.101 Y69.126 I3.603 J.157 E.14033
G1 X94.258 Y69.115 E.00425
G3 X90.812 Y72.877 I.157 J3.603 E.45922
G1 X90.811 Y72.646 E.00624
G1 X91.168 Y72.606 F36000
;TYPE:Outer wall
G1 F6000
G1 X91.168 Y72.578 E.00077
G3 X94.132 Y69.482 I3.247 J.141 E.12644
G1 X94.273 Y69.472 E.00383
G3 X91.168 Y72.861 I.142 J3.247 E.41376
G1 X91.168 Y72.646 E.00581
G1 E-.56 F1800
;WIPE_START
G1 F6000
G1 X91.168 Y72.578 E-.0164
G1 X91.193 Y72.295 E-.06804
G1 X91.276 Y71.878 E-.10203
G1 X91.343 Y71.665 E-.05353
;WIPE_END
G1 Z.6 F36000
G1 X22.279 Y75.497 Z.6
G1 Z.2
G1 E.8 F1800
;TYPE:Inner wall
G1 F6000
G1 X22.157 Y75.35 E.00516
G3 X25.208 Y68.414 I3.428 J-2.631 E.24963
G1 X25.397 Y68.402 E.00509
G3 X22.399 Y75.638 I.188 J4.317 E.46866
G1 X22.305 Y75.527 E.00394
G1 X22.553 Y75.267 F36000
G1 F6000
G1 X22.44 Y75.132 E.00474
G3 X25.24 Y68.77 I3.145 J-2.413 E.229
G1 X25.412 Y68.759 E.00467
G3 X22.663 Y75.397 I.173 J3.96 E.42993
G1 X22.578 Y75.298 E.00352
G1 X22.826 Y75.038 F36000
G1 F6000
G1 X22.724 Y74.915 E.00432
G3 X25.271 Y69.126 I2.861 J-2.196 E.20837
G1 X25.428 Y69.115 E.00425
G3 X22.926 Y75.156 I.157 J3.603 E.39119
G1 X22.852 Y75.068 E.0031
G1 X23.099 Y74.808 F36000
;TYPE:Outer wall
G1 F6000
G1 X23.007 Y74.697 E.0039
G3 X25.302 Y69.482 I2.578 J-1.979 E.18774
G1 X25.443 Y69.472 E.00383
G3 X23.189 Y74.915 I.142 J3.247 E.35246
G1 X23.125 Y74.839 E.00268
G1 E-.56 F1800
;WIPE_START
G1 F6000
G1 X23.007 Y74.697 E-.04424
G1 X22.77 Y74.345 E-.10198
G1 X22.639 Y74.093 E-.06809
G1 X22.598 Y73.994 E-.02569
;WIPE_END
G1 Z.6 F36000
G1 X97.335 Y44.2 Z.6
G1 Z.2
G1 E.8 F1800
;TYPE:Inner wall
G1 F6000
G1 X97.388 Y44.278 E.00255
G2 X100.692 Y45.216 I2.283 J-1.753 E.09942
G1 X100.692 Y59.075 E.37447
G2 X100.692 Y64.446 I-1.024 J2.685 E.30047
G1 X100.692 Y78.234 E.37254
G3 X100.378 Y78.498 I-.283 J-.018 E.01239
G1 X89.821 Y78.496 E.28524
G3 X88.614 Y77.44 I.068 J-1.295 E.0467
G1 X87.582 Y72.278 E.14223
G2 X82.971 Y68.498 I-4.637 J.953 E.17428
G1 X37.029 Y68.498 E1.2413
G2 X32.418 Y72.279 I.027 J4.735 E.17427
G1 X31.385 Y77.443 E.14229
G3 X30.18 Y78.496 I-1.269 J-.236 E.04663
G1 X19.57 Y78.496 E.28668
G3 X19.306 Y78.188 I.018 J-.282 E.01222
G1 X19.307 Y64.446 E.37131
G2 X19.307 Y59.076 I1.024 J-2.685 E.30052
G1 X19.308 Y45.216 E.37447
G2 X23.02 Y41.502 I1.021 J-2.692 E.1786
G1 X96.98 Y41.504 E1.99833
G2 X97.126 Y43.87 I2.691 J1.021 E.06602
G1 X97.314 Y44.166 E.00948
G1 X97.681 Y44.061 F36000
G1 F6000
G1 X97.812 Y44.228 E.00574
G2 X101.049 Y44.633 I1.856 J-1.701 E.09585
G1 X101.05 Y59.649 E.4057
G2 X101.049 Y63.873 I-1.376 J2.112 E.29264
G1 X101.045 Y78.299 E.38979
G3 X100.387 Y78.855 I-.636 J-.085 E.02551
G1 X89.806 Y78.853 E.2859
G3 X88.266 Y77.518 I.086 J-1.655 E.05931
G1 X87.233 Y72.352 E.14233
G2 X82.967 Y68.855 I-4.287 J.879 E.16125
G1 X37.033 Y68.855 E1.2411
G2 X32.767 Y72.352 I.022 J4.377 E.16124
G1 X31.734 Y77.52 E.14238
G3 X30.196 Y78.853 I-1.619 J-.314 E.05927
G1 X19.505 Y78.849 E.28885
G3 X18.949 Y78.196 I.093 J-.642 E.02531
G1 X18.95 Y63.862 E.38728
G2 X19.272 Y59.481 I1.383 J-2.101 E.28262
G1 X18.95 Y59.649 E.00981
G1 X18.951 Y44.633 E.40571
G2 X22.446 Y41.145 I1.373 J-2.119 E.18549
G1 X97.563 Y41.146 E2.02958
G2 X97.546 Y43.881 I2.106 J1.38 E.0781
G1 X97.657 Y44.029 E.00502
G1 X97.985 Y43.879 F36000
G1 F6000
G1 X98.208 Y44.12 E.00888
G2 X101.124 Y44.12 I1.458 J-1.593 E.08647
G1 X101.408 Y43.833 E.01092
G1 X101.407 Y60.456 E.44913
G2 X99.198 Y59.654 I-1.77 J1.432 E.06671
G2 X101.124 Y63.35 I.468 J2.106 E.21366
G1 X101.407 Y63.065 E.01086
G1 X101.406 Y78.264 E.41066
G3 X100.397 Y79.212 I-.998 J-.05 E.04135
M73 P1 R19
G1 X89.791 Y79.21 E.28657
G3 X87.917 Y77.595 I.105 J-2.016 E.07192
G1 X86.883 Y72.426 E.14243
G2 X82.963 Y69.212 I-3.937 J.804 E.14821
G1 X37.037 Y69.212 E1.24089
G2 X33.117 Y72.426 I.018 J4.019 E.1482
G1 X32.083 Y77.596 E.14247
G3 X30.211 Y79.21 I-1.97 J-.393 E.0719
G1 X19.54 Y79.211 E.28831
G3 X18.592 Y78.204 I.05 J-.997 E.04128
G1 X18.593 Y63.065 E.40904
G2 X20.71 Y63.886 I1.775 J-1.437 E.0642
G2 X18.876 Y60.171 I-.376 J-2.124 E.21613
G1 X18.593 Y60.457 E.01088
G1 X18.592 Y43.833 E.44915
G2 X20.717 Y44.654 I1.775 J-1.435 E.06446
G2 X21.925 Y41.072 I-.385 J-2.124 E.12439
G1 X21.637 Y40.786 E.01096
G1 X22.332 Y40.788 E.01879
G1 X98.363 Y40.787 E2.05428
G2 X97.54 Y42.905 I1.436 J1.777 E.06427
G2 X97.954 Y43.843 I2.126 J-.378 E.02797
G1 X97.959 Y43.849 E.00019
G1 E-.56 F1800
;WIPE_START
G1 F6000
G1 X98.208 Y44.12 E-.0885
G1 X98.351 Y44.243 E-.04516
G1 X98.593 Y44.403 E-.06958
G1 X98.732 Y44.468 E-.03676
;WIPE_END
G1 Z.6 F36000
G1 X21.098 Y44.157 Z.6
G1 Z.2
G1 E.8 F1800
;TYPE:Outer wall
G1 F6000
G1 X20.952 Y44.226 E.00437
G3 X20.566 Y44.316 I-.595 J-1.684 E.01073
G3 X20.104 Y40.775 I-.226 J-1.771 E.1513
G3 X21.172 Y44.131 I.253 J1.768 E.13555
G1 X21.136 Y44.144 E.00104
G1 E-.56 F1800
;WIPE_START
G1 F6000
G1 X20.952 Y44.226 E-.04837
G1 X20.566 Y44.316 E-.09508
G1 X20.256 Y44.329 E-.0744
G1 X20.165 Y44.315 E-.02214
;WIPE_END
G1 Z.6 F36000
G1 X19.091 Y63.06 Z.6
G1 Z.2
G1 E.8 F1800
G1 F6000
G1 X19.016 Y62.968 E.00321
G3 X18.588 Y62.134 I1.33 J-1.21 E.02563
G3 X18.775 Y60.869 I2.056 J-.343 E.03512
G3 X20.253 Y59.962 I1.563 J.89 E.04887
G3 X19.127 Y63.079 I.094 J1.796 E.19137
G1 E-.56 F1800
;WIPE_START
G1 F6000
G1 X19.016 Y62.968 E-.03756
G1 X18.777 Y62.656 E-.09436
G1 X18.65 Y62.37 E-.0751
G1 X18.615 Y62.237 E-.03298
;WIPE_END
G1 Z.6 F36000
G1 X99.309 Y40.41 Z.6
G1 Z.2
G1 E.8 F1800
G1 F6000
G1 X99.734 Y40.404 E.01149
G3 X101.791 Y42.434 I-.074 J2.132 E.08578
G2 X101.763 Y44.416 I51.17 J1.718 E.05356
G1 X101.764 Y60.359 E.43077
G2 X101.792 Y61.852 I43.752 J-.071 E.04033
G2 X101.763 Y63.347 I31.741 J1.351 E.04042
G1 X101.763 Y78.279 E.40343
G3 X100.406 Y79.569 I-1.356 J-.067 E.05584
G1 X89.775 Y79.567 E.28723
G3 X87.569 Y77.673 I.123 J-2.376 E.08453
G1 X86.534 Y72.5 E.14254
G2 X82.959 Y69.569 I-3.587 J.729 E.13517
G1 X37.041 Y69.569 E1.24068
G2 X33.466 Y72.5 I.013 J3.661 E.13516
G1 X32.431 Y77.673 E.14255
G3 X30.226 Y79.567 I-2.321 J-.472 E.08454
G1 X19.525 Y79.568 E.28913
G3 X18.235 Y78.212 I.067 J-1.356 E.05581
G1 X18.236 Y63.304 E.40279
G2 X18.208 Y61.812 I-31.624 J-.146 E.04032
G2 X18.236 Y60.322 I-44.505 J-1.584 E.04027
G1 X18.237 Y44.412 E.42988
G2 X18.215 Y42.348 I-1474.038 J15.119 E.05578
G3 X20.334 Y40.402 I2.128 J.191 E.08528
G1 X20.829 Y40.42 E.01338
G2 X22.332 Y40.431 I1.116 J-51.366 E.04062
G1 X97.745 Y40.432 E2.03757
G1 X99.269 Y40.411 E.0412
G1 X99.117 Y40.62 F36000
;TYPE:Gap infill
;WIDTH:0.105622
G1 F6000
G1 X98.983 Y40.641 E.00064
;WIDTH:0.134762
G1 X98.905 Y40.657 E.00055
;WIDTH:0.165021
G2 X98.811 Y40.683 I-.012 J.139 E.00092
;WIDTH:0.155246
G1 X98.739 Y40.734 E.00075
;WIDTH:0.12617
G1 X98.665 Y40.787 E.00058
;WIDTH:0.111516
G1 X98.574 Y40.859 E.0006
G1 E-.76533 F1800
;WIPE_START
G1 F6000
G1 X98.665 Y40.787 E-.03467
;WIPE_END
G1 Z.6 F36000
G1 X96.785 Y41.77 Z.6
G1 Z.2
G1 E.8 F1800
;TYPE:Bottom surface
;WIDTH:0.400371
G1 F12600
G1 X23.379 Y41.77 E1.98541
G1 X23.449 Y42.127 E.00985
G1 X96.558 Y42.127 E1.97739
G2 X96.531 Y42.485 I1.18 J.267 E.00973
G1 X23.466 Y42.485 E1.97622
G3 X23.453 Y42.842 I-1.145 J.139 E.00971
G1 X96.547 Y42.842 E1.97698
G2 X96.604 Y43.2 I1.157 J-.002 E.00983
G1 X23.396 Y43.2 E1.98008
G1 X23.3 Y43.557 E.01001
G1 X96.7 Y43.557 E1.98527
G2 X96.851 Y43.915 I1.205 J-.298 E.01054
G1 X23.15 Y43.915 E1.99342
G1 X22.944 Y44.272 E.01115
G1 X97.064 Y44.272 E2.00473
G2 X97.33 Y44.63 I1.505 J-.845 E.0121
G1 X22.669 Y44.63 E2.01937
G1 X22.287 Y44.987 E.01416
G1 X97.725 Y44.987 E2.0404
G2 X98.278 Y45.345 I1.461 J-1.654 E.01788
G1 X21.719 Y45.345 E2.0707
G1 X21.645 Y45.385 E.00229
M73 P2 R19
G3 X19.576 Y45.567 I-1.287 J-2.779 E.05731
G1 X19.576 Y45.702 E.00365
G1 X100.424 Y45.702 E2.1867
G1 X100.424 Y46.059 E.00967
G1 X19.576 Y46.059 E2.1867
G1 X19.576 Y46.417 E.00967
G1 X100.424 Y46.417 E2.18671
G1 X100.424 Y46.774 E.00967
G1 X19.576 Y46.774 E2.18671
G1 X19.576 Y47.132 E.00967
G1 X100.424 Y47.132 E2.18671
G1 X100.424 Y47.489 E.00967
G1 X19.576 Y47.489 E2.18671
G1 X19.576 Y47.847 E.00967
G1 X100.424 Y47.847 E2.18671
G1 X100.424 Y48.204 E.00967
G1 X19.576 Y48.204 E2.18671
G1 X19.576 Y48.562 E.00967
G1 X100.424 Y48.562 E2.18671
G1 X100.424 Y48.919 E.00967
G1 X19.576 Y48.919 E2.18672
G1 X19.576 Y49.276 E.00967
G1 X100.424 Y49.276 E2.18672
G1 X100.424 Y49.634 E.00967
G1 X19.576 Y49.634 E2.18672
G1 X19.576 Y49.991 E.00967
G1 X100.424 Y49.991 E2.18672
G1 X100.424 Y50.349 E.00967
G1 X19.576 Y50.349 E2.18672
G1 X19.576 Y50.706 E.00967
G1 X100.424 Y50.706 E2.18672
G1 X100.424 Y51.064 E.00967
G1 X19.576 Y51.064 E2.18672
G1 X19.576 Y51.421 E.00967
G1 X100.424 Y51.421 E2.18673
G1 X100.424 Y51.779 E.00967
G1 X19.576 Y51.779 E2.18673
G1 X19.575 Y52.136 E.00967
G1 X100.424 Y52.136 E2.18673
G1 X100.424 Y52.494 E.00967
G1 X19.575 Y52.494 E2.18673
G1 X19.575 Y52.851 E.00967
G1 X100.424 Y52.851 E2.18673
G1 X100.424 Y53.208 E.00967
G1 X19.575 Y53.208 E2.18673
G1 X19.575 Y53.566 E.00967
G1 X100.424 Y53.566 E2.18673
G1 X100.424 Y53.923 E.00967
G1 X19.575 Y53.923 E2.18674
G1 X19.575 Y54.281 E.00967
G1 X100.424 Y54.281 E2.18674
G1 X100.424 Y54.638 E.00967
G1 X19.575 Y54.638 E2.18674
G1 X19.575 Y54.996 E.00967
G1 X100.424 Y54.996 E2.18674
G1 X100.424 Y55.353 E.00967
M73 P3 R19
G1 X19.575 Y55.353 E2.18674
G1 X19.575 Y55.711 E.00967
G1 X100.424 Y55.711 E2.18674
G1 X100.424 Y56.068 E.00967
G1 X19.575 Y56.068 E2.18675
G1 X19.575 Y56.426 E.00967
G1 X100.424 Y56.426 E2.18675
G1 X100.424 Y56.783 E.00967
G1 X19.575 Y56.783 E2.18675
G1 X19.575 Y57.14 E.00967
G1 X100.424 Y57.14 E2.18675
G1 X100.424 Y57.498 E.00967
G1 X19.575 Y57.498 E2.18675
G1 X19.575 Y57.855 E.00967
G1 X100.425 Y57.855 E2.18675
G1 X100.425 Y58.213 E.00967
G1 X19.575 Y58.213 E2.18675
G1 X19.575 Y58.57 E.00967
G1 X100.425 Y58.57 E2.18676
G1 X100.425 Y58.716 E.00395
G2 X98.335 Y58.928 I-.759 J2.933 E.05802
G1 X21.684 Y58.928 E2.07318
G3 X22.266 Y59.285 I-1.526 J3.135 E.01849
G1 X97.743 Y59.285 E2.04145
G2 X97.346 Y59.643 I2.223 J2.865 E.01445
G1 X22.654 Y59.643 E2.02022
G3 X22.934 Y60 I-1.56 J1.508 E.0123
M73 P3 R18
G1 X97.076 Y60 E2.00534
G2 X96.86 Y60.357 I1.076 J.894 E.01134
G1 X23.142 Y60.357 E1.99386
G3 X23.285 Y60.715 I-1.286 J.721 E.01044
G1 X96.705 Y60.715 E1.98581
G2 X96.604 Y61.072 I1.993 J.756 E.01006
G1 X23.393 Y61.072 E1.98014
G3 X23.456 Y61.43 I-1.67 J.476 E.00983
G1 X96.549 Y61.43 E1.97697
G2 X96.531 Y61.787 I1.338 J.247 E.00971
G1 X23.473 Y61.787 E1.97602
G3 X23.445 Y62.145 I-1.583 J.057 E.00972
G1 X96.551 Y62.145 E1.97731
G2 X96.616 Y62.502 I2.074 J-.191 E.00984
G1 X23.377 Y62.502 E1.9809
G3 X23.276 Y62.86 I-1.422 J-.208 E.01007
G1 X96.734 Y62.86 E1.98684
G2 X96.89 Y63.217 I1.263 J-.338 E.01059
G1 X23.108 Y63.217 E1.9956
G1 X22.896 Y63.575 E.01124
G1 X97.105 Y63.575 E2.00713
G2 X97.41 Y63.932 I1.51 J-.981 E.01275
G1 X22.597 Y63.932 E2.02347
G3 X22.194 Y64.289 I-1.771 J-1.593 E.01461
G1 X97.806 Y64.289 E2.0451
G2 X98.434 Y64.647 I2.318 J-3.341 E.01956
G1 X21.566 Y64.647 E2.07905
G3 X19.575 Y64.796 I-1.208 J-2.755 E.05506
G1 X19.575 Y65.004 E.00563
G1 X100.424 Y65.004 E2.18675
G1 X100.424 Y65.362 E.00967
G1 X19.575 Y65.362 E2.18675
G1 X19.575 Y65.719 E.00967
M73 P4 R18
G1 X100.424 Y65.719 E2.18675
G1 X100.424 Y66.077 E.00967
G1 X19.575 Y66.077 E2.18675
G1 X19.575 Y66.434 E.00967
G1 X100.424 Y66.434 E2.18675
G1 X100.424 Y66.792 E.00967
G1 X19.575 Y66.792 E2.18675
G1 X19.575 Y67.149 E.00967
G1 X100.424 Y67.149 E2.18675
G1 X100.424 Y67.507 E.00967
G1 X19.575 Y67.506 E2.18675
G1 X19.575 Y67.864 E.00967
G1 X100.424 Y67.864 E2.18675
G1 X100.424 Y68.221 E.00967
G1 X19.575 Y68.221 E2.18675
G1 X19.575 Y68.579 E.00967
G1 X23.609 Y68.579 E.10911
G2 X23.003 Y68.936 I1.328 J2.943 E.01907
G1 X19.575 Y68.936 E.09272
G1 X19.575 Y69.294 E.00967
G1 X22.534 Y69.294 E.08004
G2 X22.174 Y69.651 I4.614 J5.002 E.01372
G1 X19.575 Y69.651 E.07032
G1 X19.575 Y70.009 E.00967
G1 X21.888 Y70.009 E.06256
G2 X21.647 Y70.366 I1.517 J1.279 E.01167
G1 X19.575 Y70.366 E.05607
G1 X19.574 Y70.724 E.00967
G1 X21.455 Y70.724 E.05085
G2 X21.301 Y71.081 I1.95 J1.051 E.01054
G1 X19.574 Y71.081 E.04669
G1 X19.574 Y71.438 E.00967
G1 X21.188 Y71.438 E.04363
G2 X21.092 Y71.796 I1.589 J.617 E.01003
G1 X19.574 Y71.796 E.04104
G1 X19.574 Y72.153 E.00967
G1 X21.032 Y72.153 E.03942
G1 X21 Y72.511 E.0097
G1 X19.574 Y72.511 E.03857
G1 X19.574 Y72.868 E.00967
G1 X21 Y72.868 E.03855
G2 X21.033 Y73.226 I1.648 J.027 E.00973
G1 X19.574 Y73.226 E.03945
G1 X19.574 Y73.583 E.00967
G1 X21.08 Y73.583 E.04072
G2 X21.162 Y73.941 I2.084 J-.292 E.00993
G1 X19.574 Y73.941 E.04295
G1 X19.574 Y74.298 E.00967
G1 X21.276 Y74.298 E.04602
G1 X21.424 Y74.656 E.01046
G1 X19.574 Y74.656 E.05003
G1 X19.574 Y75.013 E.00967
G1 X21.61 Y75.013 E.05505
G2 X21.848 Y75.37 I1.751 J-.909 E.01164
G1 X19.574 Y75.37 E.0615
G1 X19.574 Y75.728 E.00967
G1 X22.124 Y75.728 E.06896
G2 X22.467 Y76.085 I2.199 J-1.767 E.01342
G1 X19.574 Y76.085 E.07824
G1 X19.574 Y76.443 E.00967
G1 X22.907 Y76.443 E.09014
G2 X23.494 Y76.8 I2.846 J-4.015 E.01861
G1 X19.413 Y76.8 E.11037
G1 E-.65714 F1800
;WIPE_START
G1 F12600
G1 X20.413 Y76.8 E-.14286
;WIPE_END
G1 Z.6 F36000
G1 X27.151 Y68.579 Z.6
G1 Z.2
G1 E.8 F1800
G1 F12600
G1 X35.219 Y68.579 E.21821
G3 X37.023 Y68.23 I1.815 J4.553 E.05001
G1 X82.98 Y68.23 E1.24299
G3 X84.781 Y68.579 I-.129 J5.493 E.04986
