; HEADER_BLOCK_START
; generated by OrcaSlicer 2.3.1 on 2025-11-23 at 17:34:47
; total layer number: 150
; filament_density: 1.04
; filament_diameter: 1.75
; max_z_height: 30.00
; HEADER_BLOCK_END

; THUMBNAIL_BLOCK_START

;
; THUMBNAIL_BLOCK_END

; THUMBNAIL_BLOCK_START

;
; THUMBNAIL_BLOCK_END

; external perimeters extrusion width = 0.40mm
; perimeters extrusion width = 0.40mm
; infill extrusion width = 0.40mm
; solid infill extrusion width = 0.40mm
; top infill extrusion width = 0.40mm
; first layer extrusion width = 0.40mm

; EXECUTABLE_BLOCK_START


; Pre-Processed for Cancel-Object support by preprocess_cancellation v0.2.0
; 1 known objects
EXCLUDE_OBJECT_DEFINE NAME=Voron_Design_Cube_v8_2_STL_id_15_copy_0 CENTER=60.426,60.014 POLYGON=[[45.2,45.2],[45.2,74.8],[74.8,74.8],[74.8,45.2]]
M73 P0 R20
;TYPE:Custom
PRINT_START EXTRUDER_TEMP=250 BED_TEMP=110
G90
G21
M83 ; use relative distances for extrusion
; Filament gcode
SET_PRESSURE_ADVANCE ADVANCE=0.04; Override pressure advance value
M106 S0
;LAYER_CHANGE
;Z:0.2
;HEIGHT:0.2
;BEFORE_LAYER_CHANGE
;0.2
G92 E0

G1 E-.8 F1800
;AFTER_LAYER_CHANGE
;0.2
;_SET_FAN_SPEED_CHANGING_LAYER
SET_VELOCITY_LIMIT ACCEL=10000 ACCEL_TO_DECEL=10000
SET_VELOCITY_LIMIT SQUARE_CORNER_VELOCITY=9
; printing object Voron_Design_Cube_v8 (2).STL id:15 copy 0
EXCLUDE_OBJECT_START NAME=Voron_Design_Cube_v8_2_STL_id_15_copy_0
G1 Z.6 F36000
G1 X61.508 Y50.963
G1 Z.6
G1 Z.2
G1 E.8 F1800
;TYPE:Inner wall
;WIDTH:0.4
G1 F6000
G1 X62.181 Y51.09 E.01849
G3 X59.28 Y50.857 I-2.177 J8.908 E1.47778
G1 X59.528 Y50.841 E.0067
G3 X61.27 Y50.916 I.476 J9.157 E.0472
G1 X61.469 Y50.955 E.00547
G1 X61.441 Y51.313 F36000
G1 F6000
G1 X62.096 Y51.438 E.018
G3 X59.308 Y51.213 I-2.093 J8.561 E1.42024
G1 X59.545 Y51.197 E.00639
G3 X61.222 Y51.27 I.458 J8.801 E.04544
G1 X61.402 Y51.305 E.00495
G1 X61.374 Y51.663 F36000
G1 F6000
G1 X62.011 Y51.785 E.01751
G3 X59.336 Y51.569 I-2.009 J8.214 E1.36269
G1 X59.561 Y51.554 E.00609
G3 X61.174 Y51.624 I.441 J8.444 E.04368
G1 X61.335 Y51.656 E.00443
G1 X61.307 Y52.013 F36000
;TYPE:Outer wall
G1 F6000
G1 X61.926 Y52.132 E.01703
G3 X59.365 Y51.925 I-1.925 J7.867 E1.30515
G1 X59.578 Y51.911 E.00578
G3 X61.126 Y51.978 I.423 J8.088 E.04193
G1 X61.268 Y52.006 E.0039
G1 E-.56 F1800
;WIPE_START
G1 F6000
G1 X61.926 Y52.132 E-.16084
G1 X62.242 Y52.226 E-.07916
;WIPE_END
G1 Z.6 F36000
G1 X68.511 Y46.421 Z.6
G1 Z.2
G1 E.8 F1800
;TYPE:Inner wall
G1 F6000
G1 X73.579 Y51.489 E.19363
G1 X73.579 Y68.511 E.45994
G1 X68.511 Y73.579 E.19363
G1 X51.489 Y73.579 E.45994
G1 X46.421 Y68.511 E.19363
G1 X46.421 Y51.489 E.45994
G1 X51.489 Y46.421 E.19363
G1 X68.471 Y46.421 E.45885
G1 X68.659 Y46.064 F36000
G1 F6000
G1 X68.695 Y46.1 E.00135
G1 X73.936 Y51.341 E.20027
G1 X73.936 Y68.659 E.46793
G1 X68.659 Y73.936 E.20162
G1 X51.341 Y73.936 E.46793
G1 X46.064 Y68.659 E.20162
G1 X46.064 Y51.341 E.46793
G1 X51.341 Y46.064 E.20162
G1 X68.619 Y46.064 E.46685
G1 X68.807 Y45.707 F36000
G1 F6000
G1 X68.947 Y45.847 E.00535
G1 X74.293 Y51.193 E.20427
G1 X74.293 Y68.807 E.47592
G1 X68.807 Y74.293 E.20962
G1 X51.193 Y74.293 E.47592
G1 X45.707 Y68.807 E.20962
G1 X45.707 Y51.193 E.47592
G1 X51.193 Y45.707 E.20962
G1 X68.767 Y45.707 E.47484
G1 X68.955 Y45.35 F36000
;TYPE:Outer wall
G1 F6000
G1 X69.2 Y45.595 E.00934
G1 X74.65 Y51.045 E.20826
G1 X74.65 Y68.955 E.48391
G1 X68.955 Y74.65 E.21761
G1 X51.045 Y74.65 E.48391
G1 X45.35 Y68.955 E.21761
G1 X45.35 Y51.045 E.48391
G1 X51.045 Y45.35 E.21761
G1 X68.915 Y45.35 E.48283
G1 E-.56 F1800
;WIPE_START
G1 F6000
G1 X69.2 Y45.595 E-.09005
G1 X69.641 Y46.036 E-.14995
;WIPE_END
G1 Z.6 F36000
G1 X51.371 Y46.69 Z.6
G1 Z.2
G1 E.8 F1800
;TYPE:Bottom surface
;WIDTH:0.402639
G1 F12600
G1 X68.402 Y46.69 E.46356
G1 X68.761 Y47.05 E.01385
G1 X51.239 Y47.05 E.47695
G1 X50.879 Y47.41 E.01385
G1 X69.121 Y47.41 E.49654
G1 X69.481 Y47.77 E.01385
G1 X50.519 Y47.77 E.51612
G1 X50.159 Y48.129 E.01385
G1 X69.841 Y48.129 E.5357
G1 X70.2 Y48.489 E.01385
G1 X49.8 Y48.489 E.55528
G1 X49.44 Y48.849 E.01385
G1 X70.56 Y48.849 E.57486
G1 X70.92 Y49.208 E.01385
G1 X49.08 Y49.208 E.59445
G1 X48.72 Y49.568 E.01385
G1 X71.28 Y49.568 E.61403
G1 X71.639 Y49.928 E.01385
G1 X48.361 Y49.928 E.63361
G1 X48.001 Y50.288 E.01385
G1 X71.999 Y50.288 E.65319
G1 X72.359 Y50.647 E.01385
G1 X47.641 Y50.647 E.67278
G1 X47.282 Y51.007 E.01385
G1 X57.17 Y51.007 E.26915
G2 X56.211 Y51.367 I1.294 J4.907 E.02792
G1 X46.922 Y51.367 E.25284
G1 X46.689 Y51.6 E.00896
G1 X46.689 Y51.726 E.00345
G1 X55.478 Y51.726 E.23922
G2 X54.869 Y52.086 I1.578 J3.365 E.01927
G1 X46.689 Y52.086 E.22265
G1 X46.689 Y52.446 E.00979
G1 X54.341 Y52.446 E.20827
G1 X53.905 Y52.806 E.01538
G1 X46.689 Y52.806 E.19641
G1 X46.689 Y53.165 E.00979
G1 X53.494 Y53.165 E.18522
G2 X53.136 Y53.525 I3.242 J3.585 E.01382
G1 X46.689 Y53.525 E.17547
G1 X46.689 Y53.885 E.00979
G1 X52.818 Y53.885 E.16683
G1 X52.529 Y54.245 E.01256
G1 X46.689 Y54.245 E.15896
G1 X46.689 Y54.604 E.00979
G1 X52.259 Y54.604 E.1516
G2 X52.019 Y54.964 I3.29 J2.45 E.01177
G1 X46.689 Y54.964 E.14508
G1 X46.689 Y55.324 E.00979
G1 X51.802 Y55.324 E.13917
G1 X51.615 Y55.683 E.01104
G1 X46.689 Y55.683 E.13408
G1 X46.689 Y56.043 E.00979
G1 X51.431 Y56.043 E.12907
G1 X51.275 Y56.403 E.01068
G1 X46.689 Y56.403 E.12482
G1 X46.689 Y56.763 E.00979
G1 X51.136 Y56.763 E.12105
G2 X51.013 Y57.122 I3.372 J1.354 E.01035
G1 X46.689 Y57.122 E.1177
G1 X46.689 Y57.482 E.00979
G1 X50.905 Y57.482 E.11475
G1 X50.812 Y57.842 E.01011
G1 X46.689 Y57.842 E.11222
G1 X46.689 Y58.201 E.00979
G1 X50.742 Y58.201 E.11031
G1 X50.675 Y58.561 E.00996
G1 X46.689 Y58.561 E.1085
G1 X46.689 Y58.921 E.00979
G1 X50.631 Y58.921 E.10731
G1 X50.599 Y59.281 E.00983
G1 X46.689 Y59.281 E.10642
G1 X46.689 Y59.64 E.00979
G1 X50.568 Y59.64 E.10557
G1 X50.572 Y60 E.00979
G1 X46.689 Y60 E.10568
G1 X46.689 Y60.36 E.00979
G1 X50.576 Y60.36 E.10579
G2 X50.593 Y60.719 I1.835 J.09 E.00982
G1 X46.689 Y60.719 E.10627
G1 X46.689 Y61.079 E.00979
G1 X50.633 Y61.079 E.10735
G1 X50.673 Y61.439 E.00985
G1 X46.689 Y61.439 E.10843
G1 X46.689 Y61.799 E.00979
G1 X50.737 Y61.799 E.11017
G2 X50.814 Y62.158 I3.461 J-.557 E.01002
G1 X46.689 Y62.158 E.11228
G1 X46.689 Y62.518 E.00979
G1 X50.906 Y62.518 E.11477
G1 X51.02 Y62.878 E.01027
G1 X46.689 Y62.878 E.11788
G1 X46.689 Y63.237 E.00979
G1 X51.134 Y63.237 E.12099
G2 X51.285 Y63.597 I1.938 J-.6 E.01063
G1 X46.689 Y63.597 E.12509
G1 X46.689 Y63.957 E.00979
G1 X51.439 Y63.957 E.12928
G2 X51.614 Y64.317 I1.908 J-.705 E.01091
G1 X46.689 Y64.317 E.13404
G1 X46.689 Y64.676 E.00979
G1 X51.811 Y64.676 E.13942
G2 X52.022 Y65.036 I1.988 J-.921 E.01136
G1 X46.689 Y65.036 E.14515
G1 X46.689 Y65.396 E.00979
G1 X52.267 Y65.396 E.15182
G2 X52.524 Y65.756 I2.011 J-1.166 E.01205
G1 X46.689 Y65.756 E.15881
G1 X46.689 Y66.115 E.00979
G1 X52.822 Y66.115 E.16694
G2 X53.139 Y66.475 I2.025 J-1.464 E.01307
G1 X46.689 Y66.475 E.17557
G1 X46.689 Y66.835 E.00979
G1 X53.502 Y66.835 E.18543
G2 X53.894 Y67.194 I2.6 J-2.444 E.01451
G1 X46.689 Y67.194 E.19612
G1 X46.689 Y67.554 E.00979
G1 X54.344 Y67.554 E.20837
G2 X54.873 Y67.914 I2.692 J-3.39 E.01743
G1 X46.689 Y67.914 E.22277
G1 X46.689 Y68.274 E.00979
G1 X55.476 Y68.274 E.23916
G2 X56.191 Y68.633 I2.759 J-4.596 E.02182
G1 X46.922 Y68.633 E.2523
G1 X47.282 Y68.993 E.01385
G1 X57.728 Y68.993 E.28435
G1 E-.65714 F1800
;WIPE_START
G1 F12600
G1 X56.728 Y68.993 E-.14286
;WIPE_END
G1 Z.6 F36000
G1 X62.273 Y51.007 Z.6
G1 Z.2
G1 E.8 F1800
G1 F12600
G1 X72.718 Y51.007 E.28431
G1 X73.078 Y51.367 E.01385
G1 X63.797 Y51.367 E.25263
G3 X64.531 Y51.726 I-1.555 J4.101 E.02228
M73 P1 R20
G1 X73.311 Y51.726 E.23899
G1 X73.311 Y52.086 E.00979
G1 X65.145 Y52.086 E.22227
G3 X65.652 Y52.446 I-2.158 J3.579 E.01694
G1 X73.311 Y52.446 E.20847
G1 X73.311 Y52.806 E.00979
G1 X66.1 Y52.806 E.19628
G3 X66.507 Y53.165 I-2.231 J2.933 E.0148
G1 X73.311 Y53.165 E.18521
G1 X73.311 Y53.525 E.00979
G1 X66.865 Y53.525 E.17546
G3 X67.178 Y53.885 I-2.245 J2.268 E.01299
G1 X73.311 Y53.885 E.16694
G1 X73.311 Y54.245 E.00979
G1 X67.476 Y54.245 E.15881
G3 X67.733 Y54.604 I-1.754 J1.525 E.01205
G1 X73.311 Y54.604 E.15182
G1 X73.311 Y54.964 E.00979
G1 X67.978 Y54.964 E.14515
G3 X68.189 Y55.324 I-1.777 J1.281 E.01136
G1 X73.311 Y55.324 E.13942
G1 X73.311 Y55.683 E.00979
G1 X68.386 Y55.683 E.13404
G3 X68.561 Y56.043 I-1.733 J1.065 E.0109
G1 X73.311 Y56.043 E.12928
G1 X73.311 Y56.403 E.00979
G1 X68.715 Y56.403 E.12509
G3 X68.866 Y56.763 I-1.694 J.92 E.01063
G1 X73.311 Y56.763 E.121
G1 X73.311 Y57.122 E.00979
G1 X68.978 Y57.122 E.11794
G1 X69.09 Y57.482 E.01026
G1 X73.311 Y57.482 E.11488
G1 X73.311 Y57.842 E.00979
G1 X69.182 Y57.842 E.11239
G1 X69.256 Y58.201 E.01
G1 X73.311 Y58.201 E.11036
G1 X73.311 Y58.561 E.00979
G1 X69.327 Y58.561 E.10843
G1 X69.367 Y58.921 E.00985
G1 X73.311 Y58.921 E.10735
G1 X73.311 Y59.281 E.00979
G1 X69.407 Y59.281 E.10627
G3 X69.424 Y59.64 I-1.817 J.269 E.00982
G1 X73.311 Y59.64 E.10579
G1 X73.311 Y60 E.00979
G1 X69.428 Y60 E.10568
G1 X69.432 Y60.36 E.00979
G1 X73.311 Y60.36 E.10557
G1 X73.311 Y60.719 E.00979
G1 X69.401 Y60.719 E.10642
G1 X69.369 Y61.079 E.00983
G1 X73.311 Y61.079 E.10731
G1 X73.311 Y61.439 E.00979
G1 X69.325 Y61.439 E.1085
G1 X69.258 Y61.799 E.00996
G1 X73.311 Y61.799 E.11032
G1 X73.311 Y62.158 E.00979
G1 X69.188 Y62.158 E.11222
G1 X69.095 Y62.518 E.01011
G1 X73.311 Y62.518 E.11475
G1 X73.311 Y62.878 E.00979
G1 X68.987 Y62.878 E.1177
G3 X68.864 Y63.237 I-3.495 J-.995 E.01035
G1 X73.311 Y63.237 E.12105
G1 X73.311 Y63.597 E.00979
G1 X68.725 Y63.597 E.12482
G1 X68.569 Y63.957 E.01068
G1 X73.311 Y63.957 E.12908
G1 X73.311 Y64.317 E.00979
G1 X68.385 Y64.317 E.13408
G1 X68.198 Y64.676 E.01104
G1 X73.311 Y64.676 E.13918
G1 X73.311 Y65.036 E.00979
G1 X67.981 Y65.036 E.14508
G3 X67.741 Y65.396 I-3.529 J-2.09 E.01177
G1 X73.311 Y65.396 E.1516
G1 X73.311 Y65.756 E.00979
G1 X67.471 Y65.756 E.15896
G1 X67.182 Y66.115 E.01256
G1 X73.311 Y66.115 E.16683
G1 X73.311 Y66.475 E.00979
G1 X66.864 Y66.475 E.17547
G3 X66.506 Y66.835 I-3.601 J-3.227 E.01382
G1 X73.311 Y66.835 E.18522
G1 X73.311 Y67.194 E.00979
G1 X66.095 Y67.194 E.19641
G1 X65.659 Y67.554 E.01538
G1 X73.311 Y67.554 E.20828
G1 X73.311 Y67.914 E.00979
G1 X65.131 Y67.914 E.22266
G3 X64.522 Y68.274 I-2.187 J-3.006 E.01927
G1 X73.311 Y68.274 E.23922
G1 X73.311 Y68.4 E.00345
G1 X73.078 Y68.633 E.00897
G1 X63.789 Y68.633 E.25285
G3 X62.83 Y68.993 I-2.249 J-4.538 E.02793
G1 X72.718 Y68.993 E.26916
G1 X72.359 Y69.353 E.01385
G1 X47.641 Y69.353 E.67277
G1 X48.001 Y69.712 E.01385
G1 X71.999 Y69.712 E.65319
G1 X71.639 Y70.072 E.01385
G1 X48.361 Y70.072 E.63361
G1 X48.721 Y70.432 E.01385
G1 X71.279 Y70.432 E.61403
G1 X70.92 Y70.792 E.01385
G1 X49.08 Y70.792 E.59444
G1 X49.44 Y71.151 E.01385
G1 X70.56 Y71.151 E.57486
G1 X70.2 Y71.511 E.01385
G1 X49.8 Y71.511 E.55528
G1 X50.159 Y71.871 E.01385
G1 X69.841 Y71.871 E.5357
G1 X69.481 Y72.23 E.01385
G1 X50.519 Y72.23 E.51612
G1 X50.879 Y72.59 E.01385
G1 X69.121 Y72.59 E.49653
G1 X68.761 Y72.95 E.01385
G1 X51.239 Y72.95 E.47695
G1 X51.598 Y73.31 E.01385
G1 X68.629 Y73.31 E.46355
; stop printing object Voron_Design_Cube_v8 (2).STL id:15 copy 0
EXCLUDE_OBJECT_END NAME=Voron_Design_Cube_v8_2_STL_id_15_copy_0
;LAYER_CHANGE
;Z:0.4
;HEIGHT:0.2
;BEFORE_LAYER_CHANGE
;0.4
G92 E0

G1 E-.65714 F1800
;WIPE_START
G1 F12600
G1 X67.629 Y73.31 E-.14286
;WIPE_END
;AFTER_LAYER_CHANGE
;0.4
;_SET_FAN_SPEED_CHANGING_LAYER
SET_VELOCITY_LIMIT ACCEL=20000 ACCEL_TO_DECEL=20000
M140 S108 ; set bed temperature
; printing object Voron_Design_Cube_v8 (2).STL id:15 copy 0
EXCLUDE_OBJECT_START NAME=Voron_Design_Cube_v8_2_STL_id_15_copy_0
SET_VELOCITY_LIMIT SQUARE_CORNER_VELOCITY=12
G1 Z.8 F36000
G1 X61.434 Y51.196 Z.8
G1 Z.4
G1 E.8 F1800
SET_VELOCITY_LIMIT ACCEL=15000 ACCEL_TO_DECEL=15000 SQUARE_CORNER_VELOCITY=9
;TYPE:Inner wall
;WIDTH:0.4
G1 F23081.008
G1 X61.472 Y51.201 E.00106
G3 X59.533 Y51.091 I-1.473 J8.799 E1.46188
G1 X59.766 Y51.082 E.00631
G3 X60.622 Y51.1 I.233 J8.918 E.02314
G1 X61.394 Y51.192 E.02099
SET_VELOCITY_LIMIT ACCEL=20000 ACCEL_TO_DECEL=20000 SQUARE_CORNER_VELOCITY=12
G1 X61.392 Y51.551 F36000
SET_VELOCITY_LIMIT ACCEL=15000 ACCEL_TO_DECEL=15000 SQUARE_CORNER_VELOCITY=9
G1 F23081.008
G1 X61.414 Y51.553 E.00059
G3 X59.552 Y51.448 I-1.414 J8.446 E1.40337
G1 X59.776 Y51.439 E.00606
G3 X60.597 Y51.457 I.224 J8.561 E.02222
G1 X61.352 Y51.546 E.02053
SET_VELOCITY_LIMIT ACCEL=20000 ACCEL_TO_DECEL=20000 SQUARE_CORNER_VELOCITY=12
G1 X61.35 Y51.905 F36000
SET_VELOCITY_LIMIT ACCEL=15000 ACCEL_TO_DECEL=15000 SQUARE_CORNER_VELOCITY=9
G1 F23081.008
G1 X61.355 Y51.905 E.00013
G3 X59.57 Y51.804 I-1.355 J8.094 E1.34485
G1 X59.785 Y51.796 E.00581
G3 X60.573 Y51.813 I.215 J8.204 E.02129
G1 X61.31 Y51.9 E.02007
SET_VELOCITY_LIMIT ACCEL=20000 ACCEL_TO_DECEL=20000 SQUARE_CORNER_VELOCITY=12
G1 X61.296 Y52.258 F36000
SET_VELOCITY_LIMIT ACCEL=10000 ACCEL_TO_DECEL=10000 SQUARE_CORNER_VELOCITY=9
;TYPE:Outer wall
G1 F23081.008
G3 X59.589 Y52.161 I-1.296 J7.742 E1.28633
G1 X59.795 Y52.153 E.00555
G3 X61.256 Y52.251 I.205 J7.847 E.03964
SET_VELOCITY_LIMIT ACCEL=20000 ACCEL_TO_DECEL=20000 SQUARE_CORNER_VELOCITY=12
G1 E-.72201 F1800
;WIPE_START
G1 F23081.008
G1 X61.899 Y52.383 E-.05118
G1 X62.228 Y52.484 E-.0268
;WIPE_END
G1 Z.8 F36000
G1 X68.773 Y46.271 Z.8
G1 Z.4
G1 E.8 F1800
SET_VELOCITY_LIMIT ACCEL=15000 ACCEL_TO_DECEL=15000 SQUARE_CORNER_VELOCITY=9
;TYPE:Inner wall
G1 F23081.008
G1 X73.729 Y51.227 E.18935
G1 X73.729 Y68.773 E.4741
G1 X68.773 Y73.729 E.18935
G1 X51.227 Y73.729 E.4741
G1 X46.271 Y68.773 E.18935
G1 X46.271 Y51.227 E.4741
G1 X51.227 Y46.271 E.18935
G1 X68.733 Y46.271 E.47302
SET_VELOCITY_LIMIT ACCEL=20000 ACCEL_TO_DECEL=20000 SQUARE_CORNER_VELOCITY=12
G1 X68.921 Y45.914 F36000
SET_VELOCITY_LIMIT ACCEL=15000 ACCEL_TO_DECEL=15000 SQUARE_CORNER_VELOCITY=9
G1 F23081.008
G1 X74.086 Y51.079 E.19734
G1 X74.086 Y68.921 E.48209
G1 X68.921 Y74.086 E.19734
G1 X51.079 Y74.086 E.48209
G1 X45.914 Y68.921 E.19734
G1 X45.914 Y51.079 E.48209
G1 X51.079 Y45.914 E.19734
G1 X68.881 Y45.914 E.48101
SET_VELOCITY_LIMIT ACCEL=20000 ACCEL_TO_DECEL=20000 SQUARE_CORNER_VELOCITY=12
G1 X69.069 Y45.557 F36000
SET_VELOCITY_LIMIT ACCEL=15000 ACCEL_TO_DECEL=15000 SQUARE_CORNER_VELOCITY=9
G1 F23081.008
G1 X74.443 Y50.931 E.20533
G1 X74.443 Y69.069 E.49009
G1 X69.069 Y74.443 E.20533
G1 X50.931 Y74.443 E.49009
G1 X45.557 Y69.069 E.20533
G1 X45.557 Y50.931 E.49009
G1 X50.931 Y45.557 E.20533
G1 X69.029 Y45.557 E.489
SET_VELOCITY_LIMIT ACCEL=20000 ACCEL_TO_DECEL=20000 SQUARE_CORNER_VELOCITY=12
G1 X69.205 Y45.2 F36000
SET_VELOCITY_LIMIT ACCEL=10000 ACCEL_TO_DECEL=10000 SQUARE_CORNER_VELOCITY=9
;TYPE:Outer wall
G1 F23081.008
G1 X69.217 Y45.2 E.00033
G1 X74.8 Y50.783 E.21332
G1 X74.8 Y69.217 E.49808
G1 X69.217 Y74.8 E.21332
G1 X50.783 Y74.8 E.49808
G1 X45.2 Y69.217 E.21332
G1 X45.2 Y50.783 E.49808
G1 X50.783 Y45.2 E.21332
G1 X69.165 Y45.2 E.49667
SET_VELOCITY_LIMIT ACCEL=20000 ACCEL_TO_DECEL=20000 SQUARE_CORNER_VELOCITY=12
G1 E-.72201 F1800
;WIPE_START
G1 F23081.008
G1 X69.217 Y45.2 E-.00407
G1 X69.887 Y45.87 E-.07392
;WIPE_END
G1 Z.8 F36000
G1 X73.425 Y68.875 Z.8
G1 Z.4
G1 E.8 F1800
SET_VELOCITY_LIMIT SQUARE_CORNER_VELOCITY=9
;TYPE:Internal solid infill
;WIDTH:0.400914
G1 F23022.058
G1 X73.425 Y51.352 E.47469
G1 X73.067 Y50.994 E.01371
G1 X73.067 Y69.006 E.48793
G1 X72.709 Y69.364 E.01371
G1 X72.709 Y50.636 E.50732
G1 X72.351 Y50.278 E.01371
G1 X72.351 Y69.722 E.52672
G1 X71.993 Y70.08 E.01371
G1 X71.993 Y49.92 E.54611
G1 X71.635 Y49.562 E.01371
G1 X71.635 Y70.438 E.5655
G1 X71.277 Y70.796 E.01371
G1 X71.277 Y49.204 E.5849
G1 X70.919 Y48.846 E.01371
G1 X70.919 Y71.154 E.60429
G1 X70.561 Y71.512 E.01371
G1 X70.561 Y48.488 E.62369
G1 X70.203 Y48.13 E.01371
G1 X70.203 Y71.87 E.64308
G1 X69.845 Y72.228 E.01371
G1 X69.845 Y47.772 E.66248
G1 X69.487 Y47.414 E.01371
G1 X69.487 Y72.586 E.68187
G1 X69.129 Y72.944 E.01371
G1 X69.129 Y47.056 E.70127
G1 X68.771 Y46.698 E.01371
G1 X68.771 Y57.15 E.28314
G2 X68.413 Y56.227 I-6.758 J2.088 E.02685
G1 X68.413 Y46.575 E.26146
G1 X68.055 Y46.575 E.0097
G1 X68.055 Y55.51 E.24203
G2 X67.697 Y54.933 I-4.045 J2.112 E.0184
