; HEADER_BLOCK_START
; generated by OrcaSlicer 2.3.1 on 2026-02-09 at 19:02:42
; total layer number: 150
; filament_density: 1.04
; filament_diameter: 1.75
; max_z_height: 30.00
; HEADER_BLOCK_END

; THUMBNAIL_BLOCK_START

;
; THUMBNAIL_BLOCK_END

; THUMBNAIL_BLOCK_START

;
; THUMBNAIL_BLOCK_END

; external perimeters extrusion width = 0.40mm
; perimeters extrusion width = 0.40mm
; infill extrusion width = 0.40mm
; solid infill extrusion width = 0.40mm
; top infill extrusion width = 0.40mm
; first layer extrusion width = 0.40mm

; EXECUTABLE_BLOCK_START


; Pre-Processed for Cancel-Object support by preprocess_cancellation v0.2.0
; 1 known objects
EXCLUDE_OBJECT_DEFINE NAME=Voron_Design_Cube_v8_2_STL_id_15_copy_0 CENTER=60.540,59.989 POLYGON=[[45.2,45.2],[45.2,74.8],[74.8,74.8],[74.8,45.2]]
M73 P0 R20
;TYPE:Custom
PRINT_START EXTRUDER_TEMP=255 BED_TEMP=105
G90
G21
M83 ; use relative distances for extrusion
; Filament gcode
SET_PRESSURE_ADVANCE ADVANCE=0.04; Override pressure advance value
M106 S0
;LAYER_CHANGE
;Z:0.2
;HEIGHT:0.2
;BEFORE_LAYER_CHANGE
;0.2
G92 E0

G1 E-.8 F1800
;AFTER_LAYER_CHANGE
;0.2
;_SET_FAN_SPEED_CHANGING_LAYER
SET_VELOCITY_LIMIT ACCEL=500 ACCEL_TO_DECEL=250
; printing object Voron_Design_Cube_v8 (2).STL id:15 copy 0
EXCLUDE_OBJECT_START NAME=Voron_Design_Cube_v8_2_STL_id_15_copy_0
G1 Z.6 F30000
G1 X61.441 Y51.313
G1 Z.6
G1 Z.2
G1 E.8 F1800
;TYPE:Inner wall
;WIDTH:0.4
G1 F3000
G1 X62.096 Y51.438 E.018
G3 X59.308 Y51.213 I-2.093 J8.561 E1.42024
G1 X59.545 Y51.197 E.00639
G3 X61.222 Y51.27 I.458 J8.801 E.04544
G1 X61.402 Y51.305 E.00495
G1 X61.374 Y51.663 F30000
G1 F3000
G1 X62.011 Y51.785 E.01751
G3 X59.336 Y51.569 I-2.009 J8.214 E1.36269
G1 X59.561 Y51.554 E.00609
G3 X61.174 Y51.624 I.441 J8.444 E.04368
G1 X61.335 Y51.656 E.00443
G1 X61.307 Y52.013 F30000
;TYPE:Outer wall
G1 F3000
G1 X61.926 Y52.132 E.01703
G3 X59.365 Y51.925 I-1.925 J7.867 E1.30515
G1 X59.578 Y51.911 E.00578
G3 X61.126 Y51.978 I.423 J8.088 E.04193
G1 X61.268 Y52.006 E.0039
G1 E-.56 F1800
;WIPE_START
G1 F3000
G1 X61.926 Y52.132 E-.16084
G1 X62.242 Y52.226 E-.07916
;WIPE_END
G1 Z.6 F30000
G1 X68.659 Y46.064 Z.6
G1 Z.2
G1 E.8 F1800
;TYPE:Inner wall
G1 F3000
G1 X68.695 Y46.1 E.00135
G1 X73.936 Y51.341 E.20027
G1 X73.936 Y68.659 E.46793
G1 X68.659 Y73.936 E.20162
G1 X51.341 Y73.936 E.46793
G1 X46.064 Y68.659 E.20162
G1 X46.064 Y51.341 E.46793
G1 X51.341 Y46.064 E.20162
G1 X68.619 Y46.064 E.46685
G1 X68.807 Y45.707 F30000
G1 F3000
G1 X68.947 Y45.847 E.00535
G1 X74.293 Y51.193 E.20427
G1 X74.293 Y68.807 E.47592
G1 X68.807 Y74.293 E.20962
G1 X51.193 Y74.293 E.47592
G1 X45.707 Y68.807 E.20962
G1 X45.707 Y51.193 E.47592
G1 X51.193 Y45.707 E.20962
G1 X68.767 Y45.707 E.47484
G1 X68.955 Y45.35 F30000
;TYPE:Outer wall
G1 F3000
G1 X69.2 Y45.595 E.00934
G1 X74.65 Y51.045 E.20826
G1 X74.65 Y68.955 E.48391
G1 X68.955 Y74.65 E.21761
G1 X51.045 Y74.65 E.48391
G1 X45.35 Y68.955 E.21761
G1 X45.35 Y51.045 E.48391
G1 X51.045 Y45.35 E.21761
G1 X68.915 Y45.35 E.48283
G1 E-.56 F1800
;WIPE_START
G1 F3000
G1 X69.2 Y45.595 E-.09005
G1 X69.641 Y46.036 E-.14995
;WIPE_END
G1 Z.6 F30000
G1 X51.223 Y46.333 Z.6
G1 Z.2
G1 E.8 F1800
M73 P1 R20
;TYPE:Bottom surface
;WIDTH:0.402571
G1 F6300
G1 X68.55 Y46.333 E.47152
G1 X68.909 Y46.693 E.01384
G1 X51.091 Y46.693 E.48491
G1 X50.731 Y47.053 E.01384
G1 X69.269 Y47.053 E.50448
G1 X69.629 Y47.412 E.01384
G1 X50.371 Y47.412 E.52406
G1 X50.012 Y47.772 E.01384
G1 X69.988 Y47.772 E.54363
G1 X70.348 Y48.132 E.01384
G1 X49.652 Y48.132 E.56321
G1 X49.292 Y48.491 E.01384
G1 X70.708 Y48.491 E.58278
G1 X71.067 Y48.851 E.01384
G1 X48.933 Y48.851 E.60236
G1 X48.573 Y49.211 E.01384
G1 X71.427 Y49.211 E.62193
G1 X71.786 Y49.57 E.01384
G1 X48.214 Y49.57 E.64151
G1 X47.854 Y49.93 E.01384
G1 X72.146 Y49.93 E.66108
G1 X72.506 Y50.289 E.01384
G1 X47.494 Y50.289 E.68066
G1 X47.135 Y50.649 E.01384
G1 X72.865 Y50.649 E.70023
G1 X73.225 Y51.009 E.01384
G1 X46.775 Y51.009 E.71981
G1 X46.415 Y51.368 E.01384
G1 X57.209 Y51.368 E.29375
G2 X56.273 Y51.728 I1.309 J4.804 E.02734
G1 X46.332 Y51.728 E.27054
G1 X46.332 Y52.088 E.00979
G1 X55.561 Y52.088 E.25116
G2 X54.973 Y52.447 I1.585 J3.254 E.0188
G1 X46.332 Y52.447 E.23515
G1 X46.332 Y52.807 E.00979
G1 X54.462 Y52.807 E.22124
G1 X54.029 Y53.167 E.01532
G1 X46.332 Y53.167 E.20945
G1 X46.332 Y53.526 E.00979
G1 X53.634 Y53.526 E.19871
G2 X53.287 Y53.886 I3.25 J3.479 E.0136
G1 X46.332 Y53.886 E.18928
G1 X46.332 Y54.246 E.00979
G1 X52.986 Y54.246 E.18108
G1 X52.697 Y54.605 E.01255
G1 X46.332 Y54.605 E.17322
G1 X46.332 Y54.965 E.00979
G1 X52.444 Y54.965 E.16633
G2 X52.217 Y55.325 I3.3 J2.334 E.01158
G1 X46.332 Y55.325 E.16015
G1 X46.332 Y55.684 E.00979
G1 X52.017 Y55.684 E.15471
G1 X51.83 Y56.044 E.01103
G1 X46.332 Y56.044 E.14961
G1 X46.332 Y56.404 E.00979
G1 X51.664 Y56.404 E.14509
G2 X51.517 Y56.763 I3.349 J1.572 E.01057
G1 X46.332 Y56.763 E.14111
G1 X46.332 Y57.123 E.00979
G1 X51.388 Y57.123 E.13758
G1 X51.274 Y57.482 E.01026
G1 X46.332 Y57.482 E.13449
G1 X46.332 Y57.842 E.00979
G1 X51.18 Y57.842 E.13194
G2 X51.105 Y58.202 I2.539 J.721 E.01001
G1 X46.332 Y58.202 E.12989
G1 X46.332 Y58.561 E.00979
G1 X51.038 Y58.561 E.12807
G2 X50.989 Y58.921 I1.895 J.439 E.00989
G1 X46.332 Y58.921 E.12675
G1 X46.332 Y59.281 E.00979
G1 X50.957 Y59.281 E.12587
G1 X50.925 Y59.64 E.00983
G1 X46.332 Y59.64 E.12499
G1 X46.332 Y60 E.00979
G1 X50.928 Y60 E.12509
G1 X50.933 Y60.36 E.00979
G1 X46.332 Y60.36 E.1252
G1 X46.332 Y60.719 E.00979
G1 X50.952 Y60.719 E.12574
G1 X50.992 Y61.079 E.00985
G1 X46.332 Y61.079 E.12681
G1 X46.332 Y61.439 E.00979
G1 X51.033 Y61.439 E.12793
G1 X51.1 Y61.798 E.00995
G1 X46.332 Y61.798 E.12975
G1 X46.332 Y62.158 E.00979
G1 X51.181 Y62.158 E.13196
G2 X51.28 Y62.518 I2.542 J-.505 E.01016
G1 X46.332 Y62.518 E.13465
G1 X46.332 Y62.877 E.00979
G1 X51.394 Y62.877 E.13776
G2 X51.519 Y63.237 I1.926 J-.466 E.01037
M73 P2 R20
G1 X46.332 Y63.237 E.14115
G1 X46.332 Y63.597 E.00979
G1 X51.672 Y63.597 E.14533
G1 X51.826 Y63.956 E.01064
G1 X46.332 Y63.956 E.14952
G1 X46.332 Y64.316 E.00979
G1 X52.02 Y64.316 E.1548
G1 X52.218 Y64.676 E.01117
G1 X46.332 Y64.676 E.16017
G1 X46.332 Y65.035 E.00979
G1 X52.453 Y65.035 E.16657
G1 X52.698 Y65.395 E.01184
G1 X46.332 Y65.395 E.17323
G1 X46.332 Y65.754 E.00979
G1 X52.986 Y65.754 E.18109
G1 X53.285 Y66.114 E.01272
G1 X46.332 Y66.114 E.18922
G1 X46.332 Y66.474 E.00979
G1 X53.644 Y66.474 E.199
G2 X54.021 Y66.833 I2.595 J-2.342 E.01419
G1 X46.332 Y66.833 E.20926
G1 X46.332 Y67.193 E.00979
G1 X54.46 Y67.193 E.2212
G2 X54.973 Y67.553 I2.682 J-3.281 E.01707
G1 X46.332 Y67.553 E.23517
G1 X46.332 Y67.912 E.00979
G1 X55.555 Y67.912 E.251
G2 X56.256 Y68.272 I2.755 J-4.503 E.02144
G1 X46.332 Y68.272 E.27006
G1 X46.332 Y68.548 E.00752
G1 X46.415 Y68.632 E.00321
G1 X57.757 Y68.632 E.30865
G1 E-.56 F1800
;WIPE_START
G1 F6300
G1 X56.757 Y68.632 E-.24
;WIPE_END
G1 Z.6 F30000
G1 X62.237 Y51.368 Z.6
G1 Z.2
G1 E.8 F1800
G1 F6300
G1 X73.585 Y51.368 E.30882
G1 X73.668 Y51.452 E.00321
G1 X73.668 Y51.728 E.00752
G1 X63.738 Y51.728 E.27022
G1 X64.452 Y52.088 E.02174
G1 X73.668 Y52.088 E.2508
G1 X73.668 Y52.447 E.00979
G1 X65.04 Y52.447 E.2348
G3 X65.532 Y52.807 I-2.168 J3.479 E.01659
G1 X73.668 Y52.807 E.22142
G1 X73.668 Y53.167 E.00979
G1 X65.98 Y53.167 E.20923
G3 X66.37 Y53.526 I-13.332 J14.859 E.01444
G1 X73.668 Y53.526 E.19861
G1 X73.668 Y53.886 E.00979
G1 X66.715 Y53.886 E.18922
G1 X67.014 Y54.246 E.01272
G1 X73.668 Y54.246 E.18109
G1 X73.668 Y54.605 E.00979
G1 X67.302 Y54.605 E.17323
G1 X67.547 Y54.965 E.01184
G1 X73.668 Y54.965 E.16657
G1 X73.668 Y55.325 E.00979
G1 X67.782 Y55.325 E.16017
G1 X67.98 Y55.684 E.01117
G1 X73.668 Y55.684 E.1548
G1 X73.668 Y56.044 E.00979
G1 X68.174 Y56.044 E.14952
G1 X68.328 Y56.404 E.01064
G1 X73.668 Y56.404 E.14533
G1 X73.668 Y56.763 E.00979
G1 X68.481 Y56.763 E.14115
G3 X68.604 Y57.123 I-1.712 J.787 E.01036
G1 X73.668 Y57.123 E.1378
G1 X73.668 Y57.482 E.00979
G1 X68.717 Y57.482 E.13474
G3 X68.817 Y57.842 I-1.776 J.691 E.01018
G1 X73.668 Y57.842 E.132
G1 X73.668 Y58.202 E.00979
G1 X68.892 Y58.202 E.12997
G1 X68.967 Y58.561 E.01
G1 X73.668 Y58.561 E.12794
G1 X73.668 Y58.921 E.00979
G1 X69.008 Y58.921 E.12681
G1 X69.048 Y59.281 E.00985
G1 X73.668 Y59.281 E.12574
G1 X73.668 Y59.64 E.00979
G1 X69.067 Y59.64 E.1252
G1 X69.072 Y60 E.00979
G1 X73.668 Y60 E.12509
G1 X73.668 Y60.36 E.00979
G1 X69.075 Y60.36 E.12499
G1 X69.043 Y60.719 E.00983
G1 X73.668 Y60.719 E.12587
G1 X73.668 Y61.079 E.00979
G1 X69.01 Y61.079 E.12675
G3 X68.962 Y61.439 I-1.943 J-.08 E.00989
G1 X73.668 Y61.439 E.12807
G1 X73.668 Y61.798 E.00979
G1 X68.895 Y61.798 E.12989
G3 X68.82 Y62.158 I-2.614 J-.361 E.01001
G1 X73.668 Y62.158 E.13194
G1 X73.668 Y62.518 E.00979
G1 X68.726 Y62.518 E.1345
G1 X68.612 Y62.877 E.01026
G1 X73.668 Y62.877 E.13758
G1 X73.668 Y63.237 E.00979
G1 X68.483 Y63.237 E.14111
G3 X68.336 Y63.597 I-3.495 J-1.213 E.01057
G1 X73.668 Y63.597 E.1451
G1 X73.668 Y63.956 E.00979
G1 X68.17 Y63.956 E.14961
G1 X67.983 Y64.316 E.01103
G1 X73.668 Y64.316 E.15471
G1 X73.668 Y64.676 E.00979
G1 X67.783 Y64.676 E.16015
G3 X67.556 Y65.035 I-3.527 J-1.974 E.01158
G1 X73.668 Y65.035 E.16633
G1 X73.668 Y65.395 E.00979
G1 X67.303 Y65.395 E.17322
G1 X67.014 Y65.754 E.01255
G1 X73.668 Y65.754 E.18108
G1 X73.668 Y66.114 E.00979
M73 P3 R20
G1 X66.713 Y66.114 E.18929
G3 X66.366 Y66.474 I-3.597 J-3.119 E.0136
G1 X73.668 Y66.474 E.19872
G1 X73.668 Y66.833 E.00979
G1 X65.971 Y66.833 E.20946
G1 X65.538 Y67.193 E.01532
G1 X73.668 Y67.193 E.22124
G1 X73.668 Y67.553 E.00979
G1 X65.027 Y67.553 E.23515
G3 X64.439 Y67.912 I-2.173 J-2.894 E.0188
G1 X73.668 Y67.912 E.25117
G1 X73.668 Y68.272 E.00979
G1 X63.726 Y68.272 E.27055
G3 X62.79 Y68.632 I-2.242 J-4.437 E.02734
G1 X73.585 Y68.632 E.29376
G1 X73.225 Y68.991 E.01384
G1 X46.775 Y68.991 E.7198
G1 X47.135 Y69.351 E.01384
G1 X72.865 Y69.351 E.70023
G1 X72.506 Y69.711 E.01384
G1 X47.494 Y69.711 E.68065
G1 X47.854 Y70.07 E.01384
G1 X72.146 Y70.07 E.66108
G1 X71.786 Y70.43 E.01384
G1 X48.214 Y70.43 E.6415
G1 X48.573 Y70.79 E.01384
G1 X71.427 Y70.79 E.62193
G1 X71.067 Y71.149 E.01384
G1 X48.933 Y71.149 E.60235
G1 X49.293 Y71.509 E.01384
G1 X70.707 Y71.509 E.58278
G1 X70.348 Y71.869 E.01384
G1 X49.652 Y71.869 E.5632
G1 X50.012 Y72.228 E.01384
G1 X69.988 Y72.228 E.54363
G1 X69.628 Y72.588 E.01384
G1 X50.372 Y72.588 E.52405
G1 X50.731 Y72.947 E.01384
G1 X69.269 Y72.947 E.50448
G1 X68.909 Y73.307 E.01384
G1 X51.091 Y73.307 E.4849
G1 X51.45 Y73.667 E.01384
G1 X68.777 Y73.667 E.47151
; stop printing object Voron_Design_Cube_v8 (2).STL id:15 copy 0
EXCLUDE_OBJECT_END NAME=Voron_Design_Cube_v8_2_STL_id_15_copy_0
;LAYER_CHANGE
;Z:0.4
;HEIGHT:0.2
;BEFORE_LAYER_CHANGE
;0.4
G92 E0

G1 E-.56 F1800
;WIPE_START
G1 F6300
G1 X67.777 Y73.667 E-.24
;WIPE_END
;AFTER_LAYER_CHANGE
;0.4
;_SET_FAN_SPEED_CHANGING_LAYER
SET_VELOCITY_LIMIT ACCEL=10000 ACCEL_TO_DECEL=5000
M104 S250 ; set nozzle temperature
M140 S102 ; set bed temperature
; printing object Voron_Design_Cube_v8 (2).STL id:15 copy 0
EXCLUDE_OBJECT_START NAME=Voron_Design_Cube_v8_2_STL_id_15_copy_0
G1 Z.8 F30000
G1 X61.392 Y51.551 Z.8
G1 Z.4
G1 E.8 F1800
;TYPE:Inner wall
;WIDTH:0.4
G1 F18000
G1 X61.414 Y51.553 E.00059
G3 X59.552 Y51.448 I-1.414 J8.446 E1.40337
G1 X59.776 Y51.439 E.00606
G3 X60.597 Y51.457 I.224 J8.561 E.02222
G1 X61.352 Y51.546 E.02053
G1 X61.35 Y51.905 F30000
G1 F18000
G1 X61.355 Y51.905 E.00013
G3 X59.57 Y51.804 I-1.355 J8.094 E1.34485
G1 X59.785 Y51.796 E.00581
G3 X60.573 Y51.813 I.215 J8.204 E.02129
G1 X61.31 Y51.9 E.02007
G1 X61.296 Y52.258 F30000
SET_VELOCITY_LIMIT ACCEL=5000 ACCEL_TO_DECEL=2500
;TYPE:Outer wall
G1 F12000
G3 X59.589 Y52.161 I-1.296 J7.742 E1.28633
G1 X59.795 Y52.153 E.00555
G3 X61.256 Y52.251 I.205 J7.847 E.03964
SET_VELOCITY_LIMIT ACCEL=10000 ACCEL_TO_DECEL=5000
G1 E-.65 F1800
;WIPE_START
G1 F12000
G1 X61.899 Y52.383 E-.09845
G1 X62.228 Y52.484 E-.05155
;WIPE_END
G1 Z.8 F30000
G1 X68.921 Y45.914 Z.8
G1 Z.4
G1 E.8 F1800
;TYPE:Inner wall
G1 F18000
G1 X74.086 Y51.079 E.19734
G1 X74.086 Y68.921 E.48209
G1 X68.921 Y74.086 E.19734
G1 X51.079 Y74.086 E.48209
G1 X45.914 Y68.921 E.19734
G1 X45.914 Y51.079 E.48209
G1 X51.079 Y45.914 E.19734
G1 X68.881 Y45.914 E.48101
G1 X69.069 Y45.557 F30000
G1 F18000
G1 X74.443 Y50.931 E.20533
G1 X74.443 Y69.069 E.49009
G1 X69.069 Y74.443 E.20533
G1 X50.931 Y74.443 E.49009
G1 X45.557 Y69.069 E.20533
G1 X45.557 Y50.931 E.49009
G1 X50.931 Y45.557 E.20533
G1 X69.029 Y45.557 E.489
G1 X69.205 Y45.2 F30000
SET_VELOCITY_LIMIT ACCEL=5000 ACCEL_TO_DECEL=2500
;TYPE:Outer wall
G1 F8280
G1 X69.217 Y45.2 E.00032
G1 X69.741 Y45.724 E.02002
G1 X74.276 Y50.259 E.17329
G1 X74.8 Y50.783 E.02002
G1 X74.8 Y51.524 E.02002
G1 F12000
G1 X74.8 Y68.476 E.45803
G1 F8280
G1 X74.8 Y69.217 E.02002
G1 X74.276 Y69.741 E.02002
G1 X69.741 Y74.276 E.17329
G1 X69.217 Y74.8 E.02002
G1 X68.476 Y74.8 E.02002
G1 F12000
G1 X51.524 Y74.8 E.45803
G1 F8280
G1 X50.783 Y74.8 E.02002
G1 X50.259 Y74.276 E.02002
G1 X45.724 Y69.741 E.17329
G1 X45.2 Y69.217 E.02002
G1 X45.2 Y68.476 E.02002
G1 F12000
G1 X45.2 Y51.524 E.45803
G1 F8280
G1 X45.2 Y50.783 E.02002
G1 X45.724 Y50.259 E.02002
G1 X50.259 Y45.724 E.17329
G1 X50.783 Y45.2 E.02002
G1 X51.524 Y45.2 E.02002
G1 F12000
G1 X68.46 Y45.2 E.4576
G1 F11580
G1 X69.165 Y45.2 E.01905
SET_VELOCITY_LIMIT ACCEL=10000 ACCEL_TO_DECEL=5000
G1 E-.64456 F1800
;WIPE_START
G1 F11580
G1 X69.217 Y45.2 E-.00811
G1 X69.887 Y45.87 E-.14733
;WIPE_END
G1 Z.8 F30000
G1 X73.782 Y69.023 Z.8
G1 Z.4
G1 E.8 F1800
;TYPE:Internal solid infill
;WIDTH:0.40089
G1 F15000
G1 X73.782 Y51.204 E.48267
G1 X73.424 Y50.846 E.01371
G1 X73.424 Y69.154 E.4959
G1 X73.066 Y69.512 E.01371
G1 X73.066 Y50.488 E.5153
G1 X72.708 Y50.13 E.01371
G1 X72.708 Y69.87 E.53469
G1 X72.35 Y70.228 E.01371
G1 X72.35 Y49.772 E.55408
G1 X71.992 Y49.414 E.01371
G1 X71.992 Y70.586 E.57347
G1 X71.634 Y70.944 E.01371
G1 X71.634 Y49.056 E.59286
G1 X71.276 Y48.698 E.01371
G1 X71.276 Y71.302 E.61226
G1 X70.918 Y71.66 E.01371
G1 X70.918 Y48.34 E.63165
G1 X70.56 Y47.982 E.01371
G1 X70.56 Y72.018 E.65104
G1 X70.202 Y72.376 E.01371
M73 P4 R20
G1 X70.202 Y47.624 E.67043
G1 X69.844 Y47.266 E.01371
G1 X69.844 Y72.734 E.68983
G1 X69.486 Y73.092 E.01371
G1 X69.486 Y46.908 E.70922
G1 X69.128 Y46.55 E.01371
G1 X69.128 Y73.45 E.72861
G1 X68.796 Y73.782 E.01274
G1 X68.77 Y73.782 E.00069
G1 X68.77 Y46.218 E.74663
G1 X68.412 Y46.218 E.0097
G1 X68.412 Y57.225 E.29816
G1 X68.332 Y56.964 E.0074
G1 X68.054 Y56.294 E.01966
G1 X68.054 Y46.218 E.27293
G1 X67.696 Y46.218 E.0097
G1 X67.696 Y55.611 E.25443
G2 X67.338 Y55.039 I-3.024 J1.493 E.01832
G1 X67.338 Y46.218 E.23893
G1 X66.98 Y46.218 E.0097
G1 X66.98 Y54.545 E.22556
G1 X66.622 Y54.111 E.01524
G1 X66.622 Y46.218 E.2138
G1 X66.264 Y46.218 E.0097
G1 X66.264 Y53.735 E.20361
G2 X65.906 Y53.392 I-1.959 J1.687 E.01344
G1 X65.906 Y46.218 E.19433
G1 X65.549 Y46.218 E.0097
G1 X65.549 Y53.097 E.18634
G2 X65.191 Y52.814 I-1.64 J1.709 E.01237
G1 X65.191 Y46.218 E.17868
G1 X64.833 Y46.218 E.0097
G1 X64.833 Y52.573 E.17214
G2 X64.475 Y52.352 I-1.329 J1.753 E.01141
G1 X64.475 Y46.218 E.16616
G1 X64.117 Y46.218 E.0097
G1 X64.117 Y52.158 E.1609
G2 X63.759 Y51.971 I-1.107 J1.685 E.01096
G1 X63.759 Y46.218 E.15584
G1 X63.401 Y46.218 E.0097
G1 X63.401 Y51.821 E.15177
G1 X63.043 Y51.671 E.01051
G1 X63.043 Y46.218 E.14771
G1 X62.685 Y46.218 E.0097
G1 X62.685 Y51.56 E.14471
G1 X62.327 Y51.451 E.01014
G1 X62.327 Y46.218 E.14174
G1 X61.969 Y46.218 E.0097
G1 X61.969 Y51.359 E.13925
G1 X61.611 Y51.284 E.0099
G1 X61.611 Y46.218 E.13724
G1 X61.253 Y46.218 E.0097
G1 X61.253 Y51.229 E.13573
G1 X60.895 Y51.186 E.00976
G1 X60.895 Y46.218 E.13458
G1 X60.537 Y46.218 E.0097
G1 X60.537 Y51.152 E.13365
G1 X60.179 Y51.144 E.0097
G1 X60.179 Y46.218 E.13343
G1 X59.821 Y46.218 E.0097
G1 X59.821 Y51.136 E.13322
G2 X59.463 Y51.151 I-.078 J2.417 E.00971
G1 X59.463 Y46.218 E.13363
G1 X59.105 Y46.218 E.0097
G1 X59.105 Y51.182 E.13447
G1 X58.747 Y51.223 E.00976
G1 X58.747 Y46.218 E.13558
G1 X58.389 Y46.218 E.0097
G1 X58.389 Y51.289 E.13736
G1 X58.031 Y51.36 E.00989
G1 X58.031 Y46.218 E.13929
G1 X57.673 Y46.218 E.0097
