; HEADER_BLOCK_START
; generated by OrcaSlicer 2.3.1 on 2026-02-06 at 19:12:07
; total layer number: 50
; filament_density: 1.04
; filament_diameter: 1.75
; max_z_height: 10.00
; HEADER_BLOCK_END

; THUMBNAIL_BLOCK_START

;
; THUMBNAIL_BLOCK_END

; THUMBNAIL_BLOCK_START

;
; THUMBNAIL_BLOCK_END

; external perimeters extrusion width = 0.40mm
; perimeters extrusion width = 0.40mm
; infill extrusion width = 0.40mm
; solid infill extrusion width = 0.40mm
; top infill extrusion width = 0.40mm
; first layer extrusion width = 0.40mm

; EXECUTABLE_BLOCK_START


; Pre-Processed for Cancel-Object support by preprocess_cancellation v0.2.0
; 1 known objects
EXCLUDE_OBJECT_DEFINE NAME=Voron0_stepper_fan_stl_id_15_copy_0 CENTER=54.613,60.637 POLYGON=[[32.7,54.7],[32.7,65.3],[87.3,65.3],[87.3,54.7]]
M73 P0 R4
;TYPE:Custom
PRINT_START EXTRUDER_TEMP=255 BED_TEMP=105
G90
G21
M83 ; use relative distances for extrusion
; Filament gcode
SET_PRESSURE_ADVANCE ADVANCE=0.04; Override pressure advance value
M106 S0
;LAYER_CHANGE
;Z:0.2
;HEIGHT:0.2
;BEFORE_LAYER_CHANGE
;0.2
G92 E0

G1 E-.8 F1800
;AFTER_LAYER_CHANGE
;0.2
;_SET_FAN_SPEED_CHANGING_LAYER
SET_VELOCITY_LIMIT ACCEL=10000 ACCEL_TO_DECEL=10000
SET_VELOCITY_LIMIT SQUARE_CORNER_VELOCITY=9
; printing object Voron0 stepper fan.stl id:15 copy 0
EXCLUDE_OBJECT_START NAME=Voron0_stepper_fan_stl_id_15_copy_0
G1 Z.6 F36000
G1 X51.089 Y59.435
G1 Z.6
G1 Z.2
G1 E.8 F1800
;TYPE:Outer wall
;WIDTH:0.4
G1 F6000
G1 X51.5 Y59.4 E.01114
G3 X50.611 Y59.555 I-.005 J2.596 E.41624
G1 X51.05 Y59.439 E.01226
G1 E-.56 F1800
;WIPE_START
G1 F6000
G1 X51.5 Y59.4 E-.10851
G1 X51.952 Y59.438 E-.10879
G1 X52.043 Y59.463 E-.0227
;WIPE_END
G1 Z.6 F36000
G1 X33.921 Y56.921 Z.6
G1 Z.2
G1 E.8 F1800
;TYPE:Inner wall
G1 F6000
G1 X50.199 Y56.922 E.43981
G3 X51.58 Y57.41 I-.007 J2.219 E.04032
G1 X52.647 Y58.207 E.03598
G1 X52.986 Y58.433 E.011
G1 X52.888 Y58.606 E.00537
G1 X52.757 Y58.545 E.0039
G1 X52.138 Y58.379 E.01732
G1 X51.5 Y58.323 E.01732
G1 X50.872 Y58.378 E.01704
G1 X50.245 Y58.544 E.01752
G1 X49.662 Y58.816 E.01738
G1 X49.137 Y59.184 E.01732
G1 X48.684 Y59.637 E.01732
G1 X48.316 Y60.162 E.01732
G1 X48.045 Y60.743 E.01732
G1 X47.879 Y61.362 E.01732
G1 X47.823 Y62 E.01732
G1 X47.879 Y62.638 E.01732
G1 X48.045 Y63.257 E.01732
G1 X48.316 Y63.838 E.01732
G1 X48.484 Y64.079 E.00793
G1 X35.551 Y64.079 E.34945
G3 X33.921 Y62.449 I-.032 J-1.598 E.06954
G1 X33.921 Y56.961 E.14828
G1 E-.56 F1800
;WIPE_START
G1 F6000
G1 X34.921 Y56.959 E-.24
;WIPE_END
G1 Z.6 F36000
G1 X81.023 Y59.298 Z.6
G1 Z.2
G1 E.8 F1800
G1 F6000
G1 X80.684 Y59.637 E.01296
G1 X80.316 Y60.162 E.01732
G1 X80.045 Y60.743 E.01732
G1 X79.879 Y61.362 E.01732
G1 X79.823 Y62 E.01732
G1 X79.879 Y62.638 E.01732
G1 X80.045 Y63.257 E.01732
G1 X80.316 Y63.838 E.01732
G1 X80.484 Y64.079 E.00793
G1 X54.516 Y64.079 E.70165
G1 X54.684 Y63.838 E.00793
G1 X54.955 Y63.257 E.01732
G1 X55.121 Y62.638 E.01732
G1 X55.177 Y62 E.01732
G1 X55.121 Y61.362 E.01732
G1 X54.955 Y60.743 E.01732
G1 X54.684 Y60.162 E.01732
G1 X54.316 Y59.637 E.01732
G1 X53.979 Y59.299 E.01289
G1 X54.095 Y59.15 E.0051
G2 X80.904 Y59.148 I13.403 J-21.929 E.76203
G1 X80.998 Y59.266 E.00407
G1 E-.56 F1800
;WIPE_START
G1 F6000
G1 X80.684 Y59.637 E-.11658
G1 X80.389 Y60.058 E-.12342
;WIPE_END
G1 Z.6 F36000
G1 X82 Y58.442 Z.6
G1 Z.2
G1 E.8 F1800
G1 F6000
G3 X83.011 Y57.757 I8.695 J11.751 E.03299
G3 X84.397 Y57.545 I1.002 J1.911 E.03859
G3 X86.061 Y59.322 I-.419 J2.06 E.07015
G1 X85.338 Y58.816 E.02384
G1 X84.757 Y58.545 E.01732
G1 X84.138 Y58.379 E.01732
G1 X83.5 Y58.323 E.01732
G1 X82.872 Y58.378 E.01704
G1 X82.245 Y58.544 E.01752
G1 X82.098 Y58.612 E.00436
G1 X82.02 Y58.476 E.00423
G1 E-.56 F1800
;WIPE_START
G1 F6000
G1 X82.83 Y57.889 E-.24
;WIPE_END
G1 Z.6 F36000
G1 X33.564 Y56.564 Z.6
G1 Z.2
M73 P1 R4
G1 E.8 F1800
G1 F6000
G1 X50.211 Y56.565 E.44978
G3 X51.788 Y57.12 I-.019 J2.573 E.046
G2 X82.514 Y57.65 I15.713 J-19.992 E.89158
G3 X86.436 Y59.619 I1.479 J1.945 E.14724
G1 X86.436 Y60.168 E.01486
G1 X86.286 Y60.216 E.00424
G1 X86.042 Y59.867 E.0115
G1 X85.633 Y59.458 E.01563
G1 X85.159 Y59.126 E.01563
G1 X84.635 Y58.882 E.01563
G1 X84.076 Y58.732 E.01563
G1 X83.5 Y58.682 E.01563
G1 X82.933 Y58.731 E.01537
G1 X82.367 Y58.881 E.01584
G1 X81.841 Y59.126 E.01568
G1 X81.367 Y59.458 E.01563
G1 X80.958 Y59.867 E.01563
G1 X80.626 Y60.341 E.01563
G1 X80.382 Y60.865 E.01563
G1 X80.232 Y61.424 E.01563
G1 X80.182 Y62 E.01563
G1 X80.232 Y62.576 E.01563
G1 X80.382 Y63.135 E.01563
G1 X80.626 Y63.659 E.01563
G1 X80.958 Y64.133 E.01563
G1 X81.261 Y64.436 E.01157
G1 X53.739 Y64.436 E.74362
G1 X54.042 Y64.133 E.01158
G1 X54.374 Y63.659 E.01563
G1 X54.618 Y63.135 E.01563
G1 X54.768 Y62.576 E.01563
G1 X54.818 Y62 E.01563
G1 X54.768 Y61.424 E.01563
G1 X54.618 Y60.865 E.01563
G1 X54.374 Y60.341 E.01563
G1 X54.042 Y59.867 E.01563
G1 X53.633 Y59.458 E.01563
G1 X53.159 Y59.126 E.01563
G1 X52.635 Y58.882 E.01563
G1 X52.076 Y58.732 E.01563
G1 X51.5 Y58.682 E.01563
G1 X50.933 Y58.731 E.01537
G1 X50.367 Y58.881 E.01584
G1 X49.841 Y59.126 E.01568
G1 X49.367 Y59.458 E.01563
G1 X48.958 Y59.867 E.01563
G1 X48.626 Y60.341 E.01563
G1 X48.382 Y60.865 E.01563
G1 X48.232 Y61.424 E.01563
G1 X48.182 Y62 E.01563
G1 X48.232 Y62.576 E.01563
G1 X48.382 Y63.135 E.01563
G1 X48.626 Y63.659 E.01563
G1 X48.953 Y64.125 E.01537
G1 X49.261 Y64.436 E.01184
G1 X35.538 Y64.436 E.37079
G3 X33.564 Y62.462 I-.019 J-1.955 E.084
G1 X33.564 Y56.604 E.15827
G1 X33.207 Y56.207 F36000
G1 F6000
G1 X50.223 Y56.208 E.45975
G3 X51.996 Y56.829 I-.031 J2.928 E.05168
G2 X82.317 Y57.352 I15.505 J-19.704 E.87992
G3 X86.793 Y59.606 I1.677 J2.242 E.16771
G1 X86.793 Y61.477 E.05054
G3 X86.597 Y62.594 I-3.562 J-.049 E.03077
G1 X86.411 Y62.555 E.00513
G1 X86.46 Y62 E.01504
G2 X82.153 Y64.625 I-2.955 J-.002 E.33829
G1 X82.115 Y64.793 E.00465
G1 X52.885 Y64.793 E.78979
G1 X52.847 Y64.625 E.00465
G1 X52.98 Y64.563 E.00395
G2 X50.02 Y64.563 I-1.48 J-2.56 E.41821
G1 X50.153 Y64.625 E.00395
G1 X50.115 Y64.793 E.00465
G1 X35.525 Y64.793 E.39421
G3 X33.207 Y62.475 I-.007 J-2.311 E.09847
M73 P2 R4
G1 X33.207 Y56.247 E.16827
G1 E-.56 F1800
;WIPE_START
G1 F6000
G1 X34.207 Y56.245 E-.24
;WIPE_END
G1 Z.6 F36000
G1 X83.089 Y59.435 Z.6
G1 Z.2
G1 E.8 F1800
;TYPE:Outer wall
G1 F6000
G1 X83.5 Y59.4 E.01114
G3 X82.611 Y59.555 I-.005 J2.596 E.41624
G1 X83.05 Y59.439 E.01226
G1 E-.56 F1800
;WIPE_START
G1 F6000
G1 X83.5 Y59.4 E-.10849
G1 X83.952 Y59.438 E-.10879
G1 X84.043 Y59.463 E-.02272
;WIPE_END
G1 Z.6 F36000
G1 X32.85 Y55.85 Z.6
G1 Z.2
G1 E.8 F1800
G1 F6000
G1 X32.993 Y55.85 E.00386
G1 X50.235 Y55.851 E.46586
G3 X52.204 Y56.539 I-.043 J3.284 E.05736
G2 X82.119 Y57.055 I15.297 J-19.415 E.86826
G3 X87.15 Y59.594 I1.877 J2.536 E.18828
G1 X87.15 Y61.489 E.05119
G3 X83.489 Y65.15 I-3.656 J.005 E.15546
G1 X35.512 Y65.15 E1.29627
G3 X32.85 Y62.488 I.006 J-2.668 E.11293
G1 X32.85 Y55.89 E.17826
G1 E-.56 F1800
;WIPE_START
G1 F6000
G1 X32.993 Y55.85 E-.03563
G1 X33.845 Y55.85 E-.20437
;WIPE_END
G1 Z.6 F36000
G1 X51.018 Y57.194 Z.6
G1 Z.2
G1 E.8 F1800
;TYPE:Bottom surface
;WIDTH:0.410233
G1 F12600
G1 X34.189 Y57.194 E.46774
G1 X34.189 Y57.562 E.01021
G1 X51.316 Y57.562 E.47601
G1 X51.664 Y57.817 E.012
G1 X51.484 Y57.825 E.00501
G1 X51.484 Y57.929 E.0029
G1 X34.189 Y57.929 E.48067
G1 X34.189 Y58.296 E.01021
G1 X50.143 Y58.296 E.4434
G1 X49.527 Y58.583 E.01887
G1 X49.412 Y58.664 E.0039
G1 X34.189 Y58.664 E.42311
G1 X34.189 Y59.031 E.01021
M73 P3 R4
G1 X48.911 Y59.031 E.40916
G1 X48.543 Y59.398 E.01444
G1 X34.189 Y59.398 E.39895
G1 X34.189 Y59.765 E.01021
G1 X48.266 Y59.765 E.39126
G2 X48.034 Y60.133 I.925 J.843 E.01214
G1 X34.189 Y60.133 E.3848
G1 X34.189 Y60.5 E.01021
G1 X47.863 Y60.5 E.38004
G2 X47.734 Y60.867 I.977 J.547 E.01087
G1 X34.189 Y60.867 E.37647
G1 X34.189 Y61.235 E.01021
G1 X47.636 Y61.235 E.37374
G2 X47.589 Y61.602 I1.018 J.316 E.01034
G1 X34.189 Y61.602 E.37244
G1 X34.189 Y61.969 E.01021
G1 X47.557 Y61.969 E.37155
G1 X47.584 Y62.337 E.01024
G1 X34.189 Y62.337 E.37229
G2 X34.211 Y62.704 I3.612 J-.027 E.01023
G1 X47.619 Y62.704 E.37268
G1 X47.718 Y63.071 E.01057
G1 X34.327 Y63.071 E.37218
G2 X34.595 Y63.439 I1.214 J-.605 E.0127
G1 X47.834 Y63.439 E.36795
G1 X48.005 Y63.806 E.01126
G1 X34.837 Y63.806 E.366
G1 E-.65714 F1800
;WIPE_START
G1 F12600
G1 X35.837 Y63.806 E-.14286
;WIPE_END
G1 Z.6 F36000
G1 X50.356 Y64.534 Z.6
G1 Z.2
G1 E.8 F1800
;TYPE:Gap infill
;WIDTH:0.395185
G1 F6000
G1 X50.488 Y64.787 E.00761
G1 X50.663 Y64.81 E.0047
;WIDTH:0.343914
G1 X50.825 Y64.832 E.00371
;WIDTH:0.301374
G1 X50.986 Y64.853 E.00319
;WIDTH:0.255466
G2 X51.993 Y64.855 I.518 J-8.377 E.0162
;WIDTH:0.298784
G2 X52.175 Y64.832 I-.174 J-2.106 E.00355
;WIDTH:0.343913
G1 X52.337 Y64.81 E.00371
;WIDTH:0.386454
G1 X52.498 Y64.789 E.00424
;WIDTH:0.397083
G1 X52.644 Y64.534 E.00787
G1 E-.71192 F1800
;WIPE_START
G1 F6000
G1 X52.498 Y64.789 E-.08808
;WIPE_END
G1 Z.6 F36000
G1 X54.584 Y59.656 Z.6
G1 Z.2
G1 E.8 F1800
;WIDTH:0.316206
G1 F6000
G3 X55.09 Y60.152 I-5.498 J6.119 E.01466
G1 X55.1 Y60.142 F36000
;WIDTH:0.255792
G1 F6000
G1 X54.573 Y59.668 E.01143
G1 E-.58719 F1800
;WIPE_START
G1 F6000
G1 X55.1 Y60.142 E-.21281
;WIPE_END
G1 Z.6 F36000
G1 X52.346 Y58.23 Z.6
G1 Z.2
G1 E.8 F1800
;WIDTH:0.105753
G1 F6000
G1 X52.265 Y58.19 E.00043
;WIDTH:0.138561
G1 X52.167 Y58.144 E.00078
;WIDTH:0.142119
G1 X51.959 Y58.144 E.00156
;WIDTH:0.125053
G1 X51.751 Y58.144 E.00129
G1 E-.73767 F1800
;WIPE_START
G1 F6000
G1 X51.959 Y58.144 E-.06233
;WIPE_END
G1 Z.6 F36000
G1 X80.397 Y59.662 Z.6
G1 Z.2
G1 E.8 F1800
;WIDTH:0.307033
G1 F6000
G2 X79.906 Y60.153 I5.45 J5.942 E.01389
G1 X80.024 Y60.534 F36000
;TYPE:Bottom surface
;WIDTH:0.406653
G1 F12600
G1 X78.934 Y60.534 E.03
G1 X78.17 Y60.898 E.02328
G1 X79.726 Y60.898 E.04282
G1 X79.629 Y61.262 E.01036
G1 X77.305 Y61.262 E.06395
G3 X76.364 Y61.625 I-3.816 J-8.476 E.02779
G1 X79.587 Y61.625 E.08872
G1 X79.555 Y61.989 E.01005
G1 X75.304 Y61.989 E.117
G1 X74.046 Y62.353 E.03604
G1 X79.585 Y62.353 E.15245
G1 X79.623 Y62.716 E.01006
G1 X71.475 Y62.716 E.22425
G1 E-.65714 F1800
;WIPE_START
G1 F12600
G1 X72.475 Y62.716 E-.14286
;WIPE_END
G1 Z.6 F36000
G1 X56.43 Y60.534 Z.6
G1 Z.2
M73 P4 R4
G1 E.8 F1800
G1 F12600
G1 X55.153 Y60.534 E.03515
G3 X55.274 Y60.898 I-.971 J.524 E.0106
G1 X56.845 Y60.898 E.04324
G2 X57.686 Y61.262 I3.766 J-7.553 E.02523
G1 X55.371 Y61.262 E.0637
G3 X55.413 Y61.625 I-1.011 J.299 E.01013
G1 X58.623 Y61.625 E.08835
G1 X59.713 Y61.989 E.03162
G1 X55.445 Y61.989 E.11747
G1 X55.415 Y62.353 E.01004
G1 X60.988 Y62.353 E.15339
G2 X62.59 Y62.716 I4.146 J-14.55 E.04523
G1 X55.377 Y62.716 E.19851
G1 X55.28 Y63.08 E.01036
G1 X79.72 Y63.08 E.67267
G2 X79.837 Y63.444 I1.09 J-.148 E.01056
G1 X55.163 Y63.444 E.67906
G1 X54.994 Y63.808 E.01105
G1 X80.183 Y63.808 E.69328
G1 E-.65714 F1800
;WIPE_START
G1 F12600
G1 X79.183 Y63.808 E-.14286
;WIPE_END
G1 Z.6 F36000
G1 X82.356 Y64.534 Z.6
G1 Z.2
G1 E.8 F1800
;TYPE:Gap infill
;WIDTH:0.395185
G1 F6000
G1 X82.488 Y64.787 E.00761
G1 X82.663 Y64.81 E.0047
;WIDTH:0.343914
G1 X82.825 Y64.832 E.00371
;WIDTH:0.301374
G1 X82.986 Y64.853 E.00319
;WIDTH:0.246905
G2 X84.37 Y64.747 I.396 J-3.921 E.02153
;WIDTH:0.265693
G2 X84.781 Y64.593 I-.721 J-2.557 E.00741
;WIDTH:0.293794
G2 X85.157 Y64.39 I-1.037 J-2.364 E.00813
;WIDTH:0.330901
G2 X85.516 Y64.126 I-1.42 J-2.31 E.00971
;WIDTH:0.377151
G2 X85.825 Y63.825 I-1.756 J-2.112 E.01092
;WIDTH:0.42818
G1 X86.075 Y63.507 E.01179
;WIDTH:0.468935
G1 X86.197 Y63.297 E.00784
;WIDTH:0.503319
G1 X86.299 Y63.116 E.00723
;WIDTH:0.526852
G2 X86.447 Y62.745 I-2.419 J-1.181 E.01465
G1 E-.68008 F1800
;WIPE_START
G1 F6000
G1 X86.299 Y63.116 E-.11992
;WIPE_END
G1 Z.6 F36000
G1 X86.594 Y61.383 Z.6
G1 Z.2
G1 E.8 F1800
;WIDTH:0.110845
G1 F6000
G1 X86.573 Y61.223 E.00083
;WIDTH:0.150693
G1 X86.552 Y61.064 E.00131
;WIDTH:0.201542
G2 X86.434 Y60.356 I-8.097 J.985 E.00861
G1 X86.244 Y59.809 F36000
;WIDTH:0.13294
G1 F6000
G1 X86.205 Y59.704 E.00076
;WIDTH:0.132934
G1 X86.073 Y59.593 E.00118
;WIDTH:0.11893
G1 X85.941 Y59.482 E.00099
G1 X85.673 Y58.698 F36000
;WIDTH:0.35237
G1 F6000
G1 X85.414 Y58.512 E.00746
;WIDTH:0.397744
G1 X85.156 Y58.326 E.00855
;WIDTH:0.433979
G1 X85.059 Y58.266 E.00337
;WIDTH:0.469891
G2 X84.876 Y58.162 I-.748 J1.104 E.0068
;WIDTH:0.507939
G1 X84.744 Y58.105 E.00507
;WIDTH:0.547172
G2 X83.862 Y57.933 I-.855 J2.034 E.0345
;WIDTH:0.512184
G1 X83.747 Y57.937 E.00411
;WIDTH:0.484553
G1 X83.631 Y57.941 E.00387
;WIDTH:0.449167
G1 X83.517 Y57.953 E.00354
;WIDTH:0.412746
G2 X83.397 Y57.974 I.184 J1.376 E.00341
;WIDTH:0.379438
G1 X83.066 Y58.061 E.0087
;WIDTH:0.358862
G1 X82.736 Y58.148 E.00817
; stop printing object Voron0 stepper fan.stl id:15 copy 0
EXCLUDE_OBJECT_END NAME=Voron0_stepper_fan_stl_id_15_copy_0
;LAYER_CHANGE
;Z:0.4
;HEIGHT:0.2
;BEFORE_LAYER_CHANGE
;0.4
G92 E0

G1 E-.69749 F1800
;WIPE_START
G1 F6000
G1 X83.066 Y58.061 E-.10251
;WIPE_END
;AFTER_LAYER_CHANGE
;0.4
;_SET_FAN_SPEED_CHANGING_LAYER
SET_VELOCITY_LIMIT ACCEL=20000 ACCEL_TO_DECEL=20000
M104 S250 ; set nozzle temperature
M140 S102 ; set bed temperature
; printing object Voron0 stepper fan.stl id:15 copy 0
EXCLUDE_OBJECT_START NAME=Voron0_stepper_fan_stl_id_15_copy_0
SET_VELOCITY_LIMIT SQUARE_CORNER_VELOCITY=12
G1 Z.8 F36000
G1 X51.115 Y59.583 Z.8
G1 Z.4
G1 E.8 F1800
SET_VELOCITY_LIMIT ACCEL=10000 ACCEL_TO_DECEL=10000 SQUARE_CORNER_VELOCITY=9
;TYPE:Outer wall
;WIDTH:0.4
G1 F23081.008
G3 X49.925 Y60.123 I.378 J2.417 E.37958
G3 X51.076 Y59.589 I1.556 J1.85 E.03469
SET_VELOCITY_LIMIT ACCEL=20000 ACCEL_TO_DECEL=20000 SQUARE_CORNER_VELOCITY=12
G1 E-.72201 F1800
;WIPE_START
G1 F23081.008
G1 X51.5 Y59.549 E-.03322
G1 X51.926 Y59.586 E-.03332
G1 X52.067 Y59.624 E-.01145
;WIPE_END
G1 Z.8 F36000
G1 X33.771 Y56.771 Z.8
G1 Z.4
G1 E.8 F1800
SET_VELOCITY_LIMIT ACCEL=15000 ACCEL_TO_DECEL=15000 SQUARE_CORNER_VELOCITY=9
;TYPE:Inner wall
G1 F23081.008
G1 X50.223 Y56.773 E.4445
G3 X51.667 Y57.288 I-.026 J2.357 E.0422
G2 X82.629 Y57.822 I15.833 J-20.16 E.89834
G3 X86.205 Y59.276 I1.363 J1.773 E.12584
G1 X86.239 Y59.771 E.01341
G1 X85.767 Y59.299 E.01805
G1 X85.263 Y58.946 E.01661
G1 X84.706 Y58.687 E.01661
G1 X84.112 Y58.527 E.01661
G1 X83.5 Y58.474 E.01661
G1 X82.888 Y58.527 E.01661
G1 X82.294 Y58.687 E.01661
G1 X81.737 Y58.946 E.01661
G1 X81.233 Y59.299 E.01661
G1 X80.799 Y59.733 E.01661
G1 X80.446 Y60.237 E.01661
G1 X80.187 Y60.794 E.01661
G1 X80.027 Y61.388 E.01661
G1 X79.974 Y62 E.01661
G1 X80.027 Y62.612 E.01661
G1 X80.187 Y63.206 E.01661
G1 X80.446 Y63.763 E.01661
G1 X80.772 Y64.229 E.01536
G1 X54.228 Y64.229 E.71722
G1 X54.554 Y63.763 E.01536
G1 X54.813 Y63.206 E.01661
G1 X54.973 Y62.612 E.01661
G1 X55.026 Y62 E.01661
G1 X54.973 Y61.388 E.01661
G1 X54.813 Y60.794 E.01661
G1 X54.554 Y60.237 E.01661
G1 X54.201 Y59.733 E.01661
G1 X53.767 Y59.299 E.01661
G1 X53.263 Y58.946 E.01661
G1 X52.706 Y58.687 E.01661
G1 X52.112 Y58.527 E.01661
G1 X51.5 Y58.474 E.01661
G1 X50.888 Y58.527 E.01661
G1 X50.294 Y58.687 E.01661
G1 X49.737 Y58.946 E.01661
G1 X49.233 Y59.299 E.01661
G1 X48.799 Y59.733 E.01661
G1 X48.446 Y60.237 E.01661
G1 X48.187 Y60.794 E.01661
G1 X48.027 Y61.388 E.01661
G1 X47.974 Y62 E.01661
G1 X48.027 Y62.612 E.01661
G1 X48.187 Y63.206 E.01661
G1 X48.446 Y63.763 E.01661
G1 X48.772 Y64.229 E.01536
G1 X35.545 Y64.229 E.35738
G3 X33.771 Y62.455 I-.026 J-1.748 E.07561
G1 X33.771 Y56.811 E.15248
SET_VELOCITY_LIMIT ACCEL=20000 ACCEL_TO_DECEL=20000 SQUARE_CORNER_VELOCITY=12
G1 X33.414 Y56.414 F36000
SET_VELOCITY_LIMIT ACCEL=15000 ACCEL_TO_DECEL=15000 SQUARE_CORNER_VELOCITY=9
G1 F23081.008
G1 X50.235 Y56.416 E.45448
G3 X51.875 Y56.998 I-.038 J2.712 E.04788
M73 P5 R4
G2 X82.431 Y57.525 I15.625 J-19.871 E.88668
G3 X86.586 Y59.613 I1.562 J2.069 E.15586
G1 X86.586 Y60.754 E.03081
G1 X86.418 Y60.791 E.00465
G1 X86.243 Y60.416 E.01117
G1 X85.927 Y59.964 E.01492
G1 X85.536 Y59.573 E.01492
G1 X85.084 Y59.257 E.01492
G1 X84.583 Y59.023 E.01492
G1 X84.05 Y58.88 E.01492
G1 X83.5 Y58.832 E.01492
G1 X82.95 Y58.88 E.01492
G1 X82.417 Y59.023 E.01492
G1 X81.916 Y59.257 E.01492
G1 X81.464 Y59.573 E.01492
G1 X81.073 Y59.964 E.01492
G1 X80.757 Y60.416 E.01492
G1 X80.523 Y60.917 E.01492
