; HEADER_BLOCK_START
; generated by OrcaSlicer 2.3.2-beta2 on 2026-02-22 at 15:44:55
; total layer number: 71
; filament_density: 1.04
; filament_diameter: 1.75
; max_z_height: 14.20
; filament: 1
; HEADER_BLOCK_END

; THUMBNAIL_BLOCK_START

;
; THUMBNAIL_BLOCK_END

; THUMBNAIL_BLOCK_START

;
; THUMBNAIL_BLOCK_END

; external perimeters extrusion width = 0.40mm
; perimeters extrusion width = 0.40mm
; infill extrusion width = 0.40mm
; solid infill extrusion width = 0.40mm
; top infill extrusion width = 0.40mm
; first layer extrusion width = 0.40mm

; EXECUTABLE_BLOCK_START


; Pre-Processed for Cancel-Object support by preprocess_cancellation v0.2.0
; 1 known objects
EXCLUDE_OBJECT_DEFINE NAME=wago_221_5x_3x_1_stl_id_87_copy_0 CENTER=56.849,61.139 POLYGON=[[47.95,17.2],[47.95,102.8],[72.05,102.8],[72.05,17.2]]
M73 P0 R22
;TYPE:Custom
PRINT_START EXTRUDER_TEMP=255 BED_TEMP=105
G90
G21
M83 ; use relative distances for extrusion
; Filament gcode
SET_PRESSURE_ADVANCE ADVANCE=0.04; Override pressure advance value
M106 S0
;LAYER_CHANGE
;Z:0.2
;HEIGHT:0.2
;BEFORE_LAYER_CHANGE
;0.2
G92 E0

G1 E-.8 F1800
;AFTER_LAYER_CHANGE
;0.2
;_SET_FAN_SPEED_CHANGING_LAYER
SET_VELOCITY_LIMIT ACCEL=10000 ACCEL_TO_DECEL=10000
SET_VELOCITY_LIMIT SQUARE_CORNER_VELOCITY=9
; printing object wago_221_5x_3x_1.stl id:87 copy 0
EXCLUDE_OBJECT_START NAME=wago_221_5x_3x_1_stl_id_87_copy_0
G1 Z.6 F36000
G1 X60.911 Y27.536
G1 Z.6
G1 Z.2
G1 E.8 F1800
;TYPE:Inner wall
;WIDTH:0.4
G1 F6000
G1 X60.795 Y27.563 E.00321
G3 X59.52 Y21.365 I-.796 J-3.067 E.27766
G1 X59.732 Y21.339 E.00579
G3 X61.006 Y27.501 I.267 J3.157 E.2485
G1 X60.949 Y27.522 E.00166
G1 X60.809 Y27.194 F36000
G1 F6000
G1 X60.706 Y27.218 E.00287
G3 X59.574 Y21.718 I-.706 J-2.722 E.24638
G1 X59.763 Y21.695 E.00514
G3 X60.893 Y27.163 I.237 J2.802 E.2205
G1 X60.846 Y27.18 E.00135
G1 X60.675 Y26.854 F36000
G1 F6000
G1 X60.289 Y26.935 E.01064
G3 X59.628 Y22.071 I-.289 J-2.438 E.20611
G1 X59.793 Y22.051 E.00449
G3 X60.78 Y26.825 I.207 J2.446 E.1925
G1 X60.713 Y26.843 E.00188
G1 X60.609 Y26.503 F36000
;TYPE:Outer wall
G1 F6000
G1 X60.526 Y26.528 E.00235
G3 X59.682 Y22.424 I-.526 J-2.031 E.18381
G1 X59.823 Y22.407 E.00383
G3 X60.923 Y26.381 I.177 J2.09 E.15703
G1 X60.646 Y26.488 E.00802
G1 E-.56 F1800
;WIPE_START
G1 F6000
G1 X60.526 Y26.528 E-.03044
G1 X60.248 Y26.586 E-.06812
G1 X59.829 Y26.593 E-.10044
G1 X59.66 Y26.568 E-.041
;WIPE_END
G1 Z.6 F36000
G1 X50.071 Y29.179 Z.6
G1 Z.2
G1 E.8 F1800
;TYPE:Inner wall
G1 F6000
G1 X50.071 Y19.821 E.25283
G1 X63.081 Y19.821 E.35152
G1 X69.429 Y26.169 E.24254
G1 X69.429 Y29.179 E.08133
G1 X50.111 Y29.179 E.52194
G1 X49.714 Y29.536 F36000
G1 F6000
G1 X49.714 Y19.464 E.27213
G1 X63.229 Y19.464 E.36517
G1 X69.786 Y26.021 E.25053
G1 X69.786 Y29.536 E.09498
G1 X49.754 Y29.536 E.54124
G1 X49.357 Y29.893 F36000
G1 F6000
G1 X49.357 Y19.107 E.29142
G1 X63.377 Y19.107 E.37881
G1 X70.143 Y25.873 E.25852
G1 X70.143 Y29.893 E.10862
G1 X49.397 Y29.893 E.56053
G1 X49 Y30.25 F36000
;TYPE:Outer wall
G1 F6000
G1 X49 Y18.75 E.31072
G1 X63.525 Y18.75 E.39246
G1 X63.689 Y18.914 E.00627
G1 X70.5 Y25.725 E.26024
G1 X70.5 Y30.25 E.12226
G1 X49.04 Y30.25 E.57983
G1 E-.56 F1800
;WIPE_START
G1 F6000
G1 X49.037 Y29.25 E-.24
;WIPE_END
G1 Z.6 F36000
G1 X50.178 Y20.094 Z.6
G1 Z.2
G1 E.8 F1800
;TYPE:Bottom surface
;WIDTH:0.41008
G1 F12600
G1 X62.976 Y20.094 E.35553
G1 X63.343 Y20.461 E.01443
G1 X50.339 Y20.461 E.36127
G1 X50.339 Y20.828 E.0102
G1 X63.71 Y20.828 E.37147
G1 X64.077 Y21.196 E.01443
G1 X50.339 Y21.196 E.38167
G1 X50.339 Y21.563 E.0102
G1 X58.211 Y21.563 E.21871
G2 X57.721 Y21.93 I2.829 J4.284 E.01702
G1 X50.339 Y21.93 E.2051
G1 X50.339 Y22.297 E.0102
G1 X57.366 Y22.297 E.19523
G2 X57.093 Y22.664 I1.679 J1.536 E.01274
G1 X50.339 Y22.664 E.18763
G1 X50.339 Y23.031 E.0102
G1 X56.895 Y23.031 E.18213
G2 X56.743 Y23.399 I1.274 J.741 E.01107
G1 X50.339 Y23.399 E.17792
G1 X50.339 Y23.766 E.0102
G1 X56.642 Y23.766 E.17509
G2 X56.584 Y24.133 I2.649 J.6 E.01033
G1 X50.339 Y24.133 E.17351
G1 X50.339 Y24.5 E.0102
G1 X56.56 Y24.5 E.17283
G2 X56.586 Y24.867 I1.809 J.059 E.01024
G1 X50.339 Y24.867 E.17354
G1 X50.339 Y25.234 E.0102
G1 X56.641 Y25.234 E.17507
G2 X56.749 Y25.602 I1.86 J-.348 E.01065
G1 X50.339 Y25.602 E.17807
G1 X50.339 Y25.969 E.0102
G1 X56.891 Y25.969 E.18204
G2 X57.098 Y26.336 I1.898 J-.828 E.01173
G1 X50.339 Y26.336 E.18779
G1 X50.339 Y26.703 E.0102
G1 X57.362 Y26.703 E.19512
G2 X57.717 Y27.07 I1.992 J-1.568 E.0142
G1 X50.339 Y27.07 E.20496
G1 X50.339 Y27.437 E.0102
G1 X58.554 Y27.437 E.22823
G1 E-.65714 F1800
;WIPE_START
G1 F12600
G1 X57.554 Y27.437 E-.14286
;WIPE_END
G1 Z.6 F36000
G1 X61.442 Y21.563 Z.6
G1 Z.2
G1 E.8 F1800
G1 F12600
G1 X64.444 Y21.563 E.08342
G1 X64.811 Y21.93 E.01443
G1 X62.286 Y21.93 E.07015
G3 X62.633 Y22.297 I-1.632 J1.887 E.01405
G1 X65.179 Y22.297 E.07072
G1 X65.546 Y22.664 E.01443
G1 X62.907 Y22.664 E.07331
G1 X63.111 Y23.031 E.01167
G1 X65.913 Y23.031 E.07784
G1 X66.28 Y23.399 E.01443
G1 X63.252 Y23.399 E.08412
G3 X63.357 Y23.766 I-1.294 J.568 E.01064
G1 X66.647 Y23.766 E.09141
G1 X67.014 Y24.133 E.01443
G1 X63.42 Y24.133 E.09987
G3 X63.435 Y24.5 I-3.062 J.309 E.01021
G1 X67.381 Y24.5 E.10965
G1 X67.749 Y24.867 E.01443
G1 X63.42 Y24.867 E.12027
G3 X63.354 Y25.234 I-1.839 J-.14 E.01038
G1 X68.116 Y25.234 E.13229
G1 X68.483 Y25.602 E.01443
G1 X63.257 Y25.602 E.14519
G3 X63.103 Y25.969 I-1.895 J-.581 E.01108
G1 X68.85 Y25.969 E.15967
G1 X69.161 Y26.28 E.01221
G1 X69.161 Y26.336 E.00156
G1 X62.9 Y26.336 E.17394
G3 X62.64 Y26.703 I-1.902 J-1.07 E.01252
G1 X69.161 Y26.703 E.18115
G1 X69.161 Y27.07 E.0102
G1 X62.287 Y27.07 E.19098
G3 X61.783 Y27.437 I-2.057 J-2.293 E.01734
G1 X69.161 Y27.437 E.20497
G1 X69.161 Y27.804 E.0102
G1 X50.339 Y27.804 E.52291
G1 X50.339 Y28.172 E.0102
G1 X69.161 Y28.172 E.52291
G1 X69.161 Y28.539 E.0102
G1 X50.339 Y28.539 E.52291
G1 X50.339 Y28.906 E.0102
G1 X69.322 Y28.906 E.52737
G1 E-.65714 F1800
;WIPE_START
G1 F12600
G1 X68.322 Y28.906 E-.14286
;WIPE_END
G1 Z.6 F36000
G1 X64.858 Y54.997 Z.6
G1 Z.2
G1 E.8 F1800
;TYPE:Inner wall
;WIDTH:0.4
G1 F6000
G1 X64.805 Y54.902 E.00296
G3 X64.543 Y53.758 I2.445 J-1.161 E.03197
G1 X64.543 Y43.735 E.27081
G3 X67.08 Y41.044 I2.721 J.024 E.10987
G3 X69.957 Y43.734 I.159 J2.714 E.11903
G1 X69.957 Y53.757 E.27081
G3 X65.062 Y55.335 I-2.707 J-.016 E.18328
G1 X64.879 Y55.031 E.00959
G1 X65.158 Y54.808 F36000
;TYPE:Outer wall
G1 F6000
G1 X65.067 Y54.611 E.00588
G3 X64.9 Y53.752 I2.183 J-.869 E.02378
G1 X64.9 Y43.74 E.2705
G3 X67.102 Y41.4 I2.362 J.017 E.09548
G3 X69.6 Y43.74 I.138 J2.356 E.10344
G1 X69.6 Y53.751 E.2705
G3 X65.193 Y54.877 I-2.35 J-.01 E.16718
G1 X65.176 Y54.844 E.001
G1 E-.56 F1800
;WIPE_START
G1 F6000
G1 X65.067 Y54.611 E-.0618
G1 X64.941 Y54.186 E-.1062
G1 X64.913 Y53.887 E-.07199
;WIPE_END
G1 Z.6 F36000
G1 X64.224 Y55.33 Z.6
G1 Z.2
G1 E.8 F1800
;TYPE:Inner wall
G1 F6000
G1 X64.363 Y55.578 E.00769
G2 X69.679 Y56.164 I2.893 J-1.837 E.16578
G1 X69.679 Y62.929 E.18278
G1 X50.321 Y62.929 E.52302
G1 X50.321 Y34.571 E.76619
G1 X69.679 Y34.573 E.52302
G1 X69.679 Y41.327 E.1825
G2 X63.829 Y43.723 I-2.423 J2.423 E.21743
G1 X63.829 Y53.769 E.27144
G2 X64.158 Y55.207 I3.427 J-.029 E.04016
G1 X64.205 Y55.295 E.00268
G1 X64.513 Y55.112 F36000
G1 F6000
G1 X64.567 Y55.22 E.00329
G2 X69.878 Y55.319 I2.684 J-1.482 E.17357
G1 X70.036 Y55.362 E.00442
G1 X70.036 Y63.286 E.21408
G1 X49.964 Y63.286 E.54232
G1 X49.964 Y34.214 E.78549
G1 X70.036 Y34.216 E.54232
G1 X70.036 Y42.129 E.21382
G1 X69.878 Y42.173 E.00441
G2 X64.186 Y43.729 I-2.627 J1.58 E.21473
G1 X64.186 Y53.763 E.27112
G2 X64.404 Y54.874 I3.065 J-.025 E.03075
G1 X64.496 Y55.076 E.00599
G1 E-.56 F1800
;WIPE_START
G1 F6000
G1 X64.567 Y55.22 E-.03878
G1 X64.662 Y55.388 E-.04619
G1 X64.889 Y55.7 E-.09263
G1 X65.067 Y55.89 E-.0624
;WIPE_END
G1 Z.6 F36000
G1 X70.393 Y33.859 Z.6
G1 Z.2
G1 E.8 F1800
G1 F6000
G1 X70.393 Y63.643 E.80474
G1 X49.607 Y63.643 E.56161
G1 X49.607 Y33.857 E.80478
G1 X70.353 Y33.859 E.56053
G1 X70.75 Y33.502 F36000
;TYPE:Outer wall
G1 F6000
G1 X70.75 Y64 E.82403
G1 X49.25 Y64 E.58091
G1 X49.25 Y33.5 E.82408
M73 P1 R22
G1 X70.71 Y33.502 E.57983
G1 E-.56 F1800
;WIPE_START
G1 F6000
G1 X70.711 Y34.502 E-.24
;WIPE_END
G1 Z.6 F36000
G1 X69.572 Y34.841 Z.6
G1 Z.2
G1 E.8 F1800
;TYPE:Bottom surface
;WIDTH:0.404187
G1 F12600
G1 X50.589 Y34.841 E.51891
G1 X50.589 Y35.203 E.00988
G1 X69.411 Y35.203 E.51451
G1 X69.411 Y35.564 E.00988
G1 X50.589 Y35.564 E.51451
G1 X50.589 Y35.925 E.00988
G1 X69.411 Y35.925 E.51451
G1 X69.411 Y36.286 E.00988
G1 X50.589 Y36.286 E.51451
G1 X50.589 Y36.648 E.00988
G1 X69.411 Y36.648 E.51451
G1 X69.411 Y37.009 E.00988
G1 X50.589 Y37.009 E.51451
G1 X50.589 Y37.37 E.00988
G1 X69.411 Y37.37 E.51451
G1 X69.411 Y37.731 E.00988
G1 X50.589 Y37.731 E.51451
G1 X50.589 Y38.093 E.00988
G1 X69.411 Y38.093 E.51451
G1 X69.411 Y38.454 E.00988
G1 X50.589 Y38.454 E.51451
G1 X50.589 Y38.815 E.00988
G1 X69.411 Y38.815 E.51451
G1 X69.411 Y39.176 E.00988
G1 X50.589 Y39.176 E.51451
G1 X50.589 Y39.538 E.00988
G1 X69.411 Y39.538 E.51451
G1 X69.411 Y39.899 E.00988
G1 X50.589 Y39.899 E.51451
G1 X50.589 Y40.26 E.00988
G1 X66.058 Y40.26 E.42287
G3 X68.452 Y40.26 I1.197 J3.523 E.06661
G1 X69.411 Y40.26 E.02622
G1 X69.411 Y40.622 E.00988
G1 X68.888 Y40.622 E.01429
G1 E-.65714 F1800
;WIPE_START
G1 F12600
G1 X69.411 Y40.622 E-.07468
G1 X69.411 Y40.26 E-.05161
G1 X69.295 Y40.26 E-.01657
;WIPE_END
G1 Z.6 F36000
G1 X65.617 Y40.622 Z.6
G1 Z.2
G1 E.8 F1800
G1 F12600
G1 X50.589 Y40.622 E.41079
G1 X50.589 Y40.983 E.00988
G1 X64.812 Y40.983 E.3888
G2 X64.457 Y41.344 I1.251 J1.585 E.01388
G1 X50.589 Y41.344 E.37909
G1 X50.589 Y41.705 E.00988
G1 X64.183 Y41.705 E.37159
G2 X63.966 Y42.067 I1.809 J1.329 E.01153
G1 X50.589 Y42.067 E.36568
G1 X50.589 Y42.428 E.00988
G1 X63.811 Y42.428 E.36142
G2 X63.693 Y42.789 I1.371 J.645 E.01041
G1 X50.589 Y42.789 E.35821
G1 X50.589 Y43.15 E.00988
G1 X63.61 Y43.15 E.35595
G2 X63.574 Y43.512 I1.929 J.376 E.00994
G1 X50.589 Y43.512 E.35496
G1 X50.589 Y43.873 E.00988
G1 X63.561 Y43.873 E.3546
G1 X63.561 Y44.234 E.00988
G1 X50.589 Y44.234 E.3546
G1 X50.589 Y44.596 E.00988
G1 X63.561 Y44.596 E.3546
G1 X63.561 Y44.957 E.00988
G1 X50.589 Y44.957 E.3546
G1 X50.589 Y45.318 E.00988
G1 X63.561 Y45.318 E.3546
G1 X63.561 Y45.679 E.00988
G1 X50.589 Y45.679 E.3546
G1 X50.589 Y46.041 E.00988
G1 X63.561 Y46.041 E.3546
G1 X63.561 Y46.402 E.00988
G1 X50.589 Y46.402 E.3546
G1 X50.589 Y46.763 E.00988
G1 X63.561 Y46.763 E.3546
G1 X63.561 Y47.124 E.00988
G1 X50.589 Y47.124 E.3546
G1 X50.589 Y47.486 E.00988
G1 X63.561 Y47.486 E.3546
G1 X63.561 Y47.847 E.00988
G1 X50.589 Y47.847 E.3546
G1 X50.589 Y48.208 E.00988
G1 X63.561 Y48.208 E.3546
G1 X63.561 Y48.569 E.00988
G1 X50.589 Y48.569 E.3546
G1 X50.589 Y48.931 E.00988
G1 X63.561 Y48.931 E.3546
G1 X63.561 Y49.292 E.00988
G1 X50.589 Y49.292 E.3546
G1 X50.589 Y49.653 E.00988
G1 X63.561 Y49.653 E.3546
G1 X63.561 Y50.015 E.00988
G1 X50.589 Y50.015 E.3546
G1 X50.589 Y50.376 E.00988
G1 X63.561 Y50.376 E.3546
G1 X63.561 Y50.737 E.00988
G1 X50.589 Y50.737 E.3546
G1 X50.589 Y51.098 E.00988
G1 X63.561 Y51.098 E.3546
G1 X63.561 Y51.46 E.00988
G1 X50.589 Y51.46 E.3546
G1 X50.589 Y51.821 E.00988
G1 X63.561 Y51.821 E.3546
G1 X63.561 Y52.182 E.00988
G1 X50.589 Y52.182 E.3546
G1 X50.589 Y52.543 E.00988
G1 X63.561 Y52.543 E.3546
G1 X63.561 Y52.905 E.00988
G1 X50.589 Y52.905 E.3546
G1 X50.589 Y53.266 E.00988
G1 X63.561 Y53.266 E.3546
G1 X63.561 Y53.627 E.00988
G1 X50.589 Y53.627 E.3546
G1 X50.589 Y53.988 E.00988
G1 X63.575 Y53.988 E.35497
G2 X63.612 Y54.35 I1.97 J-.019 E.00994
G1 X50.589 Y54.35 E.35598
G1 X50.589 Y54.711 E.00988
G1 X63.695 Y54.711 E.35827
G2 X63.814 Y55.072 I1.475 J-.285 E.01042
G1 X50.589 Y55.072 E.36152
G1 X50.589 Y55.434 E.00988
G1 X63.975 Y55.434 E.36591
G2 X64.186 Y55.795 I1.539 J-.658 E.01147
G1 X50.589 Y55.795 E.37169
G1 X50.589 Y56.156 E.00988
G1 X64.461 Y56.156 E.3792
G2 X64.822 Y56.517 I1.614 J-1.253 E.01401
G1 X50.589 Y56.517 E.38908
G1 X50.589 Y56.879 E.00988
G1 X65.635 Y56.879 E.4113
G1 E-.65714 F1800
;WIPE_START
G1 F12600
G1 X64.635 Y56.879 E-.14286
;WIPE_END
G1 Z.6 F36000
G1 X68.865 Y56.879 Z.6
G1 Z.2
G1 E.8 F1800
G1 F12600
G1 X69.411 Y56.879 E.01493
G1 X69.411 Y57.24 E.00988
G1 X68.415 Y57.24 E.02724
G3 X66.086 Y57.24 I-1.164 J-3.339 E.06488
G1 X50.589 Y57.24 E.42361
G1 X50.589 Y57.601 E.00988
G1 X69.411 Y57.601 E.51451
G1 X69.411 Y57.962 E.00988
G1 X50.589 Y57.962 E.51451
G1 X50.589 Y58.324 E.00988
G1 X69.411 Y58.324 E.51451
G1 X69.411 Y58.685 E.00988
G1 X50.589 Y58.685 E.51451
G1 X50.589 Y59.046 E.00988
G1 X69.411 Y59.046 E.51451
G1 X69.411 Y59.407 E.00988
G1 X50.589 Y59.407 E.51451
G1 X50.589 Y59.769 E.00988
G1 X69.411 Y59.769 E.51451
G1 X69.411 Y60.13 E.00988
G1 X50.589 Y60.13 E.51451
G1 X50.589 Y60.491 E.00988
G1 X69.411 Y60.491 E.51451
G1 X69.411 Y60.853 E.00988
G1 X50.589 Y60.853 E.51451
G1 X50.589 Y61.214 E.00988
G1 X69.411 Y61.214 E.51451
G1 X69.411 Y61.575 E.00988
G1 X50.589 Y61.575 E.51451
G1 X50.589 Y61.936 E.00988
G1 X69.411 Y61.936 E.51451
G1 X69.411 Y62.298 E.00988
G1 X50.589 Y62.298 E.51451
G1 X50.589 Y62.659 E.00988
G1 X69.572 Y62.659 E.51891
G1 E-.65714 F1800
;WIPE_START
G1 F12600
G1 X68.572 Y62.659 E-.14286
;WIPE_END
G1 Z.6 F36000
G1 X70.01 Y55.17 Z.6
G1 Z.2
G1 E.8 F1800
;TYPE:Gap infill
;WIDTH:0.334218
G1 F6000
G1 X70.07 Y54.857 E.00703
;WIDTH:0.31665
G1 X70.085 Y54.767 E.00191
;WIDTH:0.283786
G1 X70.102 Y54.669 E.00181
;WIDTH:0.254045
G1 X70.115 Y54.578 E.00146
;WIDTH:0.227481
G1 X70.129 Y54.482 E.00135
;WIDTH:0.19351
G1 X70.149 Y54.297 E.00213
;WIDTH:0.147131
G1 X70.172 Y53.928 E.00291
;WIDTH:0.122019
G1 X70.164 Y43.376 E.06316
;WIDTH:0.159225
G1 X70.149 Y43.191 E.00164
;WIDTH:0.194563
G1 X70.128 Y43.004 E.00216
;WIDTH:0.228244
G1 X70.115 Y42.913 E.00128
;WIDTH:0.255064
G1 X70.101 Y42.816 E.00158
;WIDTH:0.285011
G1 X70.085 Y42.725 E.00169
;WIDTH:0.325374
G2 X70.01 Y42.322 I-12.819 J2.191 E.00877
G1 E-.67697 F1800
;WIPE_START
G1 F6000
G1 X70.085 Y42.725 E-.12303
;WIPE_END
G1 Z.6 F36000
G1 X65.14 Y83.429 Z.6
G1 Z.2
G1 E.8 F1800
;TYPE:Inner wall
;WIDTH:0.4
G1 F6000
G1 X65.065 Y83.339 E.00315
G3 X64.543 Y81.758 I2.185 J-1.598 E.04574
G1 X64.543 Y71.735 E.27081
G3 X67.08 Y69.044 I2.721 J.024 E.10987
G3 X69.957 Y71.734 I.158 J2.715 E.11902
G1 X69.957 Y81.757 E.27081
G3 X65.399 Y83.716 I-2.707 J-.016 E.16952
G1 X65.167 Y83.458 E.00939
G1 X65.398 Y83.187 F36000
;TYPE:Outer wall
G1 F6000
G1 X65.268 Y83.004 E.00607
G3 X64.9 Y81.752 I1.982 J-1.263 E.03574
G1 X64.9 Y71.74 E.2705
G3 X67.102 Y69.4 I2.362 J.017 E.09548
G3 X69.6 Y71.74 I.137 J2.357 E.10343
G1 X69.6 Y81.751 E.2705
G3 X65.441 Y83.242 I-2.35 J-.01 E.15523
G1 X65.423 Y83.219 E.0008
G1 E-.56 F1800
;WIPE_START
G1 F6000
G1 X65.268 Y83.004 E-.06354
G1 X65.065 Y82.611 E-.1061
G1 X64.983 Y82.33 E-.07036
;WIPE_END
G1 Z.6 F36000
G1 X64.579 Y83.875 Z.6
G1 Z.2
G1 E.8 F1800
;TYPE:Inner wall
G1 F6000
G1 X64.757 Y84.087 E.00749
G2 X69.679 Y84.164 I2.498 J-2.346 E.14836
G1 X69.679 Y85.429 E.03417
G1 X50.321 Y85.429 E.52302
G1 X50.321 Y68.071 E.46898
G1 X69.679 Y68.073 E.52302
G1 X69.679 Y69.327 E.03388
G2 X63.829 Y71.723 I-2.423 J2.424 E.21742
G1 X63.829 Y81.769 E.27144
G2 X64.487 Y83.76 I3.427 J-.029 E.05757
G1 X64.554 Y83.843 E.00288
G1 X64.821 Y83.607 F36000
G1 F6000
G1 X64.892 Y83.696 E.00309
G2 X69.878 Y83.319 I2.359 J-1.957 E.15799
G1 X70.036 Y83.362 E.00442
G1 X70.036 Y85.786 E.06548
G1 X49.964 Y85.786 E.54232
G1 X49.964 Y67.714 E.48828
G1 X70.036 Y67.716 E.54232
G1 X70.036 Y70.129 E.06521
M73 P2 R22
G1 X69.878 Y70.173 E.00441
G2 X64.186 Y71.729 I-2.627 J1.58 E.21473
G1 X64.186 Y81.763 E.27112
G2 X64.666 Y83.387 I3.065 J-.025 E.04634
G1 X64.798 Y83.574 E.00619
G1 E-.56 F1800
;WIPE_START
G1 F6000
G1 X64.892 Y83.696 E-.03703
G1 X65.152 Y83.98 E-.0923
G1 X65.297 Y84.107 E-.04622
G1 X65.514 Y84.265 E-.06445
;WIPE_END
G1 Z.6 F36000
G1 X49.607 Y86.143 Z.6
G1 Z.2
G1 E.8 F1800
G1 F6000
G1 X49.607 Y67.357 E.50758
G1 X70.393 Y67.359 E.56161
G1 X70.393 Y86.143 E.50753
G1 X49.647 Y86.143 E.56053
G1 X49.25 Y86.5 F36000
;TYPE:Outer wall
G1 F6000
G1 X49.25 Y67 E.52687
G1 X70.75 Y67.002 E.58091
