; HEADER_BLOCK_START
; generated by OrcaSlicer 2.3.1 on 2025-11-26 at 13:48:36
; total layer number: 60
; filament_density: 1.04
; filament_diameter: 1.75
; max_z_height: 12.00
; HEADER_BLOCK_END

; THUMBNAIL_BLOCK_START

;
; THUMBNAIL_BLOCK_END

; THUMBNAIL_BLOCK_START

;
; THUMBNAIL_BLOCK_END

; external perimeters extrusion width = 0.40mm
; perimeters extrusion width = 0.40mm
; infill extrusion width = 0.40mm
; solid infill extrusion width = 0.40mm
; top infill extrusion width = 0.40mm
; first layer extrusion width = 0.40mm

; EXECUTABLE_BLOCK_START


; Pre-Processed for Cancel-Object support by preprocess_cancellation v0.2.0
; 1 known objects
EXCLUDE_OBJECT_DEFINE NAME=wago_stl_id_15_copy_0 CENTER=57.497,43.540 POLYGON=[[15.015,32.493],[15.015,52.093],[100.428,52.093],[100.428,32.493]]
M73 P0 R8
;TYPE:Custom
PRINT_START EXTRUDER_TEMP=250 BED_TEMP=110
G90
G21
M83 ; use relative distances for extrusion
; Filament gcode
SET_PRESSURE_ADVANCE ADVANCE=0.04; Override pressure advance value
M106 S0
;LAYER_CHANGE
;Z:0.2
;HEIGHT:0.2
;BEFORE_LAYER_CHANGE
;0.2
G92 E0

G1 E-.8 F1800
;AFTER_LAYER_CHANGE
;0.2
;_SET_FAN_SPEED_CHANGING_LAYER
SET_VELOCITY_LIMIT ACCEL=10000 ACCEL_TO_DECEL=10000
SET_VELOCITY_LIMIT SQUARE_CORNER_VELOCITY=9
; printing object wago.stl id:15 copy 0
EXCLUDE_OBJECT_START NAME=wago_stl_id_15_copy_0
G1 Z.6 F36000
G1 X93.516 Y46.634
G1 Z.6
G1 Z.2
G1 E.8 F1800
;TYPE:Inner wall
;WIDTH:0.4
G1 F6000
G1 X92.91 Y46.559 E.0165
G1 X92.156 Y46.317 E.0214
G1 X91.433 Y45.924 E.02222
G3 X90.648 Y45.236 I4.142 J-5.515 E.02824
G3 X89.583 Y43.141 I3.535 J-3.115 E.06417
G3 X89.516 Y42.08 I5.481 J-.878 E.02876
G3 X90.27 Y39.814 I4.649 J.287 E.06528
G1 X90.791 Y39.188 E.022
G3 X91.623 Y38.551 I4.352 J4.818 E.02833
G3 X93.605 Y37.939 I2.217 J3.664 E.05662
G1 X93.89 Y37.916 E.00772
G1 X94.681 Y37.993 E.02148
G3 X97.022 Y39.249 I-.947 J4.574 E.07277
G1 X97.524 Y39.869 E.02157
G3 X97.988 Y40.812 I-5.257 J3.171 E.02843
G3 X98.251 Y42.378 I-4.126 J1.5 E.04312
G1 X98.164 Y43.185 E.02194
G2 X97.925 Y43.967 I16.376 J5.444 E.02209
G3 X97.396 Y44.885 I-6.703 J-3.245 E.02866
G3 X95.546 Y46.34 I-3.755 J-2.871 E.06428
G2 X94.786 Y46.577 I3.387 J12.206 E.02149
G3 X93.731 Y46.661 I-1.136 J-7.602 E.02864
G1 X93.556 Y46.639 E.00477
G1 X93.561 Y46.281 F36000
G1 F6000
G1 X92.995 Y46.204 E.01543
G3 X92.297 Y45.987 I.959 J-4.332 E.01978
G1 X91.635 Y45.628 E.02034
G3 X90.916 Y45 I3.895 J-5.183 E.02581
G3 X89.935 Y43.073 I3.245 J-2.866 E.05906
G3 X89.873 Y42.106 I5.063 J-.813 E.02621
G3 X90.566 Y40.017 I4.272 J.257 E.06016
G1 X91.043 Y39.444 E.02015
G3 X91.802 Y38.86 I4.071 J4.507 E.02588
G3 X93.637 Y38.295 I2.04 J3.36 E.05241
G1 X93.887 Y38.274 E.00678
G1 X94.621 Y38.346 E.01992
G3 X97.224 Y40.067 I-.84 J4.101 E.08641
G3 X97.649 Y40.927 I-4.896 J2.954 E.02596
G3 X97.894 Y42.366 I-3.784 J1.383 E.03964
G1 X97.813 Y43.111 E.02027
G2 X97.593 Y43.829 I15.037 J5.005 E.02029
G3 X97.112 Y44.669 I-6.311 J-3.058 E.02616
G3 X95.41 Y46.008 I-3.453 J-2.636 E.05914
G2 X94.712 Y46.225 I3.11 J11.228 E.01976
G3 X93.749 Y46.304 I-1.069 J-7.17 E.02611
G1 X93.601 Y46.286 E.00405
G1 X93.605 Y45.927 F36000
G1 F6000
G1 X93.079 Y45.855 E.01436
G3 X91.837 Y45.331 I.845 J-3.735 E.0366
G3 X91.185 Y44.764 I3.665 J-4.873 E.02339
G3 X90.243 Y42.553 I2.594 J-2.41 E.06624
G3 X90.46 Y41.004 I3.34 J-.322 E.04265
G1 X90.538 Y40.799 E.00593
G1 X90.861 Y40.22 E.01792
G1 X91.295 Y39.699 E.01829
G3 X91.98 Y39.169 I3.803 J4.213 E.02344
G3 X93.668 Y38.65 I1.928 J3.265 E.04815
G1 X93.884 Y38.633 E.00584
G1 X94.56 Y38.699 E.01836
G3 X96.924 Y40.264 I-.768 J3.728 E.07851
G3 X97.311 Y41.042 I-4.548 J2.744 E.02349
G3 X97.321 Y43.482 I-3.34 J1.235 E.06731
G1 X97.261 Y43.692 E.00588
G3 X96.827 Y44.452 I-5.953 J-2.89 E.02366
G3 X94.842 Y45.805 I-2.865 J-2.07 E.06624
G1 X94.637 Y45.874 E.00585
G3 X93.768 Y45.947 I-1.006 J-6.785 E.02359
G1 X93.645 Y45.932 E.00334
G1 X93.649 Y45.573 F36000
;TYPE:Outer wall
G1 F6000
G1 X93.162 Y45.508 E.01327
G3 X92.039 Y45.035 I.755 J-3.357 E.0331
G3 X91.453 Y44.527 I3.47 J-4.604 E.02097
G3 X90.598 Y42.514 I2.401 J-2.207 E.06026
G3 X90.863 Y40.95 I3.171 J-.268 E.04332
G1 X91.157 Y40.423 E.01632
G1 X91.546 Y39.955 E.01644
G3 X92.159 Y39.479 I3.559 J3.947 E.02099
G3 X93.7 Y39.006 I1.75 J2.954 E.04395
G1 X93.881 Y38.991 E.00491
G1 X94.5 Y39.052 E.01681
G3 X96.625 Y40.461 I-.695 J3.355 E.0706
G3 X96.972 Y41.156 I-4.223 J2.546 E.02102
G3 X96.98 Y43.379 I-3.01 J1.121 E.06132
G1 X96.929 Y43.554 E.00493
G3 X96.543 Y44.235 I-5.658 J-2.755 E.02116
G3 X94.734 Y45.465 I-2.589 J-1.863 E.06032
G1 X94.562 Y45.522 E.00491
G3 X93.786 Y45.59 I-.953 J-6.485 E.02106
G1 X93.688 Y45.578 E.00266
G1 E-.56 F1800
;WIPE_START
G1 F6000
G1 X93.162 Y45.508 E-.12743
G1 X92.714 Y45.37 E-.11257
;WIPE_END
G1 Z.6 F36000
G1 X21.7 Y37.928 Z.6
G1 Z.2
G1 E.8 F1800
;TYPE:Inner wall
G1 F6000
G1 X22.371 Y37.993 E.0182
G3 X24.711 Y39.249 I-.947 J4.574 E.07277
G1 X25.214 Y39.869 E.02157
G3 X25.677 Y40.812 I-5.257 J3.171 E.02843
G3 X25.941 Y42.378 I-4.126 J1.5 E.04312
G1 X25.854 Y43.185 E.02194
G2 X25.615 Y43.967 I16.368 J5.442 E.02209
G3 X25.086 Y44.885 I-6.703 J-3.245 E.02866
G3 X23.235 Y46.34 I-3.755 J-2.871 E.06428
G2 X22.476 Y46.577 I3.387 J12.206 E.02149
G3 X21.421 Y46.661 I-1.136 J-7.602 E.02864
G3 X20.6 Y46.559 I.467 J-7.105 E.02236
G1 X19.845 Y46.317 E.0214
G1 X19.123 Y45.924 E.02222
G3 X18.338 Y45.236 I4.142 J-5.514 E.02824
G3 X17.273 Y43.141 I3.535 J-3.115 E.06417
G3 X17.206 Y42.08 I5.481 J-.878 E.02876
G3 X17.96 Y39.814 I4.649 J.287 E.06528
G1 X18.481 Y39.188 E.022
G3 X19.312 Y38.551 I4.352 J4.817 E.02833
G3 X21.295 Y37.939 I2.217 J3.664 E.05662
G1 X21.579 Y37.916 E.00772
G1 X21.661 Y37.924 E.0022
G1 X21.666 Y38.283 F36000
G1 F6000
G1 X22.31 Y38.346 E.0175
G3 X24.914 Y40.067 I-.84 J4.101 E.08641
G3 X25.339 Y40.927 I-4.896 J2.954 E.02596
G3 X25.583 Y42.366 I-3.784 J1.383 E.03964
G1 X25.503 Y43.111 E.02027
G2 X25.283 Y43.829 I15.031 J5.003 E.02029
G3 X24.802 Y44.669 I-6.311 J-3.058 E.02616
G3 X23.1 Y46.008 I-3.453 J-2.636 E.05914
G2 X22.402 Y46.225 I3.11 J11.228 E.01976
G3 X21.439 Y46.304 I-1.069 J-7.17 E.02611
G3 X19.986 Y45.987 I.205 J-4.432 E.04036
G1 X19.325 Y45.628 E.02034
G3 X18.606 Y45 I3.894 J-5.182 E.02581
G3 X17.625 Y43.073 I3.245 J-2.866 E.05906
G3 X17.562 Y42.106 I5.063 J-.813 E.02621
G3 X18.256 Y40.017 I4.271 J.257 E.06016
G1 X18.733 Y39.444 E.02015
G3 X19.491 Y38.86 I4.071 J4.507 E.02588
G3 X21.326 Y38.295 I2.04 J3.36 E.05241
G1 X21.576 Y38.274 E.00678
G1 X21.626 Y38.279 E.00134
G1 X21.631 Y38.638 F36000
G1 F6000
G1 X22.25 Y38.699 E.0168
G3 X24.614 Y40.264 I-.768 J3.728 E.0785
G3 X25.001 Y41.042 I-4.548 J2.744 E.02349
G3 X25.011 Y43.483 I-3.34 J1.235 E.06731
G1 X24.951 Y43.692 E.00588
G3 X24.517 Y44.452 I-5.953 J-2.89 E.02366
G3 X22.532 Y45.805 I-2.865 J-2.07 E.06624
G1 X22.327 Y45.874 E.00585
G3 X21.457 Y45.947 I-1.006 J-6.785 E.02359
G3 X19.527 Y45.331 I.157 J-3.826 E.0554
G3 X18.874 Y44.764 I3.665 J-4.873 E.02339
G3 X17.933 Y42.553 I2.594 J-2.41 E.06624
G3 X18.15 Y41.004 I3.34 J-.322 E.04265
G1 X18.228 Y40.799 E.00593
G1 X18.551 Y40.22 E.01792
G1 X18.985 Y39.699 E.01829
G3 X19.67 Y39.169 I3.803 J4.213 E.02344
G3 X21.358 Y38.65 I1.928 J3.265 E.04815
G1 X21.573 Y38.633 E.00584
G1 X21.591 Y38.635 E.00048
G1 X21.596 Y38.994 F36000
;TYPE:Outer wall
G1 F6000
G1 X22.19 Y39.052 E.0161
G3 X24.315 Y40.461 I-.696 J3.355 E.0706
G3 X24.662 Y41.156 I-4.223 J2.546 E.02102
G3 X24.669 Y43.379 I-3.01 J1.121 E.06132
G1 X24.619 Y43.554 E.00492
G3 X24.233 Y44.235 I-5.658 J-2.755 E.02116
G3 X22.424 Y45.465 I-2.589 J-1.863 E.06032
G1 X22.252 Y45.522 E.00491
G3 X21.476 Y45.59 I-.953 J-6.485 E.02106
G3 X19.729 Y45.035 I.131 J-3.438 E.05012
G3 X19.143 Y44.527 I3.47 J-4.604 E.02097
G3 X18.288 Y42.514 I2.401 J-2.207 E.06026
G3 X18.553 Y40.95 I3.171 J-.268 E.04332
G1 X18.847 Y40.423 E.01632
G1 X19.236 Y39.955 E.01644
G3 X19.849 Y39.479 I3.559 J3.948 E.02099
G3 X21.39 Y39.006 I1.75 J2.954 E.04395
G1 X21.557 Y38.992 E.00453
G1 E-.56 F1800
;WIPE_START
G1 F6000
G1 X22.19 Y39.052 E-.15258
G1 X22.539 Y39.155 E-.08742
;WIPE_END
G1 Z.6 F36000
G1 X99.006 Y39.299 Z.6
G1 Z.2
G1 E.8 F1800
;TYPE:Inner wall
G1 F6000
G1 X99.007 Y39.322 E.00062
G1 X99.007 Y45.277 E.1609
G3 X93.596 Y50.671 I-5.393 J.002 E.22942
G1 X21.851 Y50.671 E1.9385
G3 X16.436 Y45.261 I-.017 J-5.398 E.2299
G1 X16.438 Y39.229 E.16298
G3 X21.847 Y33.914 I5.394 J.08 E.2272
G1 X22.314 Y33.914 E.01262
G1 X93.693 Y33.916 E1.92859
G3 X98.977 Y38.738 I-.08 J5.394 E.21129
M73 P1 R8
G1 X99.004 Y39.259 E.0141
G1 X99.363 Y39.281 F36000
G1 F6000
G1 X99.364 Y39.314 E.00091
G1 X99.364 Y45.281 E.1612
G3 X93.604 Y51.029 I-5.75 J-.003 E.24425
G1 X21.842 Y51.029 E1.93896
G3 X16.079 Y45.269 I-.013 J-5.75 E.24465
G1 X16.081 Y39.219 E.16347
G3 X21.839 Y33.557 I5.752 J.091 E.24185
G1 X22.314 Y33.557 E.01284
G1 X93.703 Y33.559 E1.92886
G3 X99.331 Y38.695 I-.091 J5.752 E.22502
G1 X99.36 Y39.241 E.01476
G1 X99.719 Y39.262 F36000
G1 F6000
G1 X99.721 Y39.307 E.00121
G1 X99.721 Y45.285 E.16151
G3 X93.612 Y51.386 I-6.108 J-.007 E.25907
G1 X21.833 Y51.386 E1.93942
G3 X15.722 Y45.277 I-.006 J-6.105 E.25937
G1 X15.724 Y39.209 E.16396
G3 X21.831 Y33.2 I6.11 J.102 E.2565
G1 X22.314 Y33.2 E.01306
G1 X93.713 Y33.202 E1.92913
G3 X99.686 Y38.653 I-.103 J6.11 E.23876
G1 X99.717 Y39.223 E.0154
G1 X100.075 Y39.243 F36000
;TYPE:Outer wall
G1 F6000
G1 X100.078 Y39.3 E.00153
G1 X100.078 Y45.289 E.16182
G3 X93.62 Y51.743 I-6.465 J-.011 E.2739
G1 X21.824 Y51.743 E1.93989
G3 X15.365 Y45.285 I-.002 J-6.457 E.27412
G1 X15.367 Y39.198 E.16445
M73 P2 R8
G3 X21.823 Y32.843 I6.469 J.114 E.27115
G1 X22.314 Y32.843 E.01328
G1 X93.723 Y32.845 E1.92939
G3 X100.04 Y38.611 I-.114 J6.469 E.25249
G1 X100.073 Y39.204 E.01602
G1 E-.56 F1800
;WIPE_START
G1 F6000
G1 X100.078 Y39.3 E-.02315
G1 X100.078 Y40.203 E-.21685
;WIPE_END
G1 Z.6 F36000
G1 X98.339 Y41.368 Z.6
G1 Z.2
G1 E.8 F1800
;TYPE:Gap infill
;WIDTH:0.435224
G1 F6000
G1 X98.562 Y41.533 E.00824
;WIDTH:0.477747
G1 X98.599 Y41.562 E.00153
G1 X98.623 Y42.053 E.01616
;WIDTH:0.453605
G3 X98.606 Y42.825 I-7.505 J.227 E.02401
;WIDTH:0.491395
G1 X98.584 Y43.244 E.01426
G1 E-.67397 F1800
;WIPE_START
G1 F6000
G1 X98.606 Y42.825 E-.12603
;WIPE_END
G1 Z.6 F36000
G1 X16.858 Y43.237 Z.6
G1 Z.2
G1 E.8 F1800
;WIDTH:0.474467
G1 F6000
G1 X16.831 Y42.673 E.01841
;WIDTH:0.452749
G3 X16.822 Y42.059 I4.013 J-.368 E.01906
G1 X16.822 Y42.046 E.0004
;WIDTH:0.481146
G1 X16.859 Y41.327 E.02387
G1 E-.58405 F1800
;WIPE_START
G1 F6000
G1 X16.822 Y42.046 E-.21595
;WIPE_END
G1 Z.6 F36000
G1 X16.544 Y43.554 Z.6
G1 Z.2
G1 E.8 F1800
;TYPE:Bottom surface
;WIDTH:0.403332
G1 F12600
G1 X17.116 Y43.554 E.01561
G1 X17.223 Y43.915 E.01025
G1 X16.704 Y43.915 E.01415
G1 X16.704 Y44.275 E.00983
G1 X17.389 Y44.275 E.01867
G1 X17.572 Y44.635 E.01102
G1 X16.704 Y44.635 E.02366
G1 X16.704 Y44.996 E.00983
G1 X17.801 Y44.996 E.02992
G2 X18.091 Y45.356 I2.563 J-1.765 E.01263
G1 X16.708 Y45.356 E.0377
G1 X16.725 Y45.717 E.00984
G1 X18.442 Y45.717 E.04682
G1 X18.886 Y46.077 E.0156
G1 X16.773 Y46.077 E.05762
G2 X16.841 Y46.437 I1.832 J-.159 E.01002
G1 X19.87 Y46.437 E.08259
G1 E-.65714 F1800
;WIPE_START
G1 F12600
G1 X18.87 Y46.437 E-.14286
;WIPE_END
G1 Z.6 F36000
G1 X20.544 Y34.183 Z.6
G1 Z.2
G1 E.8 F1800
G1 F12600
G1 X93.685 Y34.184 E1.99465
G3 X95.5 Y34.544 I-.035 J4.933 E.05076
G1 X19.933 Y34.544 E2.0608
G2 X19.209 Y34.904 I2.348 J5.631 E.02209
G1 X96.238 Y34.904 E2.10068
G3 X96.761 Y35.265 I-1.551 J2.808 E.01734
G1 X18.677 Y35.265 E2.12943
G2 X18.258 Y35.625 I1.706 J2.405 E.01509
G1 X97.181 Y35.625 E2.15231
G3 X97.517 Y35.986 I-1.725 J1.949 E.01347
G1 X17.922 Y35.986 E2.17067
G2 X17.644 Y36.346 I1.682 J1.581 E.01242
G1 X97.796 Y36.346 E2.18583
G3 X98.028 Y36.706 I-1.807 J1.421 E.01171
M73 P3 R8
G1 X17.414 Y36.706 E2.19846
G2 X17.222 Y37.067 I1.725 J1.149 E.01115
G1 X98.222 Y37.067 E2.20897
G3 X98.383 Y37.427 I-1.827 J1.032 E.01078
G1 X17.063 Y37.427 E2.2177
G2 X16.932 Y37.788 I1.753 J.84 E.01047
G1 X98.511 Y37.788 E2.22477
G1 X98.602 Y38.148 E.01014
G1 X95.943 Y38.148 E.07251
G1 X96.566 Y38.508 E.01961
G1 X98.672 Y38.508 E.05745
G3 X98.715 Y38.869 I-1.907 J.41 E.00991
G1 X96.99 Y38.869 E.04706
G3 X97.35 Y39.229 I-.795 J1.157 E.01398
G1 X98.734 Y39.229 E.03774
G3 X98.739 Y39.59 I-3.424 J.23 E.00983
G1 X97.642 Y39.59 E.02993
G3 X97.872 Y39.95 I-.857 J.802 E.01173
G1 X98.739 Y39.95 E.02365
G1 X98.739 Y40.31 E.00983
G1 X98.068 Y40.31 E.01832
G3 X98.22 Y40.671 I-1.255 J.744 E.01071
G1 X98.9 Y40.671 E.01854
G1 E-.65714 F1800
;WIPE_START
G1 F12600
G1 X98.22 Y40.671 E-.09711
G1 X98.095 Y40.376 E-.04575
;WIPE_END
G1 Z.6 F36000
G1 X98.9 Y43.554 Z.6
G1 Z.2
G1 E.8 F1800
G1 F12600
G1 X98.331 Y43.554 E.01552
G1 X98.221 Y43.915 E.01028
G1 X98.739 Y43.915 E.01415
G1 X98.739 Y44.275 E.00983
G1 X98.065 Y44.275 E.0184
G1 X97.875 Y44.635 E.01111
G1 X98.739 Y44.635 E.02358
G1 X98.739 Y44.996 E.00983
G1 X97.645 Y44.996 E.02984
G3 X97.35 Y45.356 I-2.055 J-1.38 E.01272
G1 X98.734 Y45.356 E.03774
G1 X98.713 Y45.717 E.00985
G1 X97.004 Y45.717 E.0466
G1 X96.546 Y46.077 E.0159
G1 X98.673 Y46.077 E.05799
G3 X98.604 Y46.437 I-1.925 J-.18 E.01002
G1 X95.591 Y46.437 E.08216
G1 E-.65714 F1800
;WIPE_START
G1 F12600
G1 X96.591 Y46.437 E-.14286
;WIPE_END
G1 Z.6 F36000
G1 X92.189 Y38.148 Z.6
G1 Z.2
G1 E.8 F1800
G1 F12600
G1 X23.633 Y38.148 E1.86959
G1 X24.255 Y38.508 E.01961
G1 X91.19 Y38.508 E1.82539
G1 X90.756 Y38.869 E.01538
G1 X24.68 Y38.869 E1.802
G3 X25.04 Y39.229 I-.795 J1.157 E.01398
G1 X90.408 Y39.229 E1.78267
G1 X90.108 Y39.59 E.01279
G1 X25.332 Y39.59 E1.76653
G3 X25.562 Y39.95 I-.857 J.801 E.01173
G1 X89.887 Y39.95 E1.75423
G1 X89.686 Y40.31 E.01125
M73 P4 R8
G1 X25.758 Y40.31 E1.74341
G3 X25.91 Y40.671 I-1.255 J.744 E.01071
G1 X89.547 Y40.671 E1.73547
G1 X89.426 Y41.031 E.01038
G1 X26.022 Y41.031 E1.72908
G3 X26.115 Y41.392 I-1.963 J.698 E.01016
G1 X89.33 Y41.392 E1.72394
G2 X89.281 Y41.752 I1.801 J.429 E.00994
M73 P4 R7
G1 X26.166 Y41.752 E1.72122
G3 X26.199 Y42.113 I-3.162 J.466 E.00987
G1 X89.247 Y42.113 E1.71941
G2 X89.244 Y42.473 I1.233 J.191 E.00986
G1 X26.2 Y42.473 E1.71927
G1 X26.161 Y42.833 E.00989
G1 X89.281 Y42.833 E1.72136
G1 X89.319 Y43.194 E.00988
G1 X26.122 Y43.194 E1.72346
G1 X26.021 Y43.554 E.01021
G1 X89.426 Y43.554 E1.72914
G1 X89.533 Y43.915 E.01025
G1 X25.911 Y43.915 E1.73507
G3 X25.755 Y44.275 I-1.025 J-.229 E.01077
G1 X89.699 Y44.275 E1.74384
G1 X89.882 Y44.635 E.01102
G1 X25.565 Y44.635 E1.75401
G3 X25.335 Y44.996 I-1.624 J-.781 E.01168
G1 X90.111 Y44.996 E1.76652
G2 X90.401 Y45.356 I2.562 J-1.765 E.01263
G1 X25.04 Y45.356 E1.78247
G3 X24.694 Y45.717 I-2.793 J-2.335 E.01364
M73 P5 R7
G1 X90.752 Y45.717 E1.80147
G1 X91.196 Y46.077 E.0156
G1 X24.236 Y46.077 E1.82609
G1 X24.084 Y46.197 E.00528
G1 X23.626 Y46.437 E.0141
G1 X92.18 Y46.437 E1.86955
G1 E-.65714 F1800
;WIPE_START
G1 F12600
G1 X91.18 Y46.437 E-.14286
;WIPE_END
G1 Z.6 F36000
G1 X98.677 Y46.798 Z.6
G1 Z.2
G1 E.8 F1800
G1 F12600
G1 X16.934 Y46.798 E2.22922
G1 X17.062 Y47.158 E.01042
G1 X98.38 Y47.158 E2.21766
G3 X98.22 Y47.519 I-1.814 J-.593 E.01078
G1 X17.222 Y47.519 E2.2089
G2 X17.416 Y47.879 I1.95 J-.815 E.01117
G1 X98.031 Y47.879 E2.19848
G3 X97.799 Y48.24 I-2.032 J-1.055 E.01171
G1 X17.648 Y48.24 E2.18581
G2 X17.927 Y48.6 I1.993 J-1.254 E.01245
G1 X97.521 Y48.6 E2.17063
G1 X97.184 Y48.96 E.01345
G1 X18.265 Y48.96 E2.15223
G2 X18.681 Y49.321 I2.061 J-1.961 E.01504
G1 X96.766 Y49.321 E2.12946
G3 X96.234 Y49.681 I-2.089 J-2.508 E.01754
G1 X19.209 Y49.681 E2.10057
G2 X19.946 Y50.042 I2.75 J-4.686 E.02238
M73 P6 R7
G1 X95.502 Y50.042 E2.06052
G3 X93.626 Y50.402 I-1.862 J-4.628 E.05242
G1 X20.549 Y50.402 E1.99289
G1 E-.65714 F1800
;WIPE_START
G1 F12600
G1 X21.549 Y50.402 E-.14286
;WIPE_END
G1 Z.6 F36000
G1 X19.878 Y38.148 Z.6
G1 Z.2
G1 E.8 F1800
G1 F12600
G1 X16.839 Y38.148 E.08288
G2 X16.771 Y38.508 I1.799 J.526 E.01002
G1 X18.88 Y38.508 E.05751
G1 X18.446 Y38.869 E.01538
G1 X16.727 Y38.869 E.0469
G1 X16.706 Y39.229 E.00984
G1 X18.098 Y39.229 E.03795
G1 X17.798 Y39.59 E.01279
G1 X16.706 Y39.59 E.02978
G1 X16.706 Y39.95 E.00983
G1 X17.577 Y39.95 E.02376
G1 X17.376 Y40.31 E.01125
G1 X16.706 Y40.31 E.01828
G1 X16.705 Y40.671 E.00983
