; HEADER_BLOCK_START
; generated by OrcaSlicer 2.3.2-beta2 on 2026-02-22 at 16:39:03
; total layer number: 75
; filament_density: 1.04
; filament_diameter: 1.75
; max_z_height: 15.00
; filament: 1
; HEADER_BLOCK_END

; THUMBNAIL_BLOCK_START

;
; THUMBNAIL_BLOCK_END

; THUMBNAIL_BLOCK_START

;
; THUMBNAIL_BLOCK_END

; external perimeters extrusion width = 0.40mm
; perimeters extrusion width = 0.40mm
; infill extrusion width = 0.40mm
; solid infill extrusion width = 0.40mm
; top infill extrusion width = 0.40mm
; first layer extrusion width = 0.40mm

; EXECUTABLE_BLOCK_START


; Pre-Processed for Cancel-Object support by preprocess_cancellation v0.2.0
; 1 known objects
EXCLUDE_OBJECT_DEFINE NAME=WAGO221_615_1_id_87_copy_0 CENTER=60.175,59.928 POLYGON=[[39.675,47.633],[39.675,72.367],[80.325,72.367],[80.325,47.633]]
M73 P0 R9
;TYPE:Custom
PRINT_START EXTRUDER_TEMP=255 BED_TEMP=105
G90
G21
M83 ; use relative distances for extrusion
; Filament gcode
SET_PRESSURE_ADVANCE ADVANCE=0.04; Override pressure advance value
M106 S0
;LAYER_CHANGE
;Z:0.2
;HEIGHT:0.2
;BEFORE_LAYER_CHANGE
;0.2
G92 E0

G1 E-.8 F1800
;AFTER_LAYER_CHANGE
;0.2
;_SET_FAN_SPEED_CHANGING_LAYER
SET_VELOCITY_LIMIT ACCEL=10000 ACCEL_TO_DECEL=10000
SET_VELOCITY_LIMIT SQUARE_CORNER_VELOCITY=9
; printing object WAGO221-615-1  id:87 copy 0
EXCLUDE_OBJECT_START NAME=WAGO221_615_1_id_87_copy_0
G1 Z.6 F36000
G1 X41.3 Y48.583
G1 Z.6
G1 Z.2
G1 E.8 F1800
;TYPE:Outer wall
;WIDTH:0.4
G1 F6000
G1 X78.7 Y48.583 E1.01051
G1 X78.7 Y52.9 E.11664
G1 X41.3 Y52.9 E1.01051
G1 X41.3 Y48.623 E.11556
G1 E-.56 F1800
;WIPE_START
G1 F6000
G1 X42.3 Y48.622 E-.24
;WIPE_END
G1 Z.6 F36000
G1 X61.42 Y58.064 Z.6
G1 Z.2
G1 E.8 F1800
;TYPE:Inner wall
G1 F6000
G1 X61.35 Y58.114 E.00233
G3 X59.61 Y53.747 I-1.35 J-1.992 E.23241
G1 X59.87 Y53.719 E.00705
G3 X61.557 Y57.957 I.13 J2.403 E.16202
G1 X61.452 Y58.04 E.00362
G1 X61.204 Y57.78 F36000
;TYPE:Outer wall
G1 F6000
G1 X61.149 Y57.818 E.00181
G3 X59.668 Y54.1 I-1.149 J-1.696 E.1979
G1 X59.889 Y54.076 E.006
G3 X61.326 Y57.684 I.111 J2.046 E.13796
G1 X61.236 Y57.755 E.0031
G1 E-.56 F1800
;WIPE_START
G1 F6000
G1 X61.149 Y57.818 E-.02567
G1 X60.774 Y58.021 E-.1023
G1 X60.55 Y58.099 E-.05697
G1 X60.332 Y58.147 E-.05364
G1 X60.326 Y58.148 E-.00143
;WIPE_END
G1 Z.6 F36000
G1 X77.069 Y65.515 Z.6
G1 Z.2
G1 E.8 F1800
;TYPE:Inner wall
G1 F6000
G1 X77.105 Y65.732 E.00596
G3 X73.164 Y63.06 I-3.104 J.336 E.3837
G3 X73.825 Y62.951 I.875 J3.238 E.01812
G3 X77.05 Y65.398 I.176 J3.117 E.11903
G1 X77.063 Y65.475 E.0021
G1 X76.717 Y65.572 F36000
G1 F6000
G1 X76.749 Y65.771 E.00543
G3 X73.26 Y63.405 I-2.748 J.297 E.33976
G3 X73.846 Y63.308 I.775 J2.871 E.01607
G3 X76.701 Y65.475 I.155 J2.76 E.10537
G1 X76.71 Y65.533 E.00158
G1 X76.365 Y65.63 F36000
G1 F6000
G1 X76.402 Y65.809 E.00493
G3 X73.592 Y63.697 I-2.392 J.259 E.30205
G1 X73.867 Y63.665 E.00746
G3 X76.359 Y65.551 I.143 J2.402 E.09191
G1 X76.362 Y65.59 E.00107
G1 X76.012 Y65.688 F36000
;TYPE:Outer wall
G1 F6000
G1 X76.045 Y65.847 E.0044
G3 X73.652 Y64.05 I-2.037 J.22 E.25716
G1 X73.888 Y64.022 E.00641
G3 X76.009 Y65.628 I.12 J2.045 E.07823
G1 X76.01 Y65.648 E.00055
G1 E-.56 F1800
;WIPE_START
G1 F6000
G1 X76.045 Y65.847 E-.04861
G1 X76.039 Y66.29 E-.10624
G1 X76.003 Y66.511 E-.05364
G1 X75.967 Y66.637 E-.03152
;WIPE_END
G1 Z.6 F36000
G1 X47.034 Y69.012 Z.6
G1 Z.2
G1 E.8 F1800
;TYPE:Inner wall
G1 F6000
G1 X46.834 Y69.075 E.00566
G3 X45.495 Y62.988 I-.835 J-3.007 E.27404
G1 X45.831 Y62.951 E.00914
G3 X47.154 Y68.967 I.169 J3.116 E.23753
G1 X47.072 Y68.998 E.00239
G1 X46.92 Y68.674 F36000
G1 F6000
G1 X46.739 Y68.731 E.00514
G3 X45.553 Y63.341 I-.739 J-2.663 E.24267
G1 X45.85 Y63.308 E.00809
G3 X47.022 Y68.635 I.15 J2.76 E.21033
G1 X46.958 Y68.66 E.00187
G1 X46.806 Y68.336 F36000
G1 F6000
G1 X46.643 Y68.387 E.00461
G3 X45.61 Y63.693 I-.643 J-2.319 E.21129
G1 X45.87 Y63.665 E.00705
G3 X46.89 Y68.304 I.13 J2.403 E.18314
G1 X46.844 Y68.321 E.00134
G1 X46.692 Y67.997 F36000
;TYPE:Outer wall
G1 F6000
G1 X46.548 Y68.043 E.00409
G3 X45.668 Y64.046 I-.548 J-1.974 E.17991
G1 X45.889 Y64.022 E.006
G3 X46.758 Y67.972 I.111 J2.046 E.15594
G1 X46.73 Y67.983 E.00082
G1 E-.56 F1800
;WIPE_START
G1 F6000
G1 X46.548 Y68.043 E-.04593
G1 X46.332 Y68.093 E-.05325
G1 X46.111 Y68.117 E-.05329
G1 X45.889 Y68.117 E-.05329
G1 X45.747 Y68.102 E-.03425
;WIPE_END
G1 Z.6 F36000
G1 X61.852 Y58.633 Z.6
G1 Z.2
G1 E.8 F1800
;TYPE:Inner wall
G1 F6000
G1 X62.02 Y58.502 E.00575
G2 X62.264 Y53.971 I-2.02 J-2.381 E.13724
G1 X79.104 Y53.971 E.45501
G1 X79.104 Y71.146 E.46405
G1 X40.896 Y71.146 E1.03233
G1 X40.896 Y53.971 E.46405
M73 P1 R9
G1 X57.736 Y53.971 E.45501
G1 X57.514 Y54.233 E.0093
G2 X61.751 Y58.706 I2.487 J1.888 E.23753
G1 X61.82 Y58.656 E.0023
G1 X61.636 Y58.349 F36000
G1 F6000
G1 X61.788 Y58.228 E.00523
G2 X61.447 Y53.771 I-1.788 J-2.105 E.14075
G1 X61.49 Y53.614 E.0044
G1 X79.461 Y53.614 E.48555
G1 X79.461 Y71.503 E.48334
G1 X40.539 Y71.503 E1.05163
G1 X40.539 Y53.614 E.48334
G1 X58.51 Y53.614 E.48555
G1 X58.553 Y53.771 E.0044
G2 X61.55 Y58.409 I1.447 J2.353 E.23775
G1 X61.604 Y58.372 E.00177
G1 E-.56 F1800
;WIPE_START
G1 F6000
G1 X61.788 Y58.228 E-.05602
G1 X62.008 Y58.026 E-.07183
G1 X62.202 Y57.797 E-.07188
G1 X62.296 Y57.658 E-.04028
;WIPE_END
G1 Z.6 F36000
G1 X40.943 Y48.583 Z.6
G1 Z.2
G1 E.8 F1800
G1 F6000
G1 X40.943 Y53.257 E.12629
G1 X79.057 Y53.257 E1.02981
G1 X79.057 Y48.14 E.13825
G3 X79.597 Y48.151 I.223 J2.383 E.01463
G3 X79.818 Y48.456 I-.084 J.293 E.01097
G1 X79.818 Y71.544 E.62381
G3 X79.502 Y71.86 I-.303 J.013 E.01358
G1 X40.498 Y71.86 E1.05384
G3 X40.182 Y71.544 I-.013 J-.303 E.01358
G1 X40.182 Y48.456 E.62381
G3 X40.498 Y48.14 I.303 J-.013 E.01358
G1 X40.943 Y48.14 E.01201
G1 X40.943 Y48.543 E.01089
G1 E-.56 F1800
;WIPE_START
G1 F6000
G1 X40.943 Y49.543 E-.24
;WIPE_END
G1 Z.6 F36000
G1 X79.772 Y72.163 Z.6
G1 Z.2
G1 E.8 F1800
;TYPE:Outer wall
G1 F6000
G3 X79.514 Y72.217 I-.262 J-.611 E.00718
G1 X40.486 Y72.217 E1.05448
G3 X39.825 Y71.556 I.004 J-.665 E.02803
G1 X39.825 Y48.444 E.62444
G3 X40.487 Y47.783 I.665 J.003 E.02804
G1 X42.452 Y47.783 E.05311
G1 X79.514 Y47.783 E1.00139
G3 X80.175 Y48.444 I-.005 J.666 E.028
G1 X80.175 Y71.556 E.62444
G3 X79.808 Y72.146 I-.665 J-.004 E.01978
G1 E-.56 F1800
;WIPE_START
G1 F6000
G1 X79.61 Y72.211 E-.05001
G1 X79.514 Y72.217 E-.02314
G1 X78.818 Y72.217 E-.16685
;WIPE_END
G1 Z.6 F36000
G1 X79.438 Y53.435 Z.6
G1 Z.2
G1 E.8 F1800
M73 P2 R9
;TYPE:Gap infill
;WIDTH:0.446688
G1 F6000
G1 X79.438 Y48.319 E.15633
G1 X78.879 Y48.183 F36000
;WIDTH:0.485784
G1 F6000
G1 X41.121 Y48.183 E1.26524
G1 X40.562 Y48.319 F36000
;WIDTH:0.446682
G1 F6000
G1 X40.562 Y53.435 E.15633
G1 E-.56 F1800
;WIPE_START
G1 F6000
G1 X40.562 Y52.435 E-.24
;WIPE_END
G1 Z.6 F36000
G1 X58.702 Y53.639 Z.6
G1 Z.2
G1 E.8 F1800
;WIDTH:0.344212
G1 F6000
G1 X58.976 Y53.586 E.00635
;WIDTH:0.31936
G1 X59.124 Y53.561 E.00313
;WIDTH:0.269654
G1 X59.271 Y53.536 E.00257
;WIDTH:0.227434
G1 X59.425 Y53.519 E.00216
;WIDTH:0.195264
G1 X59.567 Y53.504 E.00165
;WIDTH:0.158326
G1 X59.86 Y53.488 E.00256
G1 X60.426 Y53.503 E.00494
;WIDTH:0.194271
G1 X60.573 Y53.519 E.0017
;WIDTH:0.225523
G1 X60.713 Y53.534 E.00195
;WIDTH:0.264917
G1 X60.864 Y53.559 E.00257
;WIDTH:0.312581
G1 X61.004 Y53.582 E.0029
;WIDTH:0.338615
G1 X61.298 Y53.638 E.00669
G1 E-.71024 F1800
;WIPE_START
G1 F6000
G1 X61.004 Y53.582 E-.08976
;WIPE_END
G1 Z.6 F36000
G1 X62.621 Y54.241 Z.6
G1 Z.2
G1 E.8 F1800
;TYPE:Bottom surface
;WIDTH:0.404541
G1 F12600
G1 X78.836 Y54.241 E.44368
G1 X78.836 Y54.603 E.00989
G1 X63.027 Y54.603 E.43258
G3 X63.184 Y54.964 I-1.584 J.902 E.01081
G1 X78.836 Y54.964 E.42829
G1 X78.836 Y55.326 E.00989
G1 X63.293 Y55.326 E.42529
G3 X63.36 Y55.688 I-1.629 J.489 E.01008
G1 X78.836 Y55.688 E.42346
G1 X78.836 Y56.049 E.00989
G1 X63.388 Y56.049 E.42271
G3 X63.376 Y56.411 I-1.668 J.128 E.00992
G1 X78.836 Y56.411 E.42303
G1 X78.836 Y56.773 E.00989
G1 X63.325 Y56.773 E.42441
G3 X63.234 Y57.134 I-1.708 J-.239 E.01023
G1 X78.836 Y57.134 E.42691
G1 X78.836 Y57.496 E.00989
G1 X63.099 Y57.496 E.43061
G3 X62.915 Y57.857 I-1.895 J-.737 E.01112
G1 X78.836 Y57.857 E.43565
G1 X78.836 Y58.219 E.00989
G1 X62.663 Y58.219 E.44252
G3 X62.331 Y58.581 I-1.829 J-1.35 E.01348
G1 X78.836 Y58.581 E.45163
G1 X78.836 Y58.942 E.00989
G1 X61.572 Y58.942 E.47238
G1 E-.65714 F1800
;WIPE_START
G1 F12600
G1 X62.572 Y58.942 E-.14286
;WIPE_END
G1 Z.6 F36000
G1 X57.379 Y54.241 Z.6
G1 Z.2
G1 E.8 F1800
G1 F12600
G1 X41.164 Y54.241 E.44368
G1 X41.164 Y54.603 E.00989
G1 X56.975 Y54.603 E.43262
G2 X56.816 Y54.964 I1.723 J.97 E.01082
G1 X41.164 Y54.964 E.42829
G1 X41.164 Y55.326 E.00989
G1 X56.707 Y55.326 E.42529
G2 X56.64 Y55.688 I1.629 J.489 E.01008
G1 X41.164 Y55.688 E.42346
G1 X41.164 Y56.049 E.00989
G1 X56.612 Y56.049 E.42271
G2 X56.624 Y56.411 I1.668 J.128 E.00992
G1 X41.164 Y56.411 E.42303
G1 X41.164 Y56.773 E.00989
G1 X56.675 Y56.773 E.42441
G2 X56.768 Y57.134 I1.589 J-.216 E.01024
G1 X41.164 Y57.134 E.42696
G1 X41.164 Y57.496 E.00989
G1 X56.901 Y57.496 E.43061
G2 X57.086 Y57.857 I1.755 J-.669 E.01113
G1 X41.164 Y57.857 E.43567
G1 X41.164 Y58.219 E.00989
G1 X57.337 Y58.219 E.44252
G2 X57.669 Y58.581 I1.829 J-1.35 E.01348
G1 X41.164 Y58.581 E.45163
G1 X41.164 Y58.942 E.00989
G1 X58.428 Y58.942 E.47238
G1 E-.65714 F1800
;WIPE_START
G1 F12600
G1 X57.428 Y58.942 E-.14286
;WIPE_END
G1 Z.6 F36000
G1 X41.003 Y59.304 Z.6
G1 Z.2
G1 E.8 F1800
G1 F12600
G1 X58.833 Y59.304 E.48786
G2 X61.163 Y59.304 I1.165 J-3.187 E.06508
G1 X78.836 Y59.304 E.48358
G1 X78.836 Y59.666 E.00989
G1 X41.164 Y59.666 E1.03081
G1 X41.164 Y60.027 E.00989
G1 X78.836 Y60.027 E1.03081
G1 X78.836 Y60.389 E.00989
G1 X41.164 Y60.389 E1.03081
G1 X41.164 Y60.75 E.00989
G1 X78.836 Y60.75 E1.03081
G1 X78.836 Y61.112 E.00989
M73 P3 R9
G1 X41.164 Y61.112 E1.03081
G1 X41.164 Y61.474 E.00989
G1 X78.836 Y61.474 E1.03081
G1 X78.836 Y61.835 E.00989
G1 X41.164 Y61.835 E1.03081
G1 X41.164 Y62.197 E.00989
G1 X78.836 Y62.197 E1.03081
G1 X78.836 Y62.558 E.00989
G1 X41.164 Y62.558 E1.03081
G1 X41.164 Y62.92 E.00989
G1 X44.745 Y62.919 E.09798
G3 X47.257 Y62.92 I1.255 J3.15 E.07043
G1 X72.745 Y62.919 E.6974
G3 X75.257 Y62.92 I1.255 J3.17 E.07041
G1 X78.836 Y62.92 E.09792
G1 X78.836 Y63.282 E.00989
G1 X75.928 Y63.282 E.07956
G3 X76.363 Y63.643 I-1.445 J2.179 E.0155
G1 X78.836 Y63.643 E.06767
G1 X78.836 Y64.005 E.00989
G1 X76.689 Y64.005 E.05873
G3 X76.93 Y64.367 I-5.456 J3.891 E.01189
G1 X78.836 Y64.367 E.05215
G1 X78.836 Y64.728 E.00989
G1 X77.111 Y64.728 E.0472
G3 X77.243 Y65.09 I-1.596 J.786 E.01055
G1 X78.836 Y65.09 E.0436
G1 X78.836 Y65.451 E.00989
G1 X77.33 Y65.451 E.0412
G3 X77.378 Y65.813 I-1.639 J.398 E.01
G1 X78.836 Y65.813 E.0399
G1 X78.836 Y66.175 E.00989
G1 X77.384 Y66.175 E.03972
G3 X77.355 Y66.536 I-1.557 J.056 E.00995
G1 X78.836 Y66.536 E.04052
G1 X78.836 Y66.898 E.00989
G1 X77.285 Y66.898 E.04245
G3 X77.171 Y67.26 I-1.719 J-.34 E.01039
G1 X78.836 Y67.26 E.04555
G1 X78.836 Y67.621 E.00989
G1 X77.011 Y67.621 E.04995
G3 X76.795 Y67.983 I-1.771 J-.812 E.01155
G1 X78.836 Y67.983 E.05586
G1 X78.836 Y68.344 E.00989
G1 X76.511 Y68.344 E.06361
G3 X76.128 Y68.706 I-2.933 J-2.725 E.01443
G1 X78.836 Y68.706 E.07409
G1 X78.836 Y69.068 E.00989
G1 X75.203 Y69.068 E.09941
G1 E-.65714 F1800
;WIPE_START
G1 F12600
G1 X76.203 Y69.068 E-.14286
;WIPE_END
G1 Z.6 F36000
G1 X72.377 Y63.282 Z.6
G1 Z.2
G1 E.8 F1800
G1 F12600
G1 X47.928 Y63.282 E.66898
G3 X48.363 Y63.643 I-1.445 J2.179 E.0155
G1 X71.637 Y63.643 E.63685
G2 X71.311 Y64.005 I1.499 J1.682 E.01336
G1 X48.689 Y64.005 E.61897
G3 X48.93 Y64.367 I-5.454 J3.89 E.01189
G1 X71.07 Y64.367 E.60581
G2 X70.889 Y64.728 I1.572 J1.012 E.01109
G1 X49.111 Y64.728 E.59591
G3 X49.241 Y65.09 I-1.737 J.83 E.01053
G1 X70.757 Y65.09 E.58874
G2 X70.67 Y65.451 I1.619 J.585 E.0102
G1 X49.33 Y65.451 E.5839
G3 X49.378 Y65.813 I-1.639 J.398 E.01
G1 X70.622 Y65.813 E.58132
G2 X70.614 Y66.175 I1.798 J.222 E.00991
G1 X49.386 Y66.175 E.58086
G3 X49.355 Y66.536 I-1.678 J.04 E.00995
G1 X70.645 Y66.536 E.58254
G2 X70.715 Y66.898 I1.698 J-.144 E.0101
G1 X49.283 Y66.898 E.58644
G3 X49.171 Y67.26 I-1.598 J-.296 E.01038
G1 X70.829 Y67.26 E.5926
G2 X70.989 Y67.621 I1.743 J-.559 E.01085
G1 X49.011 Y67.621 E.6014
G3 X48.795 Y67.983 I-1.77 J-.812 E.01155
G1 X71.205 Y67.983 E.61322
G2 X71.489 Y68.344 I1.804 J-1.122 E.01259
G1 X48.511 Y68.344 E.62872
G3 X48.128 Y68.706 I-2.934 J-2.725 E.01443
G1 X71.872 Y68.706 E.64969
G2 X72.414 Y69.068 I2.943 J-3.827 E.01785
G1 X47.203 Y69.068 E.68985
G1 E-.65714 F1800
;WIPE_START
G1 F12600
G1 X48.203 Y69.068 E-.14286
;WIPE_END
G1 Z.6 F36000
G1 X44.377 Y63.282 Z.6
G1 Z.2
G1 E.8 F1800
G1 F12600
G1 X41.164 Y63.282 E.08791
G1 X41.164 Y63.643 E.00989
G1 X43.637 Y63.643 E.06767
G2 X43.311 Y64.005 I1.5 J1.683 E.01336
G1 X41.164 Y64.005 E.05873
G1 X41.164 Y64.367 E.00989
G1 X43.07 Y64.367 E.05215
G2 X42.889 Y64.728 I1.572 J1.012 E.01109
G1 X41.164 Y64.728 E.0472
G1 X41.164 Y65.09 E.00989
G1 X42.757 Y65.09 E.0436
G2 X42.67 Y65.451 I1.619 J.585 E.0102
G1 X41.164 Y65.451 E.0412
G1 X41.164 Y65.813 E.00989
G1 X42.622 Y65.813 E.0399
G2 X42.614 Y66.175 I1.659 J.219 E.00992
G1 X41.164 Y66.175 E.03968
G1 X41.164 Y66.536 E.00989
G1 X42.645 Y66.536 E.04052
G2 X42.715 Y66.898 I1.698 J-.144 E.0101
G1 X41.164 Y66.898 E.04245
G1 X41.164 Y67.26 E.00989
G1 X42.829 Y67.26 E.04555
G2 X42.989 Y67.621 I1.743 J-.559 E.01085
G1 X41.164 Y67.621 E.04995
G1 X41.164 Y67.983 E.00989
G1 X43.205 Y67.983 E.05586
G2 X43.489 Y68.344 I1.804 J-1.122 E.01259
G1 X41.164 Y68.344 E.06361
G1 X41.164 Y68.706 E.00989
G1 X43.872 Y68.706 E.07409
G2 X44.414 Y69.068 I2.944 J-3.829 E.01785
G1 X41.164 Y69.068 E.08894
G1 X41.164 Y69.429 E.00989
G1 X78.836 Y69.429 E1.03081
G1 X78.836 Y69.791 E.00989
M73 P4 R9
G1 X41.164 Y69.791 E1.03081
G1 X41.164 Y70.153 E.00989
G1 X78.836 Y70.153 E1.03081
G1 X78.836 Y70.514 E.00989
G1 X41.164 Y70.514 E1.03081
G1 X41.164 Y70.876 E.00989
G1 X78.997 Y70.876 E1.0352
; stop printing object WAGO221-615-1  id:87 copy 0
EXCLUDE_OBJECT_END NAME=WAGO221_615_1_id_87_copy_0
;LAYER_CHANGE
;Z:0.4
;HEIGHT:0.2
;BEFORE_LAYER_CHANGE
;0.4
G92 E0

G1 E-.65714 F1800
;WIPE_START
G1 F12600
G1 X77.997 Y70.876 E-.14286
;WIPE_END
;AFTER_LAYER_CHANGE
;0.4
;_SET_FAN_SPEED_CHANGING_LAYER
SET_VELOCITY_LIMIT ACCEL=20000 ACCEL_TO_DECEL=20000
M104 S250 ; set nozzle temperature
M140 S102 ; set bed temperature
; printing object WAGO221-615-1  id:87 copy 0
EXCLUDE_OBJECT_START NAME=WAGO221_615_1_id_87_copy_0
SET_VELOCITY_LIMIT SQUARE_CORNER_VELOCITY=12
G1 Z.8 F36000
G1 X61.341 Y57.936 Z.8
G1 Z.4
G1 E.8 F1800
SET_VELOCITY_LIMIT ACCEL=15000 ACCEL_TO_DECEL=15000 SQUARE_CORNER_VELOCITY=9
;TYPE:Inner wall
;WIDTH:0.4
G1 F23081.008
G1 X61.265 Y57.99 E.00252
G3 X57.922 Y55.247 I-1.264 J-1.868 E.15624
G3 X59.878 Y53.869 I2.087 J.885 E.06808
G3 X61.46 Y57.842 I.124 J2.252 E.15197
G1 X61.373 Y57.911 E.003
SET_VELOCITY_LIMIT ACCEL=10000 ACCEL_TO_DECEL=10000
G1 X61.128 Y57.644 F36000
;TYPE:Outer wall
G1 F23081.008
G1 X61.066 Y57.695 E.00219
G3 X60.103 Y58.021 I-1.068 J-1.572 E.0278
G3 X59.897 Y54.226 I-.1 J-1.898 E.16115
G3 X61.378 Y57.429 I.1 J1.898 E.12224
G1 X61.159 Y57.618 E.00782
SET_VELOCITY_LIMIT ACCEL=20000 ACCEL_TO_DECEL=20000 SQUARE_CORNER_VELOCITY=12
G1 E-.72201 F1800
;WIPE_START
G1 F23081.008
G1 X61.066 Y57.695 E-.00943
G1 X60.703 Y57.889 E-.03203
G1 X60.508 Y57.955 E-.01605
G1 X60.249 Y57.997 E-.02047
;WIPE_END
G1 Z.8 F36000
G1 X41.45 Y48.376 Z.8
G1 Z.4
G1 E.8 F1800
SET_VELOCITY_LIMIT ACCEL=15000 ACCEL_TO_DECEL=15000 SQUARE_CORNER_VELOCITY=9
;TYPE:Inner wall
G1 F23081.008
G1 X78.907 Y48.376 E1.01206
G1 X78.907 Y53.107 E.12783
G1 X41.093 Y53.107 E1.0217
G1 X41.093 Y48.376 E.12783
G1 X41.41 Y48.376 E.00857
SET_VELOCITY_LIMIT ACCEL=10000 ACCEL_TO_DECEL=10000
G1 X41.45 Y48.733 F36000
;TYPE:Outer wall
G1 F23081.008
G1 X78.55 Y48.733 E1.00241
G1 X78.55 Y52.75 E.10853
G1 X41.45 Y52.75 E1.00241
G1 X41.45 Y48.773 E.10745
SET_VELOCITY_LIMIT ACCEL=20000 ACCEL_TO_DECEL=20000 SQUARE_CORNER_VELOCITY=12
G1 E-.72201 F1800
;WIPE_START
G1 F23081.008
G1 X42.45 Y48.772 E-.07799
;WIPE_END
G1 Z.8 F36000
G1 X76.925 Y65.559 Z.8
G1 Z.4
G1 E.8 F1800
