; HEADER_BLOCK_START
; generated by OrcaSlicer 2.3.2-rc2 on 2026-03-12 at 15:00:45
; total layer number: 71
; filament_density: 1.04
; filament_diameter: 1.75
; max_z_height: 14.20
; filament: 1
; HEADER_BLOCK_END

; THUMBNAIL_BLOCK_START

;
; THUMBNAIL_BLOCK_END

; THUMBNAIL_BLOCK_START

;
; THUMBNAIL_BLOCK_END

; external perimeters extrusion width = 0.40mm
; perimeters extrusion width = 0.40mm
; infill extrusion width = 0.40mm
; solid infill extrusion width = 0.40mm
; top infill extrusion width = 0.40mm
; first layer extrusion width = 0.40mm

; EXECUTABLE_BLOCK_START


; Pre-Processed for Cancel-Object support by preprocess_cancellation v0.2.0
; 1 known objects
EXCLUDE_OBJECT_DEFINE NAME=wago_221_5x_2_stl_id_3473455295613968440_copy_0 CENTER=58.806,64.384 POLYGON=[[18.902,25.198],[18.902,104.348],[98.052,104.348],[98.052,25.198]]
M73 P0 R20
;TYPE:Custom
PRINT_START EXTRUDER_TEMP=255 BED_TEMP=105
G90
G21
M83 ; use relative distances for extrusion
; Filament gcode
SET_PRESSURE_ADVANCE ADVANCE=0.04; Override pressure advance value
M106 S0
;LAYER_CHANGE
;Z:0.2
;HEIGHT:0.2
;BEFORE_LAYER_CHANGE
;0.2
G92 E0

G1 E-.8 F1800
;AFTER_LAYER_CHANGE
;0.2
;_SET_FAN_SPEED_CHANGING_LAYER
SET_VELOCITY_LIMIT ACCEL=10000 ACCEL_TO_DECEL=10000
SET_VELOCITY_LIMIT SQUARE_CORNER_VELOCITY=9
; printing object wago_221_5x_2.stl id:3473455295613968440 copy 0
EXCLUDE_OBJECT_START NAME=wago_221_5x_2_stl_id_3473455295613968440_copy_0
G1 Z.6 F36000
G1 X31.47 Y30.178
G1 Z.6
G1 Z.2
G1 E.8 F1800
;TYPE:Inner wall
;WIDTH:0.4
G1 F6000
G1 X31.56 Y30.16 E.00248
G1 X31.773 Y30.14 E.00579
G3 X31.132 Y30.245 I.187 J3.165 E.52074
G1 X31.43 Y30.186 E.00823
G1 X31.567 Y30.521 F36000
G1 F6000
G1 X31.605 Y30.515 E.00103
G1 X31.794 Y30.497 E.00513
G3 X31.416 Y30.545 I.166 J2.809 E.46738
G1 X31.528 Y30.527 E.00307
G1 X31.608 Y30.877 F36000
G1 F6000
G1 X31.65 Y30.869 E.00115
G1 X31.815 Y30.854 E.00448
G3 X31.318 Y30.935 I.145 J2.452 E.40341
G1 X31.569 Y30.885 E.00693
G1 X31.678 Y31.227 F36000
;TYPE:Outer wall
G1 F6000
G1 X31.695 Y31.223 E.00048
G1 X31.836 Y31.21 E.00383
G3 X31.411 Y31.28 I.124 J2.096 E.34475
G1 X31.639 Y31.235 E.00628
G1 E-.56 F1800
;WIPE_START
G1 F6000
G1 X31.695 Y31.223 E-.01382
G1 X31.836 Y31.21 E-.03404
G1 X32.261 Y31.228 E-.10199
G1 X32.625 Y31.319 E-.09014
;WIPE_END
G1 Z.6 F36000
G1 X41.936 Y29.948 Z.6
G1 Z.2
G1 E.8 F1800
;TYPE:Inner wall
G1 F6000
G1 X28.248 Y43.636 E.52302
G1 X21.631 Y37.019 E.25283
G1 X30.831 Y27.819 E.35152
G1 X39.808 Y27.819 E.24254
G1 X41.908 Y29.92 E.08025
G1 X42.441 Y29.948 F36000
G1 F6000
G1 X28.248 Y44.141 E.54232
G1 X21.126 Y37.019 E.27213
G1 X30.683 Y27.462 E.36517
G1 X39.955 Y27.462 E.25053
G1 X42.413 Y29.92 E.0939
G1 X42.946 Y29.948 F36000
G1 F6000
G1 X28.248 Y44.646 E.56161
G1 X20.621 Y37.019 E.29142
G1 X30.535 Y27.105 E.37881
G1 X40.103 Y27.105 E.25852
G1 X40.156 Y27.157 E.00199
G1 X42.918 Y29.92 E.10555
G1 X43.451 Y29.948 F36000
;TYPE:Outer wall
G1 F6000
G1 X28.248 Y45.151 E.58091
G1 X20.116 Y37.019 E.31072
G1 X30.387 Y26.748 E.39246
G1 X40.251 Y26.748 E.26652
G1 X40.408 Y26.905 E.00599
G1 X43.423 Y29.92 E.11519
G1 E-.56 F1800
;WIPE_START
G1 F6000
G1 X42.717 Y30.628 E-.24
;WIPE_END
G1 Z.6 F36000
G1 X39.927 Y28.09 Z.6
G1 Z.2
G1 E.8 F1800
;TYPE:Bottom surface
;WIDTH:0.40573
G1 F12600
G1 X30.939 Y28.09 E.24674
G1 X30.576 Y28.453 E.01409
G1 X40.062 Y28.453 E.26042
G1 X40.425 Y28.816 E.01409
G1 X30.213 Y28.816 E.28034
G1 X29.851 Y29.179 E.01409
G1 X40.788 Y29.179 E.30026
G1 X41.151 Y29.541 E.01409
G1 X29.488 Y29.541 E.32018
G1 X29.125 Y29.904 E.01409
G1 X41.514 Y29.904 E.3401
G1 X41.557 Y29.948 E.0017
G1 X41.238 Y30.267 E.01239
G1 X33.555 Y30.267 E.21092
G3 X34.119 Y30.63 I-1.043 J2.241 E.01847
G1 X40.875 Y30.63 E.18548
G1 X40.513 Y30.993 E.01409
G1 X34.502 Y30.993 E.16502
G3 X34.791 Y31.355 I-2.32 J2.147 E.01275
G1 X40.15 Y31.355 E.14712
G1 X39.787 Y31.718 E.01409
G1 X35.012 Y31.718 E.13109
G1 X35.171 Y32.081 E.01088
G1 X39.424 Y32.081 E.11675
G1 X39.061 Y32.444 E.01409
G1 X35.289 Y32.444 E.10357
G3 X35.357 Y32.807 I-1.748 J.515 E.01015
G1 X38.699 Y32.807 E.09175
G1 X38.336 Y33.17 E.01409
G1 X35.392 Y33.17 E.08081
G3 X35.392 Y33.532 I-1.783 J.183 E.00998
G1 X37.973 Y33.532 E.07084
G1 X37.61 Y33.895 E.01409
G1 X35.343 Y33.895 E.06224
G3 X35.265 Y34.258 I-1.821 J-.204 E.01021
G1 X37.247 Y34.258 E.05443
G1 X36.885 Y34.621 E.01409
G1 X35.139 Y34.621 E.04792
G3 X34.96 Y34.984 I-1.886 J-.705 E.01113
G1 X36.522 Y34.984 E.04287
G1 X36.159 Y35.346 E.01409
G1 X34.723 Y35.346 E.03941
G3 X34.414 Y35.709 I-1.492 J-.959 E.01313
G1 X35.796 Y35.709 E.03794
G1 X35.433 Y36.072 E.01409
G1 X33.709 Y36.072 E.04732
G1 E-.65714 F1800
;WIPE_START
G1 F12600
G1 X34.709 Y36.072 E-.14286
;WIPE_END
G1 Z.6 F36000
G1 X30.737 Y30.267 Z.6
G1 Z.2
G1 E.8 F1800
G1 F12600
G1 X28.762 Y30.267 E.05422
G1 X28.399 Y30.63 E.01409
G1 X29.803 Y30.63 E.03854
G2 X29.422 Y30.993 I1.143 J1.583 E.01449
G1 X28.037 Y30.993 E.03803
G1 X27.674 Y31.355 E.01409
G1 X29.13 Y31.355 E.03997
G2 X28.917 Y31.718 I1.678 J1.228 E.01157
G1 X27.311 Y31.718 E.04409
G1 X26.948 Y32.081 E.01409
G1 X28.746 Y32.081 E.04937
G2 X28.635 Y32.444 I1.716 J.726 E.01044
G1 X26.585 Y32.444 E.05627
G1 X26.222 Y32.807 E.01409
G1 X28.558 Y32.807 E.06413
G2 X28.53 Y33.17 I1.769 J.32 E.01001
G1 X25.86 Y33.17 E.07332
G1 X25.497 Y33.532 E.01409
G1 X28.532 Y33.532 E.08332
G1 X28.572 Y33.895 E.01002
G1 X25.134 Y33.895 E.09438
G1 X24.771 Y34.258 E.01409
G1 X28.661 Y34.258 E.10677
G2 X28.783 Y34.621 I1.845 J-.419 E.01053
G1 X24.408 Y34.621 E.12008
G1 X24.046 Y34.984 E.01409
G1 X28.965 Y34.984 E.13506
G2 X29.192 Y35.346 I1.896 J-.933 E.01177
G1 X23.683 Y35.346 E.15125
G1 X23.32 Y35.709 E.01409
G1 X29.509 Y35.709 E.16989
G2 X29.926 Y36.072 I1.543 J-1.354 E.01523
G1 X22.957 Y36.072 E.19131
G1 X22.594 Y36.435 E.01409
G1 X30.537 Y36.435 E.21806
G2 X33.391 Y36.435 I1.427 J-3.112 E.08082
G1 X35.07 Y36.435 E.0461
G1 X34.708 Y36.798 E.01409
G1 X22.232 Y36.798 E.3425
G1 X22.01 Y37.019 E.0086
G1 X22.152 Y37.16 E.00549
G1 X34.345 Y37.16 E.33474
G1 X33.982 Y37.523 E.01409
G1 X22.514 Y37.523 E.31482
G1 X22.877 Y37.886 E.01409
G1 X33.619 Y37.886 E.2949
G1 X33.256 Y38.249 E.01409
G1 X23.24 Y38.249 E.27498
G1 X23.603 Y38.612 E.01409
G1 X32.894 Y38.612 E.25506
G1 X32.531 Y38.974 E.01409
G1 X23.966 Y38.974 E.23514
G1 X24.328 Y39.337 E.01409
G1 X32.168 Y39.337 E.21522
G1 X31.805 Y39.7 E.01409
G1 X24.691 Y39.7 E.1953
G1 X25.054 Y40.063 E.01409
G1 X31.442 Y40.063 E.17538
G1 X31.08 Y40.426 E.01409
G1 X25.417 Y40.426 E.15546
G1 X25.78 Y40.789 E.01409
G1 X30.717 Y40.789 E.13554
G1 X30.354 Y41.151 E.01409
G1 X26.142 Y41.151 E.11562
G1 X26.505 Y41.514 E.01409
G1 X29.991 Y41.514 E.0957
G1 X29.628 Y41.877 E.01409
G1 X26.868 Y41.877 E.07578
G1 X27.231 Y42.24 E.01409
G1 X29.266 Y42.24 E.05586
G1 X28.903 Y42.603 E.01409
G1 X27.594 Y42.603 E.03594
G1 X27.957 Y42.965 E.01409
G1 X28.767 Y42.965 E.02225
G1 E-.65714 F1800
;WIPE_START
G1 F12600
G1 X27.957 Y42.965 E-.11581
G1 X27.823 Y42.831 E-.02705
;WIPE_END
G1 Z.6 F36000
G1 X48.031 Y42.253 Z.6
G1 Z.2
G1 E.8 F1800
;TYPE:Inner wall
;WIDTH:0.4
G1 F6000
G1 X48.023 Y42.212 E.00111
G3 X50.611 Y39.083 I2.675 J-.423 E.12405
G3 X52.602 Y39.867 I.079 J2.719 E.05943
G1 X59.689 Y46.954 E.27079
G3 X55.861 Y50.782 I-1.926 J1.903 E.22892
G1 X48.774 Y43.695 E.27079
G3 X48.097 Y42.545 I1.924 J-1.906 E.03644
G1 X48.04 Y42.292 E.00701
G1 X48.379 Y42.175 F36000
;TYPE:Outer wall
G1 F6000
G1 X48.376 Y42.156 E.00051
G3 X50.622 Y39.44 I2.322 J-.367 E.10769
G3 X52.354 Y40.123 I.069 J2.361 E.0517
G1 X59.432 Y47.202 E.27049
G3 X56.109 Y50.526 I-1.669 J1.655 E.19894
G1 X49.03 Y43.447 E.27049
G3 X48.44 Y42.445 I1.667 J-1.657 E.03175
G1 X48.388 Y42.214 E.0064
G1 E-.56 F1800
;WIPE_START
G1 F6000
G1 X48.376 Y42.156 E-.01409
G1 X48.347 Y41.863 E-.07082
G1 X48.375 Y41.421 E-.10616
G1 X48.419 Y41.222 E-.04893
;WIPE_END
G1 Z.6 F36000
G1 X47.335 Y42.408 Z.6
G1 Z.2
G1 E.8 F1800
;TYPE:Inner wall
G1 F6000
G1 X47.412 Y42.744 E.00932
G2 X48.261 Y44.192 I3.291 J-.956 E.04581
G1 X55.112 Y51.043 E.26179
G2 X60.034 Y51.423 I2.649 J-2.246 E.14836
G2 X61.194 Y48.853 I-2.309 J-2.589 E.07847
G1 X65.978 Y53.636 E.18277
G1 X52.29 Y67.324 E.52302
G1 X32.238 Y47.272 E.76619
G1 X45.926 Y33.584 E.52302
G1 X50.703 Y38.361 E.18254
G2 X47.318 Y42.324 I0 J3.427 E.15997
G1 X47.327 Y42.369 E.00125
G1 X47.677 Y42.279 F36000
G1 F6000
G1 X47.709 Y42.457 E.00487
G2 X48.517 Y43.944 I2.993 J-.664 E.04634
G1 X55.364 Y50.791 E.26164
G2 X58.805 Y51.744 I2.416 J-2.035 E.10251
G2 X60.738 Y48.114 I-1.057 J-2.892 E.12165
G1 X60.88 Y48.033 E.00442
G1 X66.483 Y53.636 E.21408
G1 X52.29 Y67.829 E.54232
G1 X31.733 Y47.272 E.78549
G1 X45.926 Y33.079 E.54232
G1 X51.522 Y38.676 E.21385
G1 X51.441 Y38.818 E.00442
G2 X47.649 Y42.077 I-.74 J2.975 E.15799
G1 X47.671 Y42.24 E.00443
G1 E-.56 F1800
;WIPE_START
G1 F6000
G1 X47.709 Y42.457 E-.05288
G1 X47.753 Y42.645 E-.04645
G1 X47.883 Y43.006 E-.0921
G1 X47.965 Y43.18 E-.0462
G1 X47.97 Y43.189 E-.00237
;WIPE_END
G1 Z.6 F36000
G1 X45.926 Y32.574 Z.6
G1 Z.2
G1 E.8 F1800
G1 F6000
G1 X66.988 Y53.636 E.80479
G1 X52.29 Y68.334 E.56161
G1 X31.228 Y47.272 E.80479
G1 X45.898 Y32.603 E.56053
M73 P1 R20
G1 X45.926 Y32.069 F36000
;TYPE:Outer wall
G1 F6000
G1 X67.493 Y53.636 E.82408
G1 X52.29 Y68.839 E.58091
G1 X30.723 Y47.272 E.82408
G1 X45.898 Y32.098 E.57983
G1 E-.56 F1800
;WIPE_START
G1 F6000
G1 X46.606 Y32.804 E-.24
;WIPE_END
G1 Z.6 F36000
G1 X46.441 Y34.251 Z.6
G1 Z.2
G1 E.8 F1800
;TYPE:Bottom surface
;WIDTH:0.402997
G1 F12600
G1 X45.638 Y34.251 E.02187
G1 X45.278 Y34.611 E.01387
G1 X46.574 Y34.611 E.0353
G1 X46.934 Y34.971 E.01387
G1 X44.918 Y34.971 E.05492
G1 X44.558 Y35.331 E.01387
G1 X47.294 Y35.331 E.07454
G1 X47.654 Y35.691 E.01387
G1 X44.198 Y35.691 E.09416
G1 X43.838 Y36.051 E.01387
G1 X48.014 Y36.051 E.11378
G1 X48.374 Y36.411 E.01387
G1 X43.478 Y36.411 E.1334
G1 X43.118 Y36.771 E.01387
G1 X48.734 Y36.771 E.15302
G1 X49.094 Y37.131 E.01387
G1 X42.758 Y37.131 E.17265
G1 X42.398 Y37.491 E.01387
G1 X49.454 Y37.491 E.19227
G1 X49.814 Y37.851 E.01387
G1 X42.037 Y37.851 E.21189
G1 X41.677 Y38.211 E.01387
G1 X49.808 Y38.211 E.22154
G2 X48.901 Y38.572 I.979 J3.792 E.02667
G1 X41.317 Y38.572 E.20663
G1 X40.957 Y38.932 E.01387
G1 X48.37 Y38.932 E.20198
G2 X47.985 Y39.292 I1.231 J1.706 E.01442
G1 X40.597 Y39.292 E.20128
G1 X40.237 Y39.652 E.01387
G1 X47.692 Y39.652 E.20313
G2 X47.468 Y40.012 I1.316 J1.071 E.01159
G1 X39.877 Y40.012 E.20682
G1 X39.517 Y40.372 E.01387
G1 X47.296 Y40.372 E.21195
G2 X47.168 Y40.732 I1.361 J.688 E.01044
G1 X39.157 Y40.732 E.21826
G1 X38.797 Y41.092 E.01387
G1 X47.077 Y41.092 E.22561
G2 X47.022 Y41.452 I1.398 J.401 E.00995
G1 X38.437 Y41.452 E.2339
G1 X38.077 Y41.812 E.01387
G1 X47.01 Y41.812 E.24341
G2 X47.033 Y42.172 I1.436 J.091 E.00986
G1 X37.717 Y42.172 E.25383
G1 X37.356 Y42.532 E.01387
G1 X47.088 Y42.532 E.26515
G2 X47.177 Y42.892 I1.911 J-.279 E.01012
G1 X36.996 Y42.892 E.27737
G1 X36.636 Y43.253 E.01387
G1 X47.316 Y43.253 E.29098
G2 X47.49 Y43.613 I1.999 J-.743 E.01091
G1 X36.276 Y43.613 E.30552
G1 X35.916 Y43.973 E.01387
G1 X47.727 Y43.973 E.32179
G2 X48.028 Y44.333 I1.596 J-1.027 E.01282
G1 X35.556 Y44.333 E.3398
G1 X35.196 Y44.693 E.01387
G1 X48.383 Y44.693 E.35928
G1 X48.743 Y45.053 E.01387
G1 X34.836 Y45.053 E.3789
G1 X34.476 Y45.413 E.01387
G1 X49.103 Y45.413 E.39852
G1 X49.463 Y45.773 E.01387
G1 X34.116 Y45.773 E.41815
G1 X33.756 Y46.133 E.01387
G1 X49.823 Y46.133 E.43777
G1 X50.183 Y46.493 E.01387
G1 X33.396 Y46.493 E.45739
G1 X33.036 Y46.853 E.01387
G1 X50.543 Y46.853 E.47701
G1 X50.903 Y47.213 E.01387
G1 X32.675 Y47.213 E.49663
G1 X32.617 Y47.272 E.00226
G1 X32.918 Y47.573 E.01161
G1 X51.263 Y47.573 E.49983
G1 X51.623 Y47.934 E.01387
G1 X33.278 Y47.934 E.49983
G1 X33.638 Y48.294 E.01387
G1 X51.983 Y48.294 E.49983
G1 X52.343 Y48.654 E.01387
G1 X33.998 Y48.654 E.49983
G1 X34.358 Y49.014 E.01387
G1 X52.704 Y49.014 E.49983
G1 X53.064 Y49.374 E.01387
G1 X34.719 Y49.374 E.49983
G1 X35.079 Y49.734 E.01387
G1 X53.424 Y49.734 E.49983
G1 X53.784 Y50.094 E.01387
G1 X35.439 Y50.094 E.49983
G1 X35.799 Y50.454 E.01387
G1 X54.144 Y50.454 E.49983
G1 X54.504 Y50.814 E.01387
G1 X36.159 Y50.814 E.49983
G1 X36.519 Y51.174 E.01387
G1 X54.864 Y51.174 E.49983
G2 X55.231 Y51.534 I16.504 J-16.444 E.014
G1 X36.879 Y51.534 E.50001
G1 X37.239 Y51.894 E.01387
G1 X55.978 Y51.894 E.51056
G1 E-.65714 F1800
;WIPE_START
G1 F12600
G1 X54.978 Y51.894 E-.14286
;WIPE_END
G1 Z.6 F36000
G1 X61.181 Y49.734 Z.6
G1 Z.2
G1 E.8 F1800
G1 F12600
G1 X61.697 Y49.734 E.01406
G1 X62.057 Y50.094 E.01387
G1 X61.237 Y50.094 E.02234
G3 X61.093 Y50.454 I-1.974 J-.582 E.01058
G1 X62.417 Y50.454 E.03608
G1 X62.777 Y50.814 E.01387
G1 X60.89 Y50.814 E.05141
G3 X60.633 Y51.174 I-1.551 J-.837 E.01209
G1 X63.137 Y51.174 E.06823
G1 X63.497 Y51.534 E.01387
G1 X60.303 Y51.534 E.08704
G3 X59.854 Y51.894 I-1.647 J-1.592 E.01571
G1 X63.857 Y51.894 E.10907
G1 X64.217 Y52.254 E.01387
G1 X59.212 Y52.254 E.13638
G3 X56.322 Y52.254 I-1.445 J-3.481 E.0808
G1 X37.599 Y52.254 E.51013
G1 X37.959 Y52.615 E.01387
G1 X64.577 Y52.615 E.72524
G1 X64.938 Y52.975 E.01387
G1 X38.319 Y52.975 E.72524
G1 X38.679 Y53.335 E.01387
G1 X65.298 Y53.335 E.72524
G1 X65.599 Y53.636 E.01161
G1 X65.54 Y53.695 E.00226
G1 X39.039 Y53.695 E.72204
G1 X39.4 Y54.055 E.01387
G1 X65.18 Y54.055 E.70241
G1 X64.82 Y54.415 E.01387
G1 X39.76 Y54.415 E.68279
G1 X40.12 Y54.775 E.01387
G1 X64.46 Y54.775 E.66317
G1 X64.1 Y55.135 E.01387
G1 X40.48 Y55.135 E.64355
G1 X40.84 Y55.495 E.01387
G1 X63.74 Y55.495 E.62393
G1 X63.38 Y55.855 E.01387
G1 X41.2 Y55.855 E.60431
G1 X41.56 Y56.215 E.01387
G1 X63.02 Y56.215 E.58469
G1 X62.66 Y56.575 E.01387
G1 X41.92 Y56.575 E.56507
G1 X42.28 Y56.935 E.01387
G1 X62.3 Y56.935 E.54544
G1 X61.939 Y57.296 E.01387
G1 X42.64 Y57.296 E.52582
G1 X43 Y57.656 E.01387
G1 X61.579 Y57.656 E.5062
G1 X61.219 Y58.016 E.01387
G1 X43.36 Y58.016 E.48658
G1 X43.72 Y58.376 E.01387
G1 X60.859 Y58.376 E.46696
G1 X60.499 Y58.736 E.01387
G1 X44.081 Y58.736 E.44734
G1 X44.441 Y59.096 E.01387
G1 X60.139 Y59.096 E.42772
G1 X59.779 Y59.456 E.01387
G1 X44.801 Y59.456 E.4081
G1 X45.161 Y59.816 E.01387
G1 X59.419 Y59.816 E.38847
G1 X59.059 Y60.176 E.01387
G1 X45.521 Y60.176 E.36885
G1 X45.881 Y60.536 E.01387
G1 X58.699 Y60.536 E.34923
G1 X58.339 Y60.896 E.01387
G1 X46.241 Y60.896 E.32961
G1 X46.601 Y61.256 E.01387
G1 X57.979 Y61.256 E.30999
G1 X57.619 Y61.616 E.01387
G1 X46.961 Y61.616 E.29037
G1 X47.321 Y61.977 E.01387
G1 X57.258 Y61.977 E.27075
G1 X56.898 Y62.337 E.01387
G1 X47.681 Y62.337 E.25113
G1 X48.041 Y62.697 E.01387
G1 X56.538 Y62.697 E.2315
G1 X56.178 Y63.057 E.01387
G1 X48.401 Y63.057 E.21188
G1 X48.762 Y63.417 E.01387
G1 X55.818 Y63.417 E.19226
G1 X55.458 Y63.777 E.01387
G1 X49.122 Y63.777 E.17264
G1 X49.482 Y64.137 E.01387
G1 X55.098 Y64.137 E.15302
G1 X54.738 Y64.497 E.01387
G1 X49.842 Y64.497 E.1334
G1 X50.202 Y64.857 E.01387
G1 X54.378 Y64.857 E.11378
G1 X54.018 Y65.217 E.01387
G1 X50.562 Y65.217 E.09416
G1 X50.922 Y65.577 E.01387
G1 X53.658 Y65.577 E.07453
G1 X53.298 Y65.937 E.01387
G1 X51.282 Y65.937 E.05491
G1 X51.642 Y66.297 E.01387
G1 X52.938 Y66.297 E.03529
G1 X52.577 Y66.658 E.01387
G1 X51.775 Y66.658 E.02186
G1 E-.65714 F1800
;WIPE_START
G1 F12600
G1 X52.577 Y66.658 E-.11463
G1 X52.717 Y66.518 E-.02823
;WIPE_END
G1 Z.6 F36000
G1 X60.726 Y47.916 Z.6
G1 Z.2
G1 E.8 F1800
;TYPE:Gap infill
;WIDTH:0.334213
G1 F6000
G1 X60.547 Y47.652 E.00703
;WIDTH:0.316649
G1 X60.494 Y47.577 E.00191
;WIDTH:0.283787
G1 X60.437 Y47.496 E.00181
;WIDTH:0.254047
G1 X60.382 Y47.423 E.00146
;WIDTH:0.227482
G1 X60.323 Y47.345 E.00135
;WIDTH:0.19351
G1 X60.207 Y47.2 E.00213
;WIDTH:0.14713
G1 X59.962 Y46.923 E.00291
;WIDTH:0.122032
G1 X52.491 Y39.464 E.0632
;WIDTH:0.159626
G1 X52.353 Y39.347 E.0016
;WIDTH:0.194566
G1 X52.206 Y39.229 E.00216
;WIDTH:0.228247
G1 X52.133 Y39.174 E.00128
;WIDTH:0.255067
G1 X52.054 Y39.115 E.00159
;WIDTH:0.285016
G1 X51.979 Y39.062 E.00169
;WIDTH:0.325392
G2 X51.64 Y38.83 I-7.566 J10.686 E.00878
G1 E-.67678 F1800
;WIPE_START
G1 F6000
G1 X51.979 Y39.062 E-.12322
;WIPE_END
G1 Z.6 F36000
G1 X83.64 Y70.956 Z.6
G1 Z.2
G1 E.8 F1800
;TYPE:Inner wall
;WIDTH:0.4
