; HEADER_BLOCK_START
; generated by OrcaSlicer 2.3.2-rc2 on 2026-03-06 at 21:15:02
; total layer number: 71
; filament_density: 1.04
; filament_diameter: 1.75
; max_z_height: 14.20
; filament: 1
; HEADER_BLOCK_END

; THUMBNAIL_BLOCK_START

;
; THUMBNAIL_BLOCK_END

; THUMBNAIL_BLOCK_START

;
; THUMBNAIL_BLOCK_END

; external perimeters extrusion width = 0.40mm
; perimeters extrusion width = 0.40mm
; infill extrusion width = 0.40mm
; solid infill extrusion width = 0.40mm
; top infill extrusion width = 0.40mm
; first layer extrusion width = 0.40mm

; EXECUTABLE_BLOCK_START


; Pre-Processed for Cancel-Object support by preprocess_cancellation v0.2.0
; 1 known objects
EXCLUDE_OBJECT_DEFINE NAME=wago_221_3x_2_stl_id_0_copy_0 CENTER=56.394,59.720 POLYGON=[[47.95,22.7],[47.95,97.3],[72.05,97.3],[72.05,22.7]]
M73 P0 R14
;TYPE:Custom
PRINT_START EXTRUDER_TEMP=255 BED_TEMP=105
G90
G21
M83 ; use relative distances for extrusion
; Filament gcode
SET_PRESSURE_ADVANCE ADVANCE=0.04; Override pressure advance value
M106 S0
;LAYER_CHANGE
;Z:0.2
;HEIGHT:0.2
;BEFORE_LAYER_CHANGE
;0.2
G92 E0

G1 E-.8 F1800
;AFTER_LAYER_CHANGE
;0.2
;_SET_FAN_SPEED_CHANGING_LAYER
SET_VELOCITY_LIMIT ACCEL=10000 ACCEL_TO_DECEL=10000
SET_VELOCITY_LIMIT SQUARE_CORNER_VELOCITY=9
; printing object wago_221_3x_2.stl id:0 copy 0
EXCLUDE_OBJECT_START NAME=wago_221_3x_2_stl_id_0_copy_0
G1 Z.6 F36000
G1 X62.179 Y91.775
G1 Z.6
G1 Z.2
G1 E.8 F1800
;TYPE:Inner wall
;WIDTH:0.4
G1 F6000
G1 X62.132 Y91.83 E.00195
G3 X59.574 Y87.218 I-2.132 J-1.833 E.29248
G1 X59.763 Y87.195 E.00514
G3 X62.359 Y91.526 I.237 J2.802 E.16943
G1 X62.202 Y91.743 E.00722
G1 X61.901 Y91.548 F36000
G1 F6000
G1 X61.861 Y91.598 E.00171
G3 X59.628 Y87.571 I-1.861 J-1.6 E.25535
G1 X59.793 Y87.551 E.00449
G3 X62.145 Y91.19 I.207 J2.446 E.14345
G1 X61.924 Y91.515 E.01062
G1 X61.609 Y91.345 F36000
;TYPE:Outer wall
G1 F6000
G1 X61.59 Y91.365 E.00074
G3 X59.682 Y87.924 I-1.591 J-1.368 E.21823
G1 X59.823 Y87.907 E.00383
G3 X61.833 Y91.017 I.177 J2.09 E.12259
G1 X61.632 Y91.312 E.00964
G1 E-.56 F1800
;WIPE_START
G1 F6000
G1 X61.59 Y91.365 E-.01615
G1 X61.395 Y91.57 E-.068
G1 X61.05 Y91.819 E-.10199
G1 X60.845 Y91.911 E-.05386
;WIPE_END
G1 Z.6 F36000
G1 X49.714 Y84.964 Z.6
G1 Z.2
G1 E.8 F1800
;TYPE:Inner wall
G1 F6000
G1 X69.786 Y84.964 E.54232
G1 X69.786 Y88.479 E.09498
G1 X63.229 Y95.036 E.25053
G1 X49.714 Y95.036 E.36517
G1 X49.714 Y85.004 E.27105
G1 X49.357 Y84.607 F36000
G1 F6000
G1 X70.143 Y84.607 E.56161
G1 X70.143 Y88.627 E.10862
G1 X63.377 Y95.393 E.25852
G1 X49.357 Y95.393 E.37881
G1 X49.357 Y84.647 E.29034
G1 X49 Y84.25 F36000
;TYPE:Outer wall
G1 F6000
G1 X70.5 Y84.25 E.58091
G1 X70.5 Y88.775 E.12226
G1 X63.525 Y95.75 E.26652
G1 X49 Y95.75 E.39246
G1 X49 Y84.29 E.30964
G1 E-.56 F1800
;WIPE_START
G1 F6000
G1 X50 Y84.288 E-.24
;WIPE_END
G1 Z.6 F36000
G1 X69.679 Y85.237 Z.6
G1 Z.2
G1 E.8 F1800
;TYPE:Bottom surface
;WIDTH:0.409333
G1 F12600
G1 X49.982 Y85.237 E.5461
G1 X49.982 Y85.603 E.01016
G1 X69.518 Y85.603 E.54164
G1 X69.518 Y85.97 E.01016
G1 X49.982 Y85.97 E.54164
G1 X49.982 Y86.336 E.01016
G1 X69.518 Y86.336 E.54164
G1 X69.518 Y86.702 E.01016
G1 X49.982 Y86.702 E.54164
G1 X49.982 Y87.069 E.01016
G1 X69.518 Y87.069 E.54164
G1 X69.518 Y87.435 E.01016
G1 X61.71 Y87.435 E.21649
G3 X62.159 Y87.802 I-3.353 J4.573 E.01609
G1 X69.518 Y87.802 E.20403
G1 X69.518 Y88.168 E.01016
G1 X62.479 Y88.168 E.19517
G3 X62.711 Y88.534 I-1.685 J1.326 E.01205
G1 X69.352 Y88.534 E.18413
G1 X68.986 Y88.901 E.01437
G1 X62.873 Y88.901 E.16947
G3 X62.988 Y89.267 I-1.29 J.604 E.01068
G1 X68.619 Y89.267 E.15614
G1 X68.253 Y89.634 E.01437
G1 X63.059 Y89.634 E.14399
G3 X63.078 Y90 I-1.793 J.274 E.01019
G1 X67.886 Y90 E.13332
G1 X67.52 Y90.366 E.01437
G1 X63.058 Y90.366 E.12371
G3 X62.994 Y90.733 I-1.825 J-.131 E.01033
G1 X67.154 Y90.733 E.11533
G1 X66.787 Y91.099 E.01437
G1 X62.873 Y91.099 E.10852
G3 X62.711 Y91.466 I-1.883 J-.614 E.01113
G1 X66.421 Y91.466 E.10286
G1 X66.054 Y91.832 E.01437
G1 X62.471 Y91.832 E.09935
G3 X62.157 Y92.199 I-1.988 J-1.387 E.0134
G1 X65.688 Y92.199 E.0979
G1 X65.321 Y92.565 E.01437
G1 X61.388 Y92.565 E.10905
G1 E-.65714 F1800
;WIPE_START
G1 F12600
G1 X62.388 Y92.565 E-.14286
;WIPE_END
G1 Z.6 F36000
G1 X58.603 Y87.435 Z.6
G1 Z.2
G1 E.8 F1800
G1 F12600
G1 X49.982 Y87.435 E.23903
G1 X49.982 Y87.802 E.01016
G1 X57.848 Y87.802 E.21808
G2 X57.527 Y88.168 I1.478 J1.616 E.01352
G1 X49.982 Y88.168 E.2092
G1 X49.982 Y88.534 E.01016
G1 X57.294 Y88.534 E.20274
G2 X57.122 Y88.901 I1.723 J1.036 E.01125
G1 X49.982 Y88.901 E.19795
G1 X49.982 Y89.267 E.01016
G1 X57.011 Y89.267 E.19488
G2 X56.942 Y89.634 I2.232 J.612 E.01035
G1 X49.982 Y89.634 E.19296
G1 X49.982 Y90 E.01016
G1 X56.917 Y90 E.19228
G2 X56.94 Y90.366 I2.721 J.012 E.01019
G1 X49.982 Y90.366 E.19293
G1 X49.982 Y90.733 E.01016
G1 X57.01 Y90.733 E.19486
G2 X57.126 Y91.099 I1.405 J-.242 E.01068
G1 X49.982 Y91.099 E.19806
G1 X49.982 Y91.466 E.01016
G1 X57.292 Y91.466 E.20267
G2 X57.523 Y91.832 I1.926 J-.959 E.01203
G1 X49.982 Y91.832 E.20908
G1 X49.982 Y92.199 E.01016
G1 X57.843 Y92.199 E.21794
G2 X58.298 Y92.565 I1.961 J-1.969 E.01623
G1 X49.982 Y92.565 E.23055
G1 X49.982 Y92.931 E.01016
G1 X64.955 Y92.931 E.41513
G1 X64.589 Y93.298 E.01437
G1 X49.982 Y93.298 E.40498
G1 X49.982 Y93.664 E.01016
G1 X64.222 Y93.664 E.39482
G1 X63.856 Y94.031 E.01437
G1 X49.982 Y94.031 E.38466
G1 X49.982 Y94.397 E.01016
G1 X63.489 Y94.397 E.3745
G1 X63.123 Y94.763 E.01437
G1 X49.821 Y94.763 E.36879
G1 E-.65714 F1800
;WIPE_START
G1 F12600
G1 X50.821 Y94.763 E-.14286
;WIPE_END
G1 Z.6 F36000
G1 X69.94 Y76.518 Z.6
G1 Z.2
G1 E.8 F1800
;TYPE:Inner wall
;WIDTH:0.4
G1 F6000
G1 X69.935 Y76.585 E.00182
G3 X64.543 Y76.258 I-2.685 J-.344 E.22001
G1 X64.543 Y66.235 E.27081
G3 X67.08 Y63.544 I2.721 J.024 E.10987
G3 X69.957 Y66.234 I.158 J2.714 E.11903
G1 X69.957 Y76.257 E.27081
G1 X69.943 Y76.478 E.00598
G1 X69.585 Y76.495 F36000
;TYPE:Outer wall
G1 F6000
G1 X69.581 Y76.54 E.00123
G3 X64.9 Y76.252 I-2.331 J-.299 E.1911
G1 X64.9 Y66.24 E.2705
G3 X67.102 Y63.9 I2.362 J.017 E.09548
G3 X69.6 Y66.24 I.138 J2.356 E.10344
G1 X69.6 Y76.251 E.2705
G1 X69.587 Y76.455 E.00552
G1 E-.56 F1800
;WIPE_START
G1 F6000
G1 X69.581 Y76.54 E-.0205
G1 X69.526 Y76.83 E-.07082
G1 X69.376 Y77.246 E-.10616
G1 X69.286 Y77.399 E-.04252
;WIPE_END
G1 Z.6 F36000
G1 X69.878 Y77.819 Z.6
G1 Z.2
G1 E.8 F1800
;TYPE:Inner wall
G1 F6000
G1 X70.036 Y77.862 E.00442
G1 X70.036 Y80.286 E.06548
G1 X49.964 Y80.286 E.54232
G1 X49.964 Y62.214 E.48828
G1 X70.036 Y62.216 E.54232
G1 X70.036 Y64.629 E.0652
M73 P1 R14
G1 X69.878 Y64.672 E.00442
G2 X64.186 Y66.229 I-2.627 J1.58 E.21472
G1 X64.186 Y76.263 E.27112
G2 X69.857 Y77.853 I3.065 J-.025 E.21361
G1 E-.56 F1800
;WIPE_START
G1 F6000
G1 X70.036 Y77.862 E-.0429
G1 X70.036 Y78.684 E-.1971
;WIPE_END
G1 Z.6 F36000
G1 X49.607 Y61.857 Z.6
G1 Z.2
G1 E.8 F1800
G1 F6000
G1 X70.393 Y61.859 E.56161
G1 X70.393 Y80.643 E.50753
G1 X49.607 Y80.643 E.56161
G1 X49.607 Y61.897 E.50649
G1 X49.25 Y61.5 F36000
;TYPE:Outer wall
G1 F6000
G1 X70.75 Y61.502 E.58091
G1 X70.75 Y81 E.52682
G1 X49.25 Y81 E.58091
G1 X49.25 Y61.54 E.52579
G1 E-.56 F1800
;WIPE_START
G1 F6000
G1 X50.25 Y61.538 E-.24
;WIPE_END
G1 Z.6 F36000
G1 X50.071 Y62.482 Z.6
G1 Z.2
G1 E.8 F1800
;TYPE:Bottom surface
;WIDTH:0.400781
G1 F12600
G1 X69.768 Y62.484 E.53335
G1 X69.768 Y62.84 E.00966
G1 X50.232 Y62.84 E.529
G1 X50.232 Y63.198 E.00969
G1 X65.905 Y63.198 E.4244
G3 X68.586 Y63.198 I1.341 J3.081 E.07468
G1 X69.768 Y63.198 E.032
G1 X69.768 Y63.556 E.00969
G1 X69.217 Y63.556 E.01491
G3 X69.626 Y63.914 I-1.689 J2.343 E.01474
G1 X69.929 Y63.914 E.00819
G1 E-.65714 F1800
;WIPE_START
G1 F12600
G1 X69.626 Y63.914 E-.04321
G1 X69.217 Y63.556 E-.07763
G1 X69.371 Y63.556 E-.02201
;WIPE_END
G1 Z.6 F36000
G1 X65.571 Y63.556 Z.6
G1 Z.2
G1 E.8 F1800
G1 F12600
G1 X50.232 Y63.556 E.41536
G1 X50.232 Y63.914 E.00969
G1 X64.874 Y63.914 E.39647
G2 X64.573 Y64.272 I1.703 J1.738 E.01268
G1 X50.232 Y64.272 E.38832
G1 X50.232 Y64.63 E.00969
G1 X64.348 Y64.63 E.38224
G1 X64.166 Y64.988 E.01087
G1 X50.232 Y64.988 E.37731
G1 X50.232 Y65.345 E.00969
G1 X64.047 Y65.345 E.37408
G2 X63.967 Y65.703 I1.104 J.432 E.00997
G1 X50.232 Y65.703 E.37193
G1 X50.232 Y66.061 E.00969
G1 X63.933 Y66.061 E.371
G2 X63.918 Y66.419 I1.848 J.256 E.00971
G1 X50.232 Y66.419 E.37059
G1 X50.232 Y66.777 E.00969
G1 X63.918 Y66.777 E.37059
G1 X63.918 Y67.135 E.00969
G1 X50.232 Y67.135 E.37059
G1 X50.232 Y67.493 E.00969
G1 X63.918 Y67.493 E.37059
G1 X63.918 Y67.85 E.00969
G1 X50.232 Y67.85 E.37059
G1 X50.232 Y68.208 E.00969
G1 X63.918 Y68.208 E.37059
G1 X63.918 Y68.566 E.00969
G1 X50.232 Y68.566 E.37059
G1 X50.232 Y68.924 E.00969
G1 X63.918 Y68.924 E.37059
G1 X63.918 Y69.282 E.00969
G1 X50.232 Y69.282 E.37059
G1 X50.232 Y69.64 E.00969
G1 X63.918 Y69.64 E.37059
G1 X63.918 Y69.998 E.00969
G1 X50.232 Y69.998 E.37059
G1 X50.232 Y70.355 E.00969
G1 X63.918 Y70.355 E.37059
G1 X63.918 Y70.713 E.00969
G1 X50.232 Y70.713 E.37059
G1 X50.232 Y71.071 E.00969
G1 X63.918 Y71.071 E.37059
G1 X63.918 Y71.429 E.00969
G1 X50.232 Y71.429 E.37059
G1 X50.232 Y71.787 E.00969
G1 X63.918 Y71.787 E.37059
G1 X63.918 Y72.145 E.00969
G1 X50.232 Y72.145 E.37059
G1 X50.232 Y72.503 E.00969
G1 X63.918 Y72.503 E.37059
G1 X63.918 Y72.86 E.00969
G1 X50.232 Y72.86 E.37059
G1 X50.232 Y73.218 E.00969
G1 X63.918 Y73.218 E.37059
G1 X63.918 Y73.576 E.00969
G1 X50.232 Y73.576 E.37059
G1 X50.232 Y73.934 E.00969
G1 X63.918 Y73.934 E.37059
G1 X63.918 Y74.292 E.00969
G1 X50.232 Y74.292 E.37059
G1 X50.232 Y74.65 E.00969
G1 X63.918 Y74.65 E.37059
G1 X63.918 Y75.008 E.00969
G1 X50.232 Y75.008 E.37059
G1 X50.232 Y75.365 E.00969
G1 X63.918 Y75.365 E.37059
G1 X63.918 Y75.723 E.00969
G1 X50.232 Y75.723 E.37059
G1 X50.232 Y76.081 E.00969
G1 X63.918 Y76.081 E.37059
G2 X63.934 Y76.439 I1.86 J.098 E.00971
G1 X50.232 Y76.439 E.37102
G1 X50.232 Y76.797 E.00969
G1 X63.968 Y76.797 E.37196
G2 X64.049 Y77.155 I1.185 J-.079 E.00997
G1 X50.232 Y77.155 E.37414
G1 X50.232 Y77.513 E.00969
G1 X64.17 Y77.513 E.37741
G2 X64.341 Y77.87 I1.985 J-.73 E.01076
G1 X50.232 Y77.87 E.38205
G1 X50.232 Y78.228 E.00969
G1 X64.579 Y78.228 E.38849
G2 X64.885 Y78.586 I1.572 J-1.035 E.01278
G1 X50.232 Y78.586 E.39677
G1 X50.232 Y78.944 E.00969
G1 X65.594 Y78.944 E.41597
G1 E-.65714 F1800
;WIPE_START
G1 F12600
G1 X64.594 Y78.944 E-.14286
;WIPE_END
G1 Z.6 F36000
G1 X69.929 Y78.586 Z.6
G1 Z.2
G1 E.8 F1800
G1 F12600
G1 X69.615 Y78.586 E.00848
G3 X69.206 Y78.944 I-3.915 J-4.065 E.01473
G1 X69.768 Y78.944 E.01522
G1 X69.768 Y79.302 E.00969
G1 X68.567 Y79.302 E.03252
G3 X65.933 Y79.302 I-1.317 J-3.075 E.07331
G1 X50.232 Y79.302 E.42516
G1 X50.232 Y79.66 E.00969
G1 X69.768 Y79.66 E.529
G1 X69.768 Y80.018 E.00969
G1 X50.071 Y80.018 E.53335
G1 E-.65714 F1800
;WIPE_START
G1 F12600
G1 X51.071 Y80.018 E-.14286
;WIPE_END
G1 Z.6 F36000
G1 X70.01 Y77.67 Z.6
G1 Z.2
G1 E.8 F1800
;TYPE:Gap infill
;WIDTH:0.334215
G1 F6000
G1 X70.07 Y77.357 E.00703
;WIDTH:0.316648
G1 X70.085 Y77.266 E.00191
;WIDTH:0.283787
G1 X70.102 Y77.169 E.00181
;WIDTH:0.254048
G1 X70.115 Y77.078 E.00146
;WIDTH:0.227484
G1 X70.129 Y76.982 E.00135
;WIDTH:0.193512
G1 X70.149 Y76.797 E.00213
;WIDTH:0.147132
G1 X70.172 Y76.428 E.00291
;WIDTH:0.122019
G1 X70.164 Y65.876 E.06316
;WIDTH:0.159225
G1 X70.149 Y65.691 E.00164
;WIDTH:0.194561
G1 X70.128 Y65.504 E.00216
;WIDTH:0.228306
G1 X70.115 Y65.413 E.00129
;WIDTH:0.255286
G1 X70.101 Y65.314 E.0016
;WIDTH:0.28581
G1 X70.085 Y65.222 E.00173
;WIDTH:0.327143
G2 X70.01 Y64.821 I-13.176 J2.266 E.00876
G1 E-.67778 F1800
;WIPE_START
G1 F6000
G1 X70.085 Y65.222 E-.12222
;WIPE_END
G1 Z.6 F36000
G1 X64.56 Y54.019 Z.6
M73 P2 R14
G1 Z.2
G1 E.8 F1800
;TYPE:Inner wall
;WIDTH:0.4
G1 F6000
G1 X64.543 Y53.758 E.00707
G1 X64.543 Y43.735 E.27081
G3 X67.08 Y41.044 I2.721 J.024 E.10987
G3 X69.957 Y43.734 I.159 J2.714 E.11903
G1 X69.957 Y53.757 E.27081
G3 X64.565 Y54.085 I-2.707 J-.016 E.22003
G1 X64.563 Y54.059 E.00071
G1 X64.916 Y53.996 F36000
;TYPE:Outer wall
G1 F6000
G1 X64.9 Y53.752 E.00661
G1 X64.9 Y43.74 E.2705
G3 X67.102 Y41.4 I2.362 J.017 E.09548
G3 X69.6 Y43.74 I.138 J2.356 E.10344
G1 X69.6 Y53.751 E.2705
G3 X64.919 Y54.04 I-2.35 J-.01 E.19111
G1 X64.919 Y54.036 E.00012
G1 X64.215 Y54.067 F36000
;TYPE:Inner wall
G1 F6000
G1 X64.241 Y54.32 E.00686
G2 X69.878 Y55.319 I3.01 J-.581 E.19956
G1 X70.036 Y55.362 E.00442
G1 X70.036 Y57.786 E.06548
G1 X49.964 Y57.786 E.54232
G1 X49.964 Y39.714 E.48828
G1 X70.036 Y39.716 E.54232
G1 X70.036 Y42.129 E.0652
G1 X69.878 Y42.172 E.00442
G2 X64.186 Y43.729 I-2.627 J1.58 E.21472
G1 X64.186 Y53.763 E.27112
G1 X64.211 Y54.027 E.00716
G1 E-.56 F1800
;WIPE_START
G1 F6000
G1 X64.241 Y54.32 E-.07057
G1 X64.335 Y54.693 E-.09234
G1 X64.401 Y54.874 E-.04621
G1 X64.455 Y54.99 E-.03089
;WIPE_END
G1 Z.6 F36000
G1 X70.393 Y39.359 Z.6
G1 Z.2
G1 E.8 F1800
G1 F6000
G1 X70.393 Y58.143 E.50753
G1 X49.607 Y58.143 E.56161
G1 X49.607 Y39.357 E.50758
G1 X70.353 Y39.359 E.56053
G1 X70.75 Y39.002 F36000
;TYPE:Outer wall
G1 F6000
G1 X70.75 Y58.5 E.52682
G1 X49.25 Y58.5 E.58091
G1 X49.25 Y39 E.52687
G1 X70.71 Y39.002 E.57983
G1 E-.56 F1800
;WIPE_START
G1 F6000
G1 X70.712 Y40.002 E-.24
;WIPE_END
G1 Z.6 F36000
G1 X70.01 Y42.321 Z.6
G1 Z.2
G1 E.8 F1800
;TYPE:Gap infill
;WIDTH:0.325382
G1 F6000
G3 X70.085 Y42.725 I-12.835 J2.61 E.00878
;WIDTH:0.285009
G1 X70.101 Y42.816 E.00169
;WIDTH:0.255062
G1 X70.115 Y42.913 E.00158
;WIDTH:0.228242
G1 X70.128 Y43.004 E.00128
;WIDTH:0.19456
G1 X70.149 Y43.191 E.00216
;WIDTH:0.159225
G1 X70.164 Y43.376 E.00164
;WIDTH:0.122019
G1 X70.172 Y53.928 E.06316
;WIDTH:0.147131
G1 X70.149 Y54.297 E.00291
;WIDTH:0.193514
G1 X70.129 Y54.482 E.00213
;WIDTH:0.227489
G1 X70.115 Y54.578 E.00135
;WIDTH:0.254054
G1 X70.102 Y54.669 E.00146
;WIDTH:0.283791
G1 X70.085 Y54.767 E.00181
;WIDTH:0.316649
G1 X70.07 Y54.857 E.00191
;WIDTH:0.334215
G1 X70.01 Y55.17 E.00703
G1 E-.70438 F1800
;WIPE_START
G1 F6000
G1 X70.07 Y54.857 E-.09562
;WIPE_END
G1 Z.6 F36000
G1 X50.071 Y39.982 Z.6
G1 Z.2
G1 E.8 F1800
;TYPE:Bottom surface
;WIDTH:0.400781
G1 F12600
G1 X69.768 Y39.984 E.53335
G1 X69.768 Y40.34 E.00966
G1 X50.232 Y40.34 E.529
G1 X50.232 Y40.698 E.00969
G1 X65.917 Y40.698 E.42472
G3 X68.586 Y40.698 I1.335 J2.977 E.07447
G1 X69.768 Y40.698 E.032
G1 X69.768 Y41.056 E.00969
G1 X69.217 Y41.056 E.01491
G3 X69.626 Y41.414 I-1.689 J2.343 E.01474
G1 X69.929 Y41.414 E.00819
G1 E-.65714 F1800
;WIPE_START
G1 F12600
G1 X69.626 Y41.414 E-.04321
G1 X69.217 Y41.056 E-.07763
G1 X69.371 Y41.056 E-.02201
;WIPE_END
G1 Z.6 F36000
G1 X65.571 Y41.056 Z.6
G1 Z.2
G1 E.8 F1800
G1 F12600
G1 X50.232 Y41.056 E.41536
G1 X50.232 Y41.414 E.00969
G1 X64.874 Y41.414 E.39647
G2 X64.573 Y41.772 I1.703 J1.738 E.01268
G1 X50.232 Y41.772 E.38832
G1 X50.232 Y42.13 E.00969
G1 X64.348 Y42.13 E.38224
G1 X64.166 Y42.488 E.01087
G1 X50.232 Y42.488 E.37731
G1 X50.232 Y42.845 E.00969
G1 X64.047 Y42.845 E.37408
G2 X63.967 Y43.203 I1.104 J.432 E.00997
G1 X50.232 Y43.203 E.37193
G1 X50.232 Y43.561 E.00969
G1 X63.933 Y43.561 E.371
G2 X63.918 Y43.919 I1.848 J.256 E.00971
G1 X50.232 Y43.919 E.37059
G1 X50.232 Y44.277 E.00969
G1 X63.918 Y44.277 E.37059
G1 X63.918 Y44.635 E.00969
G1 X50.232 Y44.635 E.37059
G1 X50.232 Y44.993 E.00969
G1 X63.918 Y44.993 E.37059
G1 X63.918 Y45.35 E.00969
G1 X50.232 Y45.35 E.37059
G1 X50.232 Y45.708 E.00969
G1 X63.918 Y45.708 E.37059
G1 X63.918 Y46.066 E.00969
G1 X50.232 Y46.066 E.37059
G1 X50.232 Y46.424 E.00969
G1 X63.918 Y46.424 E.37059
G1 X63.918 Y46.782 E.00969
G1 X50.232 Y46.782 E.37059
G1 X50.232 Y47.14 E.00969
G1 X63.918 Y47.14 E.37059
G1 X63.918 Y47.498 E.00969
G1 X50.232 Y47.498 E.37059
G1 X50.232 Y47.855 E.00969
G1 X63.918 Y47.855 E.37059
G1 X63.918 Y48.213 E.00969
G1 X50.232 Y48.213 E.37059
G1 X50.232 Y48.571 E.00969
G1 X63.918 Y48.571 E.37059
G1 X63.918 Y48.929 E.00969
G1 X50.232 Y48.929 E.37059
G1 X50.232 Y49.287 E.00969
G1 X63.918 Y49.287 E.37059
G1 X63.918 Y49.645 E.00969
G1 X50.232 Y49.645 E.37059
G1 X50.232 Y50.003 E.00969
G1 X63.918 Y50.003 E.37059
G1 X63.918 Y50.36 E.00969
G1 X50.232 Y50.36 E.37059
G1 X50.232 Y50.718 E.00969
G1 X63.918 Y50.718 E.37059
G1 X63.918 Y51.076 E.00969
