; HEADER_BLOCK_START
; generated by OrcaSlicer 2.3.1 on 2026-02-07 at 15:59:26
; total layer number: 150
; filament_density: 1.04
; filament_diameter: 1.75
; max_z_height: 30.00
; HEADER_BLOCK_END

; THUMBNAIL_BLOCK_START

;
; THUMBNAIL_BLOCK_END

; THUMBNAIL_BLOCK_START

;
; THUMBNAIL_BLOCK_END

; external perimeters extrusion width = 0.40mm
; perimeters extrusion width = 0.40mm
; infill extrusion width = 0.40mm
; solid infill extrusion width = 0.40mm
; top infill extrusion width = 0.40mm
; first layer extrusion width = 0.40mm

; EXECUTABLE_BLOCK_START


; Pre-Processed for Cancel-Object support by preprocess_cancellation v0.2.0
; 1 known objects
EXCLUDE_OBJECT_DEFINE NAME=xyz_cube_test_20mm_1_stl_id_0_copy_0 CENTER=61.613,58.068 POLYGON=[[50.2,50.2],[50.2,69.8],[69.8,69.8],[69.8,50.2]]
M73 P0 R5
;TYPE:Custom
PRINT_START EXTRUDER_TEMP=255 BED_TEMP=105
G90
G21
M83 ; use relative distances for extrusion
; Filament gcode
SET_PRESSURE_ADVANCE ADVANCE=0.04; Override pressure advance value
M106 S0
;LAYER_CHANGE
;Z:0.2
;HEIGHT:0.2
;BEFORE_LAYER_CHANGE
;0.2
G92 E0

G1 E-.8 F1800
;AFTER_LAYER_CHANGE
;0.2
;_SET_FAN_SPEED_CHANGING_LAYER
SET_VELOCITY_LIMIT ACCEL=10000 ACCEL_TO_DECEL=10000
SET_VELOCITY_LIMIT SQUARE_CORNER_VELOCITY=9
; printing object xyz-cube-test-20mm(1).stl id:0 copy 0
EXCLUDE_OBJECT_START NAME=xyz_cube_test_20mm_1_stl_id_0_copy_0
G1 Z.6 F36000
G1 X69.293 Y69.293
G1 Z.6
G1 Z.2
G1 E.8 F1800
;TYPE:Inner wall
;WIDTH:0.4
G1 F6000
G1 X50.707 Y69.293 E.50217
G1 X50.707 Y50.707 E.50217
G1 X69.293 Y50.707 E.50217
G1 X69.293 Y69.253 E.50109
G1 X69.65 Y69.65 F36000
;TYPE:Outer wall
G1 F6000
G1 X50.35 Y69.65 E.52147
G1 X50.35 Y50.35 E.52147
G1 X69.65 Y50.35 E.52147
G1 X69.65 Y69.61 E.52039
G1 E-.56 F1800
;WIPE_START
G1 F6000
G1 X68.65 Y69.612 E-.24
;WIPE_END
G1 Z.6 F36000
G1 X69.186 Y50.977 Z.6
G1 Z.2
G1 E.8 F1800
;TYPE:Bottom surface
;WIDTH:0.403847
G1 F12600
G1 X50.975 Y50.977 E.49734
G1 X50.975 Y51.338 E.00986
G1 X69.025 Y51.338 E.49296
G1 X69.025 Y51.699 E.00986
G1 X50.975 Y51.699 E.49296
G1 X50.975 Y52.06 E.00986
G1 X69.025 Y52.06 E.49296
G1 X69.025 Y52.421 E.00986
G1 X50.975 Y52.421 E.49296
G1 X50.975 Y52.781 E.00986
G1 X69.025 Y52.781 E.49296
G1 X69.025 Y53.142 E.00986
G1 X50.975 Y53.142 E.49296
G1 X50.975 Y53.503 E.00986
M73 P1 R5
G1 X69.025 Y53.503 E.49296
G1 X69.025 Y53.864 E.00986
G1 X50.975 Y53.864 E.49296
G1 X50.975 Y54.225 E.00986
G1 X69.025 Y54.225 E.49296
G1 X69.025 Y54.586 E.00986
G1 X50.975 Y54.586 E.49296
G1 X50.975 Y54.947 E.00986
G1 X69.025 Y54.947 E.49296
G1 X69.025 Y55.308 E.00986
G1 X50.975 Y55.308 E.49296
G1 X50.975 Y55.669 E.00986
G1 X69.025 Y55.669 E.49296
G1 X69.025 Y56.03 E.00986
G1 X50.975 Y56.03 E.49296
G1 X50.975 Y56.391 E.00986
G1 X69.025 Y56.391 E.49296
G1 X69.025 Y56.752 E.00986
G1 X50.975 Y56.752 E.49296
G1 X50.975 Y57.113 E.00986
G1 X69.025 Y57.113 E.49296
G1 X69.025 Y57.474 E.00986
G1 X50.975 Y57.474 E.49296
G1 X50.975 Y57.834 E.00986
G1 X69.025 Y57.834 E.49296
G1 X69.025 Y58.195 E.00986
G1 X50.975 Y58.195 E.49296
G1 X50.975 Y58.556 E.00986
G1 X69.025 Y58.556 E.49296
G1 X69.025 Y58.917 E.00986
G1 X50.975 Y58.917 E.49296
G1 X50.975 Y59.278 E.00986
G1 X69.025 Y59.278 E.49296
G1 X69.025 Y59.639 E.00986
M73 P1 R4
G1 X50.975 Y59.639 E.49296
G1 X50.975 Y60 E.00986
G1 X69.025 Y60 E.49296
G1 X69.025 Y60.361 E.00986
G1 X50.975 Y60.361 E.49296
G1 X50.975 Y60.722 E.00986
G1 X69.025 Y60.722 E.49296
G1 X69.025 Y61.083 E.00986
G1 X50.975 Y61.083 E.49296
G1 X50.975 Y61.444 E.00986
G1 X69.025 Y61.444 E.49296
G1 X69.025 Y61.805 E.00986
G1 X50.975 Y61.805 E.49296
G1 X50.975 Y62.166 E.00986
G1 X69.025 Y62.166 E.49296
G1 X69.025 Y62.527 E.00986
G1 X50.975 Y62.527 E.49296
G1 X50.975 Y62.887 E.00986
G1 X69.025 Y62.887 E.49296
M73 P2 R4
G1 X69.025 Y63.248 E.00986
G1 X50.975 Y63.248 E.49296
G1 X50.975 Y63.609 E.00986
G1 X69.025 Y63.609 E.49296
G1 X69.025 Y63.97 E.00986
G1 X50.975 Y63.97 E.49296
G1 X50.975 Y64.331 E.00986
G1 X69.025 Y64.331 E.49296
G1 X69.025 Y64.692 E.00986
G1 X50.975 Y64.692 E.49296
G1 X50.975 Y65.053 E.00986
G1 X69.025 Y65.053 E.49296
G1 X69.025 Y65.414 E.00986
G1 X50.975 Y65.414 E.49296
G1 X50.975 Y65.775 E.00986
G1 X69.025 Y65.775 E.49296
G1 X69.025 Y66.136 E.00986
G1 X50.975 Y66.136 E.49296
G1 X50.975 Y66.497 E.00986
G1 X69.025 Y66.497 E.49296
G1 X69.025 Y66.858 E.00986
G1 X50.975 Y66.858 E.49296
G1 X50.975 Y67.219 E.00986
G1 X69.025 Y67.219 E.49296
G1 X69.025 Y67.58 E.00986
G1 X50.975 Y67.58 E.49296
G1 X50.975 Y67.94 E.00986
G1 X69.025 Y67.94 E.49296
G1 X69.025 Y68.301 E.00986
G1 X50.975 Y68.301 E.49296
G1 X50.975 Y68.662 E.00986
G1 X69.025 Y68.662 E.49296
G1 X69.025 Y69.023 E.00986
G1 X50.814 Y69.023 E.49734
; stop printing object xyz-cube-test-20mm(1).stl id:0 copy 0
EXCLUDE_OBJECT_END NAME=xyz_cube_test_20mm_1_stl_id_0_copy_0
;LAYER_CHANGE
;Z:0.4
;HEIGHT:0.2
;BEFORE_LAYER_CHANGE
;0.4
G92 E0

G1 E-.65714 F1800
;WIPE_START
G1 F12600
G1 X51.814 Y69.023 E-.14286
;WIPE_END
;AFTER_LAYER_CHANGE
;0.4
;_SET_FAN_SPEED_CHANGING_LAYER
SET_VELOCITY_LIMIT ACCEL=20000 ACCEL_TO_DECEL=20000
M104 S250 ; set nozzle temperature
M140 S102 ; set bed temperature
; printing object xyz-cube-test-20mm(1).stl id:0 copy 0
EXCLUDE_OBJECT_START NAME=xyz_cube_test_20mm_1_stl_id_0_copy_0
SET_VELOCITY_LIMIT SQUARE_CORNER_VELOCITY=12
G1 Z.8 F36000
G1 X69.443 Y69.443 Z.8
G1 Z.4
G1 E.8 F1800
SET_VELOCITY_LIMIT ACCEL=15000 ACCEL_TO_DECEL=15000 SQUARE_CORNER_VELOCITY=9
;TYPE:Inner wall
;WIDTH:0.4
G1 F23081.008
G1 X50.557 Y69.443 E.51028
G1 X50.557 Y50.557 E.51028
G1 X69.443 Y50.557 E.51028
G1 X69.443 Y69.403 E.5092
SET_VELOCITY_LIMIT ACCEL=20000 ACCEL_TO_DECEL=20000 SQUARE_CORNER_VELOCITY=12
G1 X69.8 Y69.8 F36000
SET_VELOCITY_LIMIT ACCEL=10000 ACCEL_TO_DECEL=10000 SQUARE_CORNER_VELOCITY=9
;TYPE:Outer wall
G1 F23081.008
G1 X50.2 Y69.8 E.52957
G1 X50.2 Y50.2 E.52957
G1 X69.8 Y50.2 E.52957
G1 X69.8 Y69.76 E.52849
SET_VELOCITY_LIMIT ACCEL=20000 ACCEL_TO_DECEL=20000 SQUARE_CORNER_VELOCITY=12
G1 X69.139 Y69.3 F36000
SET_VELOCITY_LIMIT SQUARE_CORNER_VELOCITY=9
;TYPE:Internal solid infill
;WIDTH:0.401302
G1 F22997.131
G1 X69.139 Y50.861 E.50004
G1 X68.78 Y50.861 E.00972
M73 P3 R4
G1 X68.78 Y69.139 E.49568
G1 X68.422 Y69.139 E.00972
G1 X68.422 Y50.861 E.49568
G1 X68.064 Y50.861 E.00972
G1 X68.064 Y69.139 E.49568
G1 X67.705 Y69.139 E.00972
G1 X67.705 Y50.861 E.49568
G1 X67.347 Y50.861 E.00972
G1 X67.347 Y69.139 E.49568
G1 X66.988 Y69.139 E.00972
G1 X66.988 Y50.861 E.49568
G1 X66.63 Y50.861 E.00972
G1 X66.63 Y69.139 E.49568
G1 X66.272 Y69.139 E.00972
G1 X66.272 Y50.861 E.49568
G1 X65.913 Y50.861 E.00972
G1 X65.913 Y69.139 E.49568
G1 X65.555 Y69.139 E.00972
G1 X65.555 Y50.861 E.49568
G1 X65.197 Y50.861 E.00972
G1 X65.197 Y69.139 E.49568
G1 X64.838 Y69.139 E.00972
G1 X64.838 Y50.861 E.49568
G1 X64.48 Y50.861 E.00972
G1 X64.48 Y69.139 E.49568
G1 X64.121 Y69.139 E.00972
G1 X64.121 Y50.861 E.49568
G1 X63.763 Y50.861 E.00972
G1 X63.763 Y69.139 E.49568
G1 X63.405 Y69.139 E.00972
G1 X63.405 Y50.861 E.49568
G1 X63.046 Y50.861 E.00972
G1 X63.046 Y69.139 E.49568
G1 X62.688 Y69.139 E.00972
G1 X62.688 Y50.861 E.49568
G1 X62.329 Y50.861 E.00972
G1 X62.329 Y69.139 E.49568
G1 X61.971 Y69.139 E.00972
G1 X61.971 Y50.861 E.49568
G1 X61.613 Y50.861 E.00972
G1 X61.613 Y69.139 E.49568
G1 X61.254 Y69.139 E.00972
G1 X61.254 Y50.861 E.49568
G1 X60.896 Y50.861 E.00972
G1 X60.896 Y69.139 E.49568
G1 X60.538 Y69.139 E.00972
G1 X60.538 Y50.861 E.49568
G1 X60.179 Y50.861 E.00972
G1 X60.179 Y69.139 E.49568
G1 X59.821 Y69.139 E.00972
G1 X59.821 Y50.861 E.49568
G1 X59.462 Y50.861 E.00972
G1 X59.462 Y69.139 E.49568
G1 X59.104 Y69.139 E.00972
G1 X59.104 Y50.861 E.49568
G1 X58.746 Y50.861 E.00972
G1 X58.746 Y69.139 E.49568
G1 X58.387 Y69.139 E.00972
G1 X58.387 Y50.861 E.49568
G1 X58.029 Y50.861 E.00972
G1 X58.029 Y69.139 E.49568
G1 X57.67 Y69.139 E.00972
G1 X57.67 Y50.861 E.49568
G1 X57.312 Y50.861 E.00972
G1 X57.312 Y69.139 E.49568
G1 X56.954 Y69.139 E.00972
G1 X56.954 Y50.861 E.49568
G1 X56.595 Y50.861 E.00972
G1 X56.595 Y69.139 E.49568
G1 X56.237 Y69.139 E.00972
G1 X56.237 Y50.861 E.49568
G1 X55.879 Y50.861 E.00972
G1 X55.879 Y69.139 E.49568
G1 X55.52 Y69.139 E.00972
G1 X55.52 Y50.861 E.49568
G1 X55.162 Y50.861 E.00972
G1 X55.162 Y69.139 E.49568
G1 X54.803 Y69.139 E.00972
G1 X54.803 Y50.861 E.49568
G1 X54.445 Y50.861 E.00972
G1 X54.445 Y69.139 E.49568
G1 X54.087 Y69.139 E.00972
G1 X54.087 Y50.861 E.49568
M73 P4 R4
G1 X53.728 Y50.861 E.00972
G1 X53.728 Y69.139 E.49568
G1 X53.37 Y69.139 E.00972
G1 X53.37 Y50.861 E.49568
G1 X53.012 Y50.861 E.00972
G1 X53.012 Y69.139 E.49568
G1 X52.653 Y69.139 E.00972
G1 X52.653 Y50.861 E.49568
G1 X52.295 Y50.861 E.00972
G1 X52.295 Y69.139 E.49568
G1 X51.936 Y69.139 E.00972
G1 X51.936 Y50.861 E.49568
G1 X51.578 Y50.861 E.00972
G1 X51.578 Y69.139 E.49568
G1 X51.22 Y69.139 E.00972
G1 X51.22 Y50.861 E.49568
G1 X50.861 Y50.861 E.00972
G1 X50.861 Y69.3 E.50004
; stop printing object xyz-cube-test-20mm(1).stl id:0 copy 0
EXCLUDE_OBJECT_END NAME=xyz_cube_test_20mm_1_stl_id_0_copy_0
;LAYER_CHANGE
;Z:0.6
;HEIGHT:0.2
;BEFORE_LAYER_CHANGE
;0.6
G92 E0

G1 E-.72173 F1800
;WIPE_START
G1 F22997.131
G1 X50.861 Y68.3 E-.07827
;WIPE_END
;AFTER_LAYER_CHANGE
;0.6
;_SET_FAN_SPEED_CHANGING_LAYER
; printing object xyz-cube-test-20mm(1).stl id:0 copy 0
EXCLUDE_OBJECT_START NAME=xyz_cube_test_20mm_1_stl_id_0_copy_0
SET_VELOCITY_LIMIT SQUARE_CORNER_VELOCITY=12
G1 Z1 F36000
G1 X69.443 Y69.443 Z1
G1 Z.6
G1 E.8 F1800
SET_VELOCITY_LIMIT ACCEL=15000 ACCEL_TO_DECEL=15000 SQUARE_CORNER_VELOCITY=9
;TYPE:Inner wall
;WIDTH:0.4
G1 F23081.008
G1 X50.557 Y69.443 E.51028
G1 X50.557 Y50.557 E.51028
G1 X69.443 Y50.557 E.51028
G1 X69.443 Y69.403 E.5092
SET_VELOCITY_LIMIT ACCEL=20000 ACCEL_TO_DECEL=20000 SQUARE_CORNER_VELOCITY=12
G1 X69.8 Y69.8 F36000
SET_VELOCITY_LIMIT ACCEL=10000 ACCEL_TO_DECEL=10000 SQUARE_CORNER_VELOCITY=9
;TYPE:Outer wall
G1 F23081.008
G1 X50.2 Y69.8 E.52957
G1 X50.2 Y50.2 E.52957
G1 X69.8 Y50.2 E.52957
G1 X69.8 Y69.76 E.52849
SET_VELOCITY_LIMIT ACCEL=20000 ACCEL_TO_DECEL=20000 SQUARE_CORNER_VELOCITY=12
G1 E-.72201 F1800
;WIPE_START
G1 F23081.008
G1 X68.8 Y69.762 E-.07799
;WIPE_END
G1 Z1 F36000
G1 X69.3 Y50.861 Z1
G1 Z.6
G1 E.8 F1800
SET_VELOCITY_LIMIT SQUARE_CORNER_VELOCITY=9
;TYPE:Internal solid infill
;WIDTH:0.401302
G1 F22997.131
G1 X50.861 Y50.861 E.50004
G1 X50.861 Y51.22 E.00972
G1 X69.139 Y51.22 E.49568
G1 X69.139 Y51.578 E.00972
G1 X50.861 Y51.578 E.49568
G1 X50.861 Y51.936 E.00972
G1 X69.139 Y51.936 E.49568
G1 X69.139 Y52.295 E.00972
G1 X50.861 Y52.295 E.49568
G1 X50.861 Y52.653 E.00972
G1 X69.139 Y52.653 E.49568
G1 X69.139 Y53.012 E.00972
G1 X50.861 Y53.012 E.49568
G1 X50.861 Y53.37 E.00972
G1 X69.139 Y53.37 E.49568
G1 X69.139 Y53.728 E.00972
G1 X50.861 Y53.728 E.49568
G1 X50.861 Y54.087 E.00972
G1 X69.139 Y54.087 E.49568
G1 X69.139 Y54.445 E.00972
G1 X50.861 Y54.445 E.49568
G1 X50.861 Y54.804 E.00972
G1 X69.139 Y54.804 E.49568
G1 X69.139 Y55.162 E.00972
G1 X50.861 Y55.162 E.49568
G1 X50.861 Y55.52 E.00972
G1 X69.139 Y55.52 E.49568
G1 X69.139 Y55.879 E.00972
G1 X50.861 Y55.879 E.49568
G1 X50.861 Y56.237 E.00972
G1 X69.139 Y56.237 E.49568
G1 X69.139 Y56.595 E.00972
M73 P5 R4
G1 X50.861 Y56.595 E.49568
G1 X50.861 Y56.954 E.00972
G1 X69.139 Y56.954 E.49568
G1 X69.139 Y57.312 E.00972
G1 X50.861 Y57.312 E.49568
G1 X50.861 Y57.671 E.00972
G1 X69.139 Y57.671 E.49568
G1 X69.139 Y58.029 E.00972
G1 X50.861 Y58.029 E.49568
G1 X50.861 Y58.387 E.00972
G1 X69.139 Y58.387 E.49568
G1 X69.139 Y58.746 E.00972
G1 X50.861 Y58.746 E.49568
G1 X50.861 Y59.104 E.00972
G1 X69.139 Y59.104 E.49568
G1 X69.139 Y59.462 E.00972
G1 X50.861 Y59.462 E.49568
G1 X50.861 Y59.821 E.00972
G1 X69.139 Y59.821 E.49568
G1 X69.139 Y60.179 E.00972
G1 X50.861 Y60.179 E.49568
G1 X50.861 Y60.538 E.00972
G1 X69.139 Y60.538 E.49568
G1 X69.139 Y60.896 E.00972
G1 X50.861 Y60.896 E.49568
G1 X50.861 Y61.254 E.00972
G1 X69.139 Y61.254 E.49568
G1 X69.139 Y61.613 E.00972
G1 X50.861 Y61.613 E.49568
G1 X50.861 Y61.971 E.00972
G1 X69.139 Y61.971 E.49568
G1 X69.139 Y62.33 E.00972
G1 X50.861 Y62.33 E.49568
G1 X50.861 Y62.688 E.00972
G1 X69.139 Y62.688 E.49568
G1 X69.139 Y63.046 E.00972
G1 X50.861 Y63.046 E.49568
G1 X50.861 Y63.405 E.00972
G1 X69.139 Y63.405 E.49568
G1 X69.139 Y63.763 E.00972
G1 X50.861 Y63.763 E.49568
G1 X50.861 Y64.121 E.00972
G1 X69.139 Y64.121 E.49568
G1 X69.139 Y64.48 E.00972
G1 X50.861 Y64.48 E.49568
G1 X50.861 Y64.838 E.00972
G1 X69.139 Y64.838 E.49568
G1 X69.139 Y65.197 E.00972
G1 X50.861 Y65.197 E.49568
G1 X50.861 Y65.555 E.00972
G1 X69.139 Y65.555 E.49568
G1 X69.139 Y65.913 E.00972
G1 X50.861 Y65.913 E.49568
G1 X50.861 Y66.272 E.00972
G1 X69.139 Y66.272 E.49568
G1 X69.139 Y66.63 E.00972
G1 X50.861 Y66.63 E.49568
G1 X50.861 Y66.988 E.00972
G1 X69.139 Y66.988 E.49568
G1 X69.139 Y67.347 E.00972
G1 X50.861 Y67.347 E.49568
G1 X50.861 Y67.705 E.00972
G1 X69.139 Y67.705 E.49568
G1 X69.139 Y68.064 E.00972
G1 X50.861 Y68.064 E.49568
G1 X50.861 Y68.422 E.00972
G1 X69.139 Y68.422 E.49568
G1 X69.139 Y68.78 E.00972
G1 X50.861 Y68.78 E.49568
G1 X50.861 Y69.139 E.00972
G1 X69.3 Y69.139 E.50004
; stop printing object xyz-cube-test-20mm(1).stl id:0 copy 0
EXCLUDE_OBJECT_END NAME=xyz_cube_test_20mm_1_stl_id_0_copy_0
M106 S74
;LAYER_CHANGE
;Z:0.8
;HEIGHT:0.2
;BEFORE_LAYER_CHANGE
;0.8
G92 E0

G1 E-.72173 F1800
;WIPE_START
G1 F22997.131
G1 X68.3 Y69.139 E-.07827
;WIPE_END
;AFTER_LAYER_CHANGE
;0.8
;_SET_FAN_SPEED_CHANGING_LAYER
; printing object xyz-cube-test-20mm(1).stl id:0 copy 0
EXCLUDE_OBJECT_START NAME=xyz_cube_test_20mm_1_stl_id_0_copy_0
SET_VELOCITY_LIMIT SQUARE_CORNER_VELOCITY=12
G1 Z1.2 F36000
G1 X69.443 Y69.443 Z1.2
G1 Z.8
G1 E.8 F1800
SET_VELOCITY_LIMIT ACCEL=15000 ACCEL_TO_DECEL=15000 SQUARE_CORNER_VELOCITY=9
;TYPE:Inner wall
;WIDTH:0.4
G1 F23081.008
G1 X50.557 Y69.443 E.51028
G1 X50.557 Y50.557 E.51028
G1 X69.443 Y50.557 E.51028
G1 X69.443 Y69.403 E.5092
M73 P6 R4
SET_VELOCITY_LIMIT ACCEL=20000 ACCEL_TO_DECEL=20000 SQUARE_CORNER_VELOCITY=12
G1 X69.8 Y69.8 F36000
SET_VELOCITY_LIMIT ACCEL=10000 ACCEL_TO_DECEL=10000 SQUARE_CORNER_VELOCITY=9
;TYPE:Outer wall
G1 F23081.008
G1 X50.2 Y69.8 E.52957
G1 X50.2 Y50.2 E.52957
G1 X69.8 Y50.2 E.52957
G1 X69.8 Y69.76 E.52849
SET_VELOCITY_LIMIT ACCEL=20000 ACCEL_TO_DECEL=20000 SQUARE_CORNER_VELOCITY=12
G1 E-.72201 F1800
;WIPE_START
G1 F23081.008
G1 X68.8 Y69.762 E-.07799
;WIPE_END
G1 Z1.2 F36000
G1 X69.139 Y58.92 Z1.2
G1 Z.8
G1 E.8 F1800
SET_VELOCITY_LIMIT SQUARE_CORNER_VELOCITY=9
;TYPE:Sparse infill
G1 F23081.008
G1 X69.139 Y60.348 E.03859
G2 X68.256 Y67.923 I8.126 J4.787 E.21213
G2 X68.824 Y69.139 I4.477 J-1.35 E.0364
G1 X54.732 Y69.139 E.38076
G3 X53.341 Y59.303 I6.95 J-5.999 E.28362
G3 X55.618 Y56.429 I11.056 J6.422 E.0994
G2 X58.345 Y53.556 I-21.003 J-22.659 E.1071
G2 X59.805 Y50.861 I-8.393 J-6.292 E.08313
G1 X58.377 Y50.861 E.03859
; stop printing object xyz-cube-test-20mm(1).stl id:0 copy 0
EXCLUDE_OBJECT_END NAME=xyz_cube_test_20mm_1_stl_id_0_copy_0
;LAYER_CHANGE
;Z:1
;HEIGHT:0.2
;BEFORE_LAYER_CHANGE
;1
G92 E0

G1 E-.72201 F1800
;WIPE_START
G1 F23081.008
G1 X59.377 Y50.861 E-.07799
;WIPE_END
;AFTER_LAYER_CHANGE
;1
;_SET_FAN_SPEED_CHANGING_LAYER
; printing object xyz-cube-test-20mm(1).stl id:0 copy 0
EXCLUDE_OBJECT_START NAME=xyz_cube_test_20mm_1_stl_id_0_copy_0
SET_VELOCITY_LIMIT SQUARE_CORNER_VELOCITY=12
G1 Z1.4 F36000
G1 X69.443 Y69.443 Z1.4
G1 Z1
G1 E.8 F1800
SET_VELOCITY_LIMIT ACCEL=15000 ACCEL_TO_DECEL=15000 SQUARE_CORNER_VELOCITY=9
;TYPE:Inner wall
G1 F23081.008
G1 X50.557 Y69.443 E.51028
G1 X50.557 Y50.557 E.51028
G1 X69.443 Y50.557 E.51028
G1 X69.443 Y69.403 E.5092
SET_VELOCITY_LIMIT ACCEL=20000 ACCEL_TO_DECEL=20000 SQUARE_CORNER_VELOCITY=12
G1 X69.8 Y69.8 F36000
SET_VELOCITY_LIMIT ACCEL=10000 ACCEL_TO_DECEL=10000 SQUARE_CORNER_VELOCITY=9
;TYPE:Outer wall
G1 F23081.008
G1 X50.2 Y69.8 E.52957
G1 X50.2 Y50.2 E.52957
G1 X69.8 Y50.2 E.52957
G1 X69.8 Y69.76 E.52849
SET_VELOCITY_LIMIT ACCEL=20000 ACCEL_TO_DECEL=20000 SQUARE_CORNER_VELOCITY=12
G1 E-.72201 F1800
;WIPE_START
G1 F23081.008
G1 X68.8 Y69.762 E-.07799
;WIPE_END
G1 Z1.4 F36000
G1 X69.139 Y59.094 Z1.4
G1 Z1
G1 E.8 F1800
