; HEADER_BLOCK_START
; generated by OrcaSlicer 2.3.1 on 2026-02-08 at 13:21:15
; total layer number: 1
; filament_density: 1.04
; filament_diameter: 1.75
; max_z_height: 0.20
; HEADER_BLOCK_END

; THUMBNAIL_BLOCK_START

;
; THUMBNAIL_BLOCK_END

; THUMBNAIL_BLOCK_START

;
; THUMBNAIL_BLOCK_END

; external perimeters extrusion width = 0.40mm
; perimeters extrusion width = 0.40mm
; infill extrusion width = 0.40mm
; solid infill extrusion width = 0.40mm
; top infill extrusion width = 0.40mm
; first layer extrusion width = 0.40mm

; EXECUTABLE_BLOCK_START


; Pre-Processed for Cancel-Object support by preprocess_cancellation v0.2.0
; 1 known objects
EXCLUDE_OBJECT_DEFINE NAME=z_offset_check_stl_id_15_copy_0 CENTER=60.000,60.000 POLYGON=[[10.35,10.35],[10.35,109.65],[109.65,109.65],[109.65,10.35]]
M73 P0 R2
;TYPE:Custom
PRINT_START EXTRUDER_TEMP=255 BED_TEMP=105
G90
G21
M83 ; use relative distances for extrusion
; Filament gcode
SET_PRESSURE_ADVANCE ADVANCE=0.04; Override pressure advance value
M106 S0
;LAYER_CHANGE
;Z:0.2
;HEIGHT:0.2
;BEFORE_LAYER_CHANGE
;0.2
G92 E0

G1 E-.8 F1800
;AFTER_LAYER_CHANGE
;0.2
;_SET_FAN_SPEED_CHANGING_LAYER
SET_VELOCITY_LIMIT ACCEL=10000 ACCEL_TO_DECEL=10000
SET_VELOCITY_LIMIT SQUARE_CORNER_VELOCITY=9
; printing object z-offset-check.stl id:15 copy 0
EXCLUDE_OBJECT_START NAME=z_offset_check_stl_id_15_copy_0
G1 Z.6 F36000
G1 X109.65 Y109.65
G1 Z.6
G1 Z.2
G1 E.8 F1800
;TYPE:Outer wall
;WIDTH:0.4
G1 F6000
G1 X10.35 Y109.65 E2.68299
G1 X10.35 Y10.35 E2.68299
M73 P1 R2
G1 X109.65 Y10.35 E2.68299
G1 X109.65 Y10.495 E.00392
M73 P2 R2
G1 X109.65 Y109.61 E2.67799
G1 E-.56 F1800
M73 P3 R2
;WIPE_START
G1 F6000
G1 X108.65 Y109.61 E-.24
;WIPE_END
G1 Z.6 F36000
G1 X109.543 Y10.618 Z.6
G1 Z.2
G1 E.8 F1800
;TYPE:Bottom surface
;WIDTH:0.400759
G1 F12600
G1 X10.618 Y10.618 E2.67854
G1 X10.618 Y10.976 E.00969
G1 X109.382 Y10.976 E2.67419
G1 X109.382 Y11.334 E.00969
M73 P4 R2
G1 X10.618 Y11.334 E2.67419
G1 X10.618 Y11.692 E.00969
G1 X109.382 Y11.692 E2.67419
G1 X109.382 Y12.05 E.00969
G1 X10.618 Y12.05 E2.67419
G1 X10.618 Y12.407 E.00969
M73 P5 R2
G1 X109.382 Y12.407 E2.67419
G1 X109.382 Y12.765 E.00969
G1 X10.618 Y12.765 E2.67419
G1 X10.618 Y13.123 E.00969
G1 X109.382 Y13.123 E2.67419
G1 X109.382 Y13.481 E.00969
M73 P6 R2
G1 X10.618 Y13.481 E2.67419
G1 X10.618 Y13.839 E.00969
G1 X109.382 Y13.839 E2.67419
G1 X109.382 Y14.197 E.00969
G1 X10.618 Y14.197 E2.67419
G1 X10.618 Y14.554 E.00969
M73 P7 R2
G1 X109.382 Y14.554 E2.67419
G1 X109.382 Y14.912 E.00969
G1 X10.618 Y14.912 E2.67419
G1 X10.618 Y15.27 E.00969
G1 X109.382 Y15.27 E2.67419
G1 X109.382 Y15.628 E.00969
M73 P8 R2
G1 X10.618 Y15.628 E2.67419
G1 X10.618 Y15.986 E.00969
G1 X109.382 Y15.986 E2.67419
G1 X109.382 Y16.344 E.00969
M73 P9 R2
G1 X10.618 Y16.344 E2.67419
G1 X10.618 Y16.702 E.00969
G1 X109.382 Y16.702 E2.67419
G1 X109.382 Y17.059 E.00969
G1 X10.618 Y17.059 E2.67419
G1 X10.618 Y17.417 E.00969
M73 P10 R2
G1 X109.382 Y17.417 E2.67419
G1 X109.382 Y17.775 E.00969
G1 X10.618 Y17.775 E2.67419
G1 X10.618 Y18.133 E.00969
G1 X109.382 Y18.133 E2.67419
G1 X109.382 Y18.491 E.00969
M73 P11 R2
G1 X10.618 Y18.491 E2.67419
G1 X10.618 Y18.849 E.00969
G1 X109.382 Y18.849 E2.67419
G1 X109.382 Y19.206 E.00969
G1 X10.618 Y19.206 E2.67419
G1 X10.618 Y19.564 E.00969
M73 P12 R2
G1 X109.382 Y19.564 E2.67419
G1 X109.382 Y19.922 E.00969
G1 X10.618 Y19.922 E2.67419
G1 X10.618 Y20.28 E.00969
G1 X109.382 Y20.28 E2.67419
G1 X109.382 Y20.638 E.00969
M73 P13 R2
G1 X10.618 Y20.638 E2.67419
G1 X10.618 Y20.996 E.00969
G1 X109.382 Y20.996 E2.67419
G1 X109.382 Y21.353 E.00969
G1 X10.618 Y21.353 E2.67419
G1 X10.618 Y21.711 E.00969
M73 P14 R2
G1 X109.382 Y21.711 E2.67419
G1 X109.382 Y22.069 E.00969
G1 X10.618 Y22.069 E2.67419
G1 X10.618 Y22.427 E.00969
G1 X109.382 Y22.427 E2.67419
G1 X109.382 Y22.785 E.00969
M73 P15 R2
G1 X10.618 Y22.785 E2.67419
G1 X10.618 Y23.143 E.00969
G1 X109.382 Y23.143 E2.67419
G1 X109.382 Y23.5 E.00969
G1 X10.618 Y23.5 E2.67419
G1 X10.618 Y23.858 E.00969
M73 P16 R2
G1 X109.382 Y23.858 E2.67419
G1 X109.382 Y24.216 E.00969
G1 X10.618 Y24.216 E2.67419
G1 X10.618 Y24.574 E.00969
M73 P17 R1
G1 X109.382 Y24.574 E2.67419
G1 X109.382 Y24.932 E.00969
G1 X10.618 Y24.932 E2.67419
G1 X10.618 Y25.29 E.00969
G1 X109.382 Y25.29 E2.67419
G1 X109.382 Y25.647 E.00969
M73 P18 R1
G1 X10.618 Y25.647 E2.67419
G1 X10.618 Y26.005 E.00969
G1 X109.382 Y26.005 E2.67419
G1 X109.382 Y26.363 E.00969
G1 X10.618 Y26.363 E2.67419
G1 X10.618 Y26.721 E.00969
M73 P19 R1
G1 X109.382 Y26.721 E2.67419
G1 X109.382 Y27.079 E.00969
G1 X10.618 Y27.079 E2.67419
G1 X10.618 Y27.437 E.00969
G1 X109.382 Y27.437 E2.67419
G1 X109.382 Y27.795 E.00969
M73 P20 R1
G1 X10.618 Y27.795 E2.67419
G1 X10.618 Y28.152 E.00969
G1 X109.382 Y28.152 E2.67419
G1 X109.382 Y28.51 E.00969
G1 X10.618 Y28.51 E2.67419
G1 X10.618 Y28.868 E.00969
M73 P21 R1
G1 X109.382 Y28.868 E2.67419
G1 X109.382 Y29.226 E.00969
G1 X10.618 Y29.226 E2.67419
G1 X10.618 Y29.584 E.00969
G1 X109.382 Y29.584 E2.67419
G1 X109.382 Y29.942 E.00969
M73 P22 R1
G1 X10.618 Y29.942 E2.67419
G1 X10.618 Y30.299 E.00969
G1 X109.382 Y30.299 E2.67419
G1 X109.382 Y30.657 E.00969
G1 X10.618 Y30.657 E2.67419
G1 X10.618 Y31.015 E.00969
M73 P23 R1
G1 X109.382 Y31.015 E2.67419
G1 X109.382 Y31.373 E.00969
G1 X10.618 Y31.373 E2.67419
G1 X10.618 Y31.731 E.00969
G1 X109.382 Y31.731 E2.67419
M73 P24 R1
G1 X109.382 Y32.089 E.00969
G1 X10.618 Y32.089 E2.67419
G1 X10.618 Y32.446 E.00969
G1 X109.382 Y32.446 E2.67419
G1 X109.382 Y32.804 E.00969
M73 P25 R1
G1 X10.618 Y32.804 E2.67419
G1 X10.618 Y33.162 E.00969
G1 X109.382 Y33.162 E2.67419
G1 X109.382 Y33.52 E.00969
G1 X10.618 Y33.52 E2.67419
G1 X10.618 Y33.878 E.00969
M73 P26 R1
G1 X109.382 Y33.878 E2.67419
G1 X109.382 Y34.236 E.00969
G1 X10.618 Y34.236 E2.67419
G1 X10.618 Y34.593 E.00969
G1 X109.382 Y34.593 E2.67419
G1 X109.382 Y34.951 E.00969
M73 P27 R1
G1 X10.618 Y34.951 E2.67419
G1 X10.618 Y35.309 E.00969
G1 X109.382 Y35.309 E2.67419
G1 X109.382 Y35.667 E.00969
G1 X10.618 Y35.667 E2.67419
G1 X10.618 Y36.025 E.00969
M73 P28 R1
G1 X109.382 Y36.025 E2.67419
G1 X109.382 Y36.383 E.00969
G1 X10.618 Y36.383 E2.67419
G1 X10.618 Y36.74 E.00969
G1 X109.382 Y36.74 E2.67419
G1 X109.382 Y37.098 E.00969
M73 P29 R1
G1 X10.618 Y37.098 E2.67419
G1 X10.618 Y37.456 E.00969
G1 X109.382 Y37.456 E2.67419
G1 X109.382 Y37.814 E.00969
G1 X10.618 Y37.814 E2.67419
G1 X10.618 Y38.172 E.00969
M73 P30 R1
G1 X109.382 Y38.172 E2.67419
G1 X109.382 Y38.53 E.00969
G1 X10.618 Y38.53 E2.67419
G1 X10.618 Y38.888 E.00969
G1 X109.382 Y38.888 E2.67419
G1 X109.382 Y39.245 E.00969
M73 P31 R1
G1 X10.618 Y39.245 E2.67419
G1 X10.618 Y39.603 E.00969
G1 X109.382 Y39.603 E2.67419
G1 X109.382 Y39.961 E.00969
M73 P32 R1
G1 X10.618 Y39.961 E2.67419
G1 X10.618 Y40.319 E.00969
G1 X109.382 Y40.319 E2.67419
G1 X109.382 Y40.677 E.00969
G1 X10.618 Y40.677 E2.67419
G1 X10.618 Y41.035 E.00969
M73 P33 R1
G1 X109.382 Y41.035 E2.67419
G1 X109.382 Y41.392 E.00969
G1 X10.618 Y41.392 E2.67419
G1 X10.618 Y41.75 E.00969
G1 X109.382 Y41.75 E2.67419
G1 X109.382 Y42.108 E.00969
M73 P34 R1
G1 X10.618 Y42.108 E2.67419
G1 X10.618 Y42.466 E.00969
G1 X109.382 Y42.466 E2.67419
G1 X109.382 Y42.824 E.00969
G1 X10.618 Y42.824 E2.67419
G1 X10.618 Y43.182 E.00969
M73 P35 R1
G1 X109.382 Y43.182 E2.67419
G1 X109.382 Y43.539 E.00969
G1 X10.618 Y43.539 E2.67419
G1 X10.618 Y43.897 E.00969
G1 X109.382 Y43.897 E2.67419
G1 X109.382 Y44.255 E.00969
M73 P36 R1
G1 X10.618 Y44.255 E2.67419
G1 X10.618 Y44.613 E.00969
G1 X109.382 Y44.613 E2.67419
G1 X109.382 Y44.971 E.00969
G1 X10.618 Y44.971 E2.67419
G1 X10.618 Y45.329 E.00969
M73 P37 R1
G1 X109.382 Y45.329 E2.67419
G1 X109.382 Y45.686 E.00969
G1 X10.618 Y45.686 E2.67419
G1 X10.618 Y46.044 E.00969
G1 X109.382 Y46.044 E2.67419
G1 X109.382 Y46.402 E.00969
M73 P38 R1
G1 X10.618 Y46.402 E2.67419
G1 X10.618 Y46.76 E.00969
G1 X109.382 Y46.76 E2.67419
G1 X109.382 Y47.118 E.00969
G1 X10.618 Y47.118 E2.67419
G1 X10.618 Y47.476 E.00969
M73 P39 R1
G1 X109.382 Y47.476 E2.67419
G1 X109.382 Y47.833 E.00969
G1 X10.618 Y47.833 E2.67419
G1 X10.618 Y48.191 E.00969
M73 P40 R1
G1 X109.382 Y48.191 E2.67419
G1 X109.382 Y48.549 E.00969
G1 X10.618 Y48.549 E2.67419
G1 X10.618 Y48.907 E.00969
G1 X109.382 Y48.907 E2.67419
G1 X109.382 Y49.265 E.00969
M73 P41 R1
G1 X10.618 Y49.265 E2.67419
G1 X10.618 Y49.623 E.00969
G1 X109.382 Y49.623 E2.67419
G1 X109.382 Y49.981 E.00969
G1 X10.618 Y49.981 E2.67419
G1 X10.618 Y50.338 E.00969
M73 P42 R1
G1 X109.382 Y50.338 E2.67419
G1 X109.382 Y50.696 E.00969
G1 X10.618 Y50.696 E2.67419
G1 X10.618 Y51.054 E.00969
G1 X109.382 Y51.054 E2.67419
G1 X109.382 Y51.412 E.00969
M73 P43 R1
G1 X10.618 Y51.412 E2.67419
G1 X10.618 Y51.77 E.00969
G1 X109.382 Y51.77 E2.67419
G1 X109.382 Y52.128 E.00969
G1 X10.618 Y52.128 E2.67419
G1 X10.618 Y52.485 E.00969
M73 P44 R1
G1 X109.382 Y52.485 E2.67419
G1 X109.382 Y52.843 E.00969
G1 X10.618 Y52.843 E2.67419
G1 X10.618 Y53.201 E.00969
G1 X109.382 Y53.201 E2.67419
G1 X109.382 Y53.559 E.00969
M73 P45 R1
G1 X10.618 Y53.559 E2.67419
G1 X10.618 Y53.917 E.00969
G1 X109.382 Y53.917 E2.67419
G1 X109.382 Y54.275 E.00969
G1 X10.618 Y54.275 E2.67419
G1 X10.618 Y54.632 E.00969
M73 P46 R1
G1 X109.382 Y54.632 E2.67419
G1 X109.382 Y54.99 E.00969
G1 X10.618 Y54.99 E2.67419
G1 X10.618 Y55.348 E.00969
G1 X109.382 Y55.348 E2.67419
M73 P47 R1
G1 X109.382 Y55.706 E.00969
G1 X10.618 Y55.706 E2.67419
G1 X10.618 Y56.064 E.00969
G1 X109.382 Y56.064 E2.67419
G1 X109.382 Y56.422 E.00969
M73 P48 R1
G1 X10.618 Y56.422 E2.67419
G1 X10.618 Y56.779 E.00969
G1 X109.382 Y56.779 E2.67419
G1 X109.382 Y57.137 E.00969
G1 X10.618 Y57.137 E2.67419
G1 X10.618 Y57.495 E.00969
M73 P49 R1
G1 X109.382 Y57.495 E2.67419
G1 X109.382 Y57.853 E.00969
G1 X10.618 Y57.853 E2.67419
G1 X10.618 Y58.211 E.00969
G1 X109.382 Y58.211 E2.67419
G1 X109.382 Y58.569 E.00969
M73 P50 R1
G1 X10.618 Y58.569 E2.67419
G1 X10.618 Y58.927 E.00969
G1 X109.382 Y58.927 E2.67419
G1 X109.382 Y59.284 E.00969
G1 X10.618 Y59.284 E2.67419
G1 X10.618 Y59.642 E.00969
M73 P51 R1
G1 X109.382 Y59.642 E2.67419
G1 X109.382 Y60 E.00969
G1 X10.618 Y60 E2.67419
G1 X10.618 Y60.358 E.00969
G1 X109.382 Y60.358 E2.67419
G1 X109.382 Y60.716 E.00969
M73 P52 R1
G1 X10.618 Y60.716 E2.67419
G1 X10.618 Y61.074 E.00969
G1 X109.382 Y61.074 E2.67419
G1 X109.382 Y61.431 E.00969
G1 X10.618 Y61.431 E2.67419
G1 X10.618 Y61.789 E.00969
M73 P53 R1
G1 X109.382 Y61.789 E2.67419
G1 X109.382 Y62.147 E.00969
G1 X10.618 Y62.147 E2.67419
G1 X10.618 Y62.505 E.00969
G1 X109.382 Y62.505 E2.67419
G1 X109.382 Y62.863 E.00969
M73 P54 R1
G1 X10.618 Y62.863 E2.67419
G1 X10.618 Y63.221 E.00969
G1 X109.382 Y63.221 E2.67419
G1 X109.382 Y63.578 E.00969
M73 P55 R1
G1 X10.618 Y63.578 E2.67419
G1 X10.618 Y63.936 E.00969
G1 X109.382 Y63.936 E2.67419
G1 X109.382 Y64.294 E.00969
G1 X10.618 Y64.294 E2.67419
G1 X10.618 Y64.652 E.00969
M73 P56 R1
G1 X109.382 Y64.652 E2.67419
G1 X109.382 Y65.01 E.00969
G1 X10.618 Y65.01 E2.67419
G1 X10.618 Y65.368 E.00969
G1 X109.382 Y65.368 E2.67419
G1 X109.382 Y65.725 E.00969
M73 P57 R1
G1 X10.618 Y65.725 E2.67419
G1 X10.618 Y66.083 E.00969
G1 X109.382 Y66.083 E2.67419
G1 X109.382 Y66.441 E.00969
G1 X10.618 Y66.441 E2.67419
G1 X10.618 Y66.799 E.00969
M73 P58 R1
G1 X109.382 Y66.799 E2.67419
G1 X109.382 Y67.157 E.00969
G1 X10.618 Y67.157 E2.67419
G1 X10.618 Y67.515 E.00969
M73 P58 R0
G1 X109.382 Y67.515 E2.67419
G1 X109.382 Y67.872 E.00969
M73 P59 R0
G1 X10.618 Y67.872 E2.67419
G1 X10.618 Y68.23 E.00969
G1 X109.382 Y68.23 E2.67419
G1 X109.382 Y68.588 E.00969
G1 X10.618 Y68.588 E2.67419
G1 X10.618 Y68.946 E.00969
M73 P60 R0
G1 X109.382 Y68.946 E2.67419
G1 X109.382 Y69.304 E.00969
G1 X10.618 Y69.304 E2.67419
G1 X10.618 Y69.662 E.00969
G1 X109.382 Y69.662 E2.67419
G1 X109.382 Y70.02 E.00969
M73 P61 R0
G1 X10.618 Y70.02 E2.67419
G1 X10.618 Y70.377 E.00969
G1 X109.382 Y70.377 E2.67419
G1 X109.382 Y70.735 E.00969
G1 X10.618 Y70.735 E2.67419
G1 X10.618 Y71.093 E.00969
M73 P62 R0
G1 X109.382 Y71.093 E2.67419
G1 X109.382 Y71.451 E.00969
G1 X10.618 Y71.451 E2.67419
G1 X10.618 Y71.809 E.00969
M73 P63 R0
G1 X109.382 Y71.809 E2.67419
G1 X109.382 Y72.167 E.00969
G1 X10.618 Y72.167 E2.67419
G1 X10.618 Y72.524 E.00969
G1 X109.382 Y72.524 E2.67419
G1 X109.382 Y72.882 E.00969
M73 P64 R0
G1 X10.618 Y72.882 E2.67419
G1 X10.618 Y73.24 E.00969
G1 X109.382 Y73.24 E2.67419
G1 X109.382 Y73.598 E.00969
G1 X10.618 Y73.598 E2.67419
G1 X10.618 Y73.956 E.00969
M73 P65 R0
G1 X109.382 Y73.956 E2.67419
G1 X109.382 Y74.314 E.00969
G1 X10.618 Y74.314 E2.67419
G1 X10.618 Y74.671 E.00969
G1 X109.382 Y74.671 E2.67419
G1 X109.382 Y75.029 E.00969
M73 P66 R0
G1 X10.618 Y75.029 E2.67419
G1 X10.618 Y75.387 E.00969
G1 X109.382 Y75.387 E2.67419
G1 X109.382 Y75.745 E.00969
G1 X10.618 Y75.745 E2.67419
G1 X10.618 Y76.103 E.00969
M73 P67 R0
G1 X109.382 Y76.103 E2.67419
G1 X109.382 Y76.461 E.00969
G1 X10.618 Y76.461 E2.67419
G1 X10.618 Y76.818 E.00969
G1 X109.382 Y76.818 E2.67419
G1 X109.382 Y77.176 E.00969
M73 P68 R0
G1 X10.618 Y77.176 E2.67419
G1 X10.618 Y77.534 E.00969
G1 X109.382 Y77.534 E2.67419
G1 X109.382 Y77.892 E.00969
G1 X10.618 Y77.892 E2.67419
G1 X10.618 Y78.25 E.00969
M73 P69 R0
G1 X109.382 Y78.25 E2.67419
G1 X109.382 Y78.608 E.00969
G1 X10.618 Y78.608 E2.67419
G1 X10.618 Y78.965 E.00969
G1 X109.382 Y78.965 E2.67419
M73 P70 R0
G1 X109.382 Y79.323 E.00969
G1 X10.618 Y79.323 E2.67419
G1 X10.618 Y79.681 E.00969
G1 X109.382 Y79.681 E2.67419
G1 X109.382 Y80.039 E.00969
M73 P71 R0
G1 X10.618 Y80.039 E2.67419
G1 X10.618 Y80.397 E.00969
G1 X109.382 Y80.397 E2.67419
G1 X109.382 Y80.755 E.00969
G1 X10.618 Y80.755 E2.67419
G1 X10.618 Y81.113 E.00969
M73 P72 R0
G1 X109.382 Y81.113 E2.67419
G1 X109.382 Y81.47 E.00969
G1 X10.618 Y81.47 E2.67419
G1 X10.618 Y81.828 E.00969
G1 X109.382 Y81.828 E2.67419
G1 X109.382 Y82.186 E.00969
M73 P73 R0
G1 X10.618 Y82.186 E2.67419
G1 X10.618 Y82.544 E.00969
G1 X109.382 Y82.544 E2.67419
G1 X109.382 Y82.902 E.00969
G1 X10.618 Y82.902 E2.67419
G1 X10.618 Y83.26 E.00969
M73 P74 R0
G1 X109.382 Y83.26 E2.67419
G1 X109.382 Y83.617 E.00969
G1 X10.618 Y83.617 E2.67419
G1 X10.618 Y83.975 E.00969
G1 X109.382 Y83.975 E2.67419
G1 X109.382 Y84.333 E.00969
M73 P75 R0
G1 X10.618 Y84.333 E2.67419
G1 X10.618 Y84.691 E.00969
G1 X109.382 Y84.691 E2.67419
G1 X109.382 Y85.049 E.00969
G1 X10.618 Y85.049 E2.67419
G1 X10.618 Y85.407 E.00969
M73 P76 R0
G1 X109.382 Y85.407 E2.67419
G1 X109.382 Y85.764 E.00969
G1 X10.618 Y85.764 E2.67419
G1 X10.618 Y86.122 E.00969
G1 X109.382 Y86.122 E2.67419
G1 X109.382 Y86.48 E.00969
M73 P77 R0
G1 X10.618 Y86.48 E2.67419
G1 X10.618 Y86.838 E.00969
G1 X109.382 Y86.838 E2.67419
G1 X109.382 Y87.196 E.00969
M73 P78 R0
G1 X10.618 Y87.196 E2.67419
G1 X10.618 Y87.554 E.00969
G1 X109.382 Y87.554 E2.67419
G1 X109.382 Y87.911 E.00969
G1 X10.618 Y87.911 E2.67419
G1 X10.618 Y88.269 E.00969
M73 P79 R0
G1 X109.382 Y88.269 E2.67419
G1 X109.382 Y88.627 E.00969
G1 X10.618 Y88.627 E2.67419
G1 X10.618 Y88.985 E.00969
G1 X109.382 Y88.985 E2.67419
G1 X109.382 Y89.343 E.00969
M73 P80 R0
G1 X10.618 Y89.343 E2.67419
G1 X10.618 Y89.701 E.00969
G1 X109.382 Y89.701 E2.67419
G1 X109.382 Y90.059 E.00969
G1 X10.618 Y90.058 E2.67419
G1 X10.618 Y90.416 E.00969
M73 P81 R0
G1 X109.382 Y90.416 E2.67419
G1 X109.382 Y90.774 E.00969
G1 X10.618 Y90.774 E2.67419
G1 X10.618 Y91.132 E.00969
G1 X109.382 Y91.132 E2.67419
G1 X109.382 Y91.49 E.00969
M73 P82 R0
G1 X10.618 Y91.49 E2.67419
G1 X10.618 Y91.848 E.00969
G1 X109.382 Y91.848 E2.67419
G1 X109.382 Y92.206 E.00969
G1 X10.618 Y92.206 E2.67419
G1 X10.618 Y92.563 E.00969
M73 P83 R0
G1 X109.382 Y92.563 E2.67419
G1 X109.382 Y92.921 E.00969
G1 X10.618 Y92.921 E2.67419
G1 X10.618 Y93.279 E.00969
G1 X109.382 Y93.279 E2.67419
G1 X109.382 Y93.637 E.00969
M73 P84 R0
G1 X10.618 Y93.637 E2.67419
G1 X10.618 Y93.995 E.00969
G1 X109.382 Y93.995 E2.67419
G1 X109.382 Y94.353 E.00969
G1 X10.618 Y94.353 E2.67419
G1 X10.618 Y94.71 E.00969
M73 P85 R0
G1 X109.382 Y94.71 E2.67419
G1 X109.382 Y95.068 E.00969
G1 X10.618 Y95.068 E2.67419
G1 X10.618 Y95.426 E.00969
M73 P86 R0
G1 X109.382 Y95.426 E2.67419
G1 X109.382 Y95.784 E.00969
